project-unveil/project-unveil.github.io/feature-analysis-animation/data/matrix_clips/step_up_box.csv
Frame,root_translateX,root_translateY,root_translateZ,root_rotateX,root_rotateY,root_rotateZ,left_hip_pitch_joint_dof,left_hip_roll_joint_dof,left_hip_yaw_joint_dof,left_knee_joint_dof,left_ankle_pitch_joint_dof,left_ankle_roll_joint_dof,right_hip_pitch_joint_dof,right_hip_roll_joint_dof,right_hip_yaw_joint_dof,right_knee_joint_dof,right_ankle_pitch_joint_dof,right_ankle_roll_joint_dof,waist_yaw_joint_dof,waist_roll_joint_dof,waist_pitch_joint_dof,left_shoulder_pitch_joint_dof,left_shoulder_roll_joint_dof,left_shoulder_yaw_joint_dof,left_elbow_joint_dof,left_wrist_roll_joint_dof,left_wrist_pitch_joint_dof,left_wrist_yaw_joint_dof,right_shoulder_pitch_joint_dof,right_shoulder_roll_joint_dof,right_shoulder_yaw_joint_dof,right_elbow_joint_dof,right_wrist_roll_joint_dof,right_wrist_pitch_joint_dof,right_wrist_yaw_joint_dof
0,-0.894314169883728,2.655200958251953,78.20458221435547,0.32050276539845435,-2.5686892183646073,-86.41718235846638,3.9648483,1.7846197,-3.1597097,9.935527,-12.801577,-3.1327302,5.669,-2.6136239,-3.4970598,9.088957,-12.527725,3.5796387,-1.555759,3.887691,8.675703,3.3411534,14.785565,-29.274668,55.53854,25.357069,-2.3723814,-5.288036,-3.2241948,-16.909794,42.230366,60.8089,-7.3454514,3.2134855,7.9140644
1,-0.9173582196235657,2.6630513668060303,78.2111587524414,0.3096235311734939,-2.493801026336496,-86.45230799681073,3.888073,1.8269064,-3.1350288,9.918702,-12.798283,-3.1551516,5.5652547,-2.569913,-3.4666157,9.097943,-12.504388,3.510968,-1.5178277,3.8990371,8.644828,3.324572,14.788591,-29.269913,55.544342,25.376528,-2.3438451,-5.2885876,-3.2341242,-16.911963,42.23677,60.799576,-7.3124933,3.2181187,7.8695507
2,-0.9418029189109802,2.6623809337615967,78.21858978271484,0.2992340218996007,-2.4157071483596693,-86.4881446750069,3.808067,1.8688878,-3.1100733,9.901079,-12.794792,-3.1759539,5.4561896,-2.5262887,-3.4343152,9.109934,-12.4812,3.441656,-1.4905641,3.9096935,8.611737,3.3093789,14.79373,-29.2549,55.550056,25.395758,-2.3160915,-5.2907248,-3.2391236,-16.91417,42.245102,60.785717,-7.2888265,3.2222953,7.820987
3,-0.9712361693382263,2.6660428047180176,78.22212982177734,0.2938136539755349,-2.3398169697280364,-86.52435401665396,3.7318206,1.9077268,-3.0836413,9.881072,-12.788943,-3.199833,5.349333,-2.4866776,-3.403293,9.123343,-12.460334,3.3748693,-1.4642192,3.9141939,8.582558,3.2964108,14.7987,-29.234865,55.55484,25.41475,-2.2897842,-5.292339,-3.2467523,-16.915146,42.254196,60.77019,-7.268262,3.2283952,7.7769723
4,-1.0012317895889282,2.670755386352539,78.22502136230469,0.2867777752421939,-2.2687919762947084,-86.5602694837166,3.662611,1.949636,-3.0558684,9.859172,-12.779313,-3.2317739,5.250637,-2.4456503,-3.3777678,9.132366,-12.440352,3.3133929,-1.4547461,3.910168,8.573935,3.2957919,14.820567,-29.181831,55.54067,25.431793,-2.2693896,-5.2966695,-3.2910924,-16.914854,42.301533,60.763832,-7.2282753,3.2370887,7.7432995
5,-1.0344897508621216,2.677018880844116,78.22715759277344,0.28193016466884174,-2.2039796928921818,-86.59463569266467,3.6042616,1.9955555,-3.027687,9.830075,-12.761029,-3.274718,5.1663876,-2.4031188,-3.3622048,9.128261,-12.418193,3.2626705,-1.4304836,3.9058456,8.565745,3.2778952,14.833024,-29.147844,55.55443,25.422464,-2.2507389,-5.2915635,-3.2997088,-16.91132,42.30049,60.733047,-7.238593,3.2532942,7.720953
6,-1.070028305053711,2.685231924057007,78.22586059570312,0.2760367057256276,-2.143381687810946,-86.62810425541315,3.5518167,2.0441904,-2.9991436,9.799913,-12.738867,-3.3255308,5.090877,-2.359447,-3.3534977,9.117595,-12.395743,3.2194638,-1.402516,3.894724,8.568997,3.2543426,14.851998,-29.107023,55.57112,25.40241,-2.2369173,-5.2856736,-3.3154383,-16.902184,42.293938,60.700176,-7.256318,3.273533,7.7081404
7,-1.1093440055847168,2.6918935775756836,78.22360229492188,0.2747953963736813,-2.08378691171584,-86.66387647865822,3.5044427,2.089838,-2.96624,9.762194,-12.71257,-3.379012,4.9614263,-2.3226337,-3.3404243,9.223469,-12.43644,3.1748977,-1.3783407,3.885866,8.563715,3.2300234,14.857759,-29.084023,55.60468,25.37413,-2.2190874,-5.2706184,-3.305652,-16.898258,42.276474,60.655083,-7.3032913,3.2948844,7.6983423
8,-1.154160976409912,2.693976879119873,78.21968841552734,0.28535387620727926,-2.0224723289522064,-86.70571881424871,3.4626782,2.1278338,-2.924518,9.710463,-12.683069,-3.4303663,4.746988,-2.2974956,-3.3126304,9.502173,-12.567811,3.1193972,-1.346492,3.8579693,8.576503,3.1823716,14.875797,-29.051893,55.64669,25.379774,-2.2051284,-5.262908,-3.3224723,-16.886106,42.249973,60.622776,-7.35559,3.3077085,7.6965137
9,-1.2000178098678589,2.689030408859253,78.21700286865234,0.29359041000067737,-1.96380803903057,-86.74984287594327,3.4214468,2.1698585,-2.87849,9.66327,-12.660334,-3.4801617,4.5271225,-2.2667902,-3.2765265,9.794881,-12.706227,3.0460632,-1.3244321,3.8301258,8.590873,3.136223,14.905902,-29.043045,55.68917,25.395496,-2.1835992,-5.253477,-3.3425863,-16.866034,42.235416,60.603233,-7.43285,3.3148115,7.706608
10,-1.2479958534240723,2.687479019165039,78.21488189697266,0.30306093554306174,-1.9077960838029426,-86.79583830984939,3.3821194,2.214853,-2.828649,9.61824,-12.641515,-3.5304902,4.3027463,-2.2323368,-3.2351236,10.101167,-12.852316,2.961199,-1.30716,3.8037965,8.610711,3.0880935,14.939803,-29.046986,55.732613,25.421614,-2.1563509,-5.2425685,-3.368462,-16.844362,42.225147,60.59187,-7.5300345,3.3175716,7.728275
11,-1.302658200263977,2.695831298828125,78.21128845214844,0.3115956310845747,-1.8508881735846867,-86.8438056981364,3.3429825,2.2639167,-2.7772074,9.5738125,-12.62628,-3.58209,4.076006,-2.1929843,-3.1902251,10.411326,-13.000244,2.8711593,-1.290592,3.7764874,8.631902,3.0311124,14.974081,-29.056324,55.79118,25.455639,-2.1343684,-5.2282662,-3.3993306,-16.823917,42.22088,60.583427,-7.6020336,3.314696,7.7372746
12,-1.3571747541427612,2.7012698650360107,78.20719146728516,0.31697346779464874,-1.7899487497161013,-86.89329380412403,3.3013647,2.3193896,-2.7268095,9.53137,-12.616184,-3.6358063,3.8649375,-2.145622,-3.1446142,10.6831875,-13.132459,2.7822511,-1.2741994,3.7565339,8.649448,2.9703436,14.994406,-29.060204,55.868336,25.501232,-2.123378,-5.206709,-3.4322975,-16.813013,42.22315,60.57338,-7.607974,3.3038306,7.710278
13,-1.41490638256073,2.7035553455352783,78.20362091064453,0.32080208624471834,-1.723171333100791,-86.94370758026345,3.256556,2.38063,-2.677607,9.488596,-12.611045,-3.6903732,3.6639395,-2.0913863,-3.0976348,10.924388,-13.251311,2.697819,-1.2609044,3.7199705,8.667821,2.9375386,15.054088,-29.054907,55.91238,25.547573,-2.132993,-5.1846933,-3.4577203,-16.780088,42.200325,60.558388,-7.553907,3.2792318,7.6177273
14,-1.4782702922821045,2.693216562271118,78.1994857788086,0.3227253342231417,-1.6527850421705357,-86.99516559638268,3.2096364,2.4475775,-2.6286523,9.446313,-12.610587,-3.74587,3.4706256,-2.0300703,-3.0487823,11.143623,-13.361057,2.613728,-1.2482631,3.688245,8.684758,2.8966177,15.104614,-29.047611,55.97702,25.607,-2.1562054,-5.1539817,-3.5001965,-16.75412,42.19806,60.55318,-7.412907,3.244281,7.48132
15,-1.5434544086456299,2.6871378421783447,78.19474029541016,0.3235913444098496,-1.58063973954284,-87.04982720626796,3.1640375,2.519485,-2.5792105,9.403762,-12.612854,-3.8049953,3.2806144,-1.9633148,-2.998152,11.356114,-13.469,2.525564,-1.2395264,3.656136,8.699895,2.8602264,15.153588,-29.032677,56.046276,25.671095,-2.1803858,-5.124102,-3.5302293,-16.729843,42.18741,60.53742,-7.2783856,3.2072332,7.3478284
16,-1.6105843782424927,2.675633430480957,78.18939971923828,0.3249260678079171,-1.5087712381718763,-87.10953619092096,3.1213868,2.596205,-2.5287986,9.362316,-12.616241,-3.870712,3.089528,-1.892079,-2.9461691,11.577562,-13.5831175,2.4286623,-1.2301738,3.6174865,8.715257,2.8379667,15.215311,-29.011412,56.101093,25.730984,-2.1926143,-5.1045175,-3.5626664,-16.699799,42.182705,60.526672,-7.1856813,3.1748283,7.262984
17,-1.6851346492767334,2.6516032218933105,78.18111419677734,0.3254358923400423,-1.4371070166848188,-87.17451638807526,3.0842543,2.6767042,-2.479558,9.318346,-12.618977,-3.9440265,2.8966749,-1.8172702,-2.895429,11.81221,-13.70479,2.3191748,-1.2193311,3.575671,8.727582,2.8207195,15.274809,-28.981153,56.15996,25.799025,-2.1877537,-5.0984316,-3.590328,-16.670305,42.18198,60.517277,-7.148206,3.147694,7.2483063
18,-1.766097903251648,2.6389412879943848,78.17236328125,0.3270127733804415,-1.3648719854445293,-87.24392003840556,3.050172,2.7620132,-2.4310493,9.273317,-12.622466,-4.023388,2.7037344,-1.7376591,-2.8449492,12.05231,-13.830407,2.2003,-1.20524,3.5390265,8.73461,2.7926922,15.313755,-28.948807,56.245773,25.875757,-2.172872,-5.097234,-3.6084087,-16.651304,42.180923,60.50423,-7.1398416,3.123259,7.276599
19,-1.844796895980835,2.627171516418457,78.16325378417969,0.32509404646635337,-1.2923377233008433,-87.3177862704538,3.0110295,2.8529282,-2.378826,9.244816,-12.635935,-4.107505,2.5134308,-1.6518625,-2.7897155,12.289178,-13.956728,2.0784113,-1.1956402,3.4981413,8.743866,2.779443,15.364406,-28.909586,56.314457,25.937626,-2.154342,-5.097856,-3.6326509,-16.627033,42.189785,60.49439,-7.151498,3.1032019,7.3202367
20,-1.9314695596694946,2.6102395057678223,78.15328216552734,0.3167810300073692,-1.219396138112754,-87.39540939086297,2.93025,2.9539595,-2.3213282,9.309536,-12.700135,-4.195681,2.3304894,-1.5535966,-2.726415,12.507526,-14.076684,1.9594531,-1.1881593,3.4685953,8.752429,2.7608511,15.401892,-28.8788,56.39078,25.96361,-2.1372247,-5.085798,-3.6470873,-16.60941,42.195835,60.471977,-7.1889477,3.0920804,7.3526998
21,-2.0183722972869873,2.5900964736938477,78.14185333251953,0.3085281678200212,-1.1444508395355175,-87.47769227507617,2.8474758,3.0611153,-2.252467,9.377756,-12.766406,-4.2905493,2.1472523,-1.4481189,-2.6503534,12.716554,-14.194733,1.8427051,-1.1818007,3.43488,8.76441,2.7521162,15.45251,-28.851633,56.443993,25.928808,-2.1205146,-5.061446,-3.687414,-16.587088,42.236942,60.458374,-7.232857,3.093031,7.372252
22,-2.1108338832855225,2.5649290084838867,78.13115692138672,0.296947438363418,-1.0678588968285994,-87.56470633583794,2.7579198,3.1743164,-2.175605,9.461616,-12.841576,-4.3916507,1.9634836,-1.335935,-2.5648062,12.920646,-14.3126,1.725834,-1.1798551,3.401114,8.775428,2.7485092,15.503528,-28.825085,56.490967,25.850672,-2.1020513,-5.028219,-3.718173,-16.565023,42.27677,60.43166,-7.32335,3.1046197,7.3918166
23,-2.2061233520507812,2.5442862510681152,78.11969757080078,0.2828894102179497,-0.9951656405031222,-87.65662324630283,2.663821,3.29437,-2.0937476,9.572728,-12.933986,-4.4916873,1.7934144,-1.2161075,-2.473864,13.107652,-14.42513,1.6137714,-1.1746608,3.376545,8.790432,2.735151,15.538507,-28.810266,56.55252,25.770592,-2.0863605,-4.9885087,-3.7507274,-16.550991,42.317,60.40746,-7.398906,3.1171086,7.4045486
24,-2.3024909496307373,2.5163373947143555,78.10819244384766,0.2647401239041868,-0.9315326036400631,-87.75388880851055,2.565223,3.4215884,-2.0099955,9.727889,-13.055378,-4.583405,1.6488492,-1.0885564,-2.3813844,13.269822,-14.529145,1.5113852,-1.1819651,3.3542058,8.817503,2.7408724,15.581503,-28.790987,56.59869,25.727503,-2.0796387,-4.953121,-3.7781727,-16.53376,42.344135,60.386887,-7.442673,3.121391,7.4024706
25,-2.4006567001342773,2.4816644191741943,78.09248352050781,0.2466701277418114,-0.8814214754548388,-87.85416490971797,2.4705389,3.5518234,-1.9255514,9.919325,-13.204677,-4.6601434,1.5362781,-0.95841485,-2.2920253,13.4055,-14.625739,1.4261426,-1.2017965,3.3261561,8.865438,2.7720814,15.649631,-28.775438,56.61383,25.731144,-2.085718,-4.921945,-3.7960207,-16.504116,42.334408,60.367634,-7.448056,3.1166818,7.3846874
26,-2.5065412521362305,2.444253921508789,78.07634735107422,0.22730761390323362,-0.8409596670552646,-87.95795515607014,2.3755672,3.6865914,-1.8388189,10.145375,-13.378936,-4.7273536,1.4484273,-0.8237926,-2.2024658,13.517664,-14.715154,1.3534226,-1.2223864,3.3083823,8.923682,2.7905393,15.695866,-28.774591,56.652195,25.765661,-2.0998964,-4.8841844,-3.8117106,-16.483284,42.310745,60.353466,-7.4094334,3.107843,7.355243
27,-2.613917589187622,2.4036386013031006,78.05777740478516,0.20043399224246056,-0.803217657559082,-88.07024392313768,2.2624826,3.8344116,-1.7484607,10.428781,-13.583424,-4.795998,1.3745664,-0.6746416,-2.1046596,13.61046,-14.796188,1.279977,-1.2404609,3.2970712,8.983338,2.819922,15.747615,-28.776255,56.681435,25.81052,-2.1164958,-4.8532214,-3.8175137,-16.459045,42.27505,60.340565,-7.371149,3.091704,7.313824
28,-2.7195491790771484,2.364503860473633,78.03814697265625,0.15967792279642606,-0.7616675793084609,-88.19575332395172,2.1216137,4.003886,-1.6525617,10.774981,-13.818339,-4.8769827,1.3053665,-0.5010096,-1.9903793,13.685459,-14.866357,1.1925988,-1.2489727,3.3054442,9.030698,2.8508577,15.783781,-28.773184,56.721127,25.854052,-2.1293492,-4.83356,-3.821392,-16.44199,42.258205,60.337006,-7.340538,3.0656602,7.2600827
29,-2.832510232925415,2.316157102584839,78.017578125,0.10293646443017335,-0.7184234116781912,-88.34053258965092,1.9657687,4.197924,-1.546016,11.167406,-14.079919,-4.9753385,1.2410979,-0.2993989,-1.8522953,13.744907,-14.921485,1.0810252,-1.2388673,3.3328373,9.063116,2.8808856,15.802538,-28.768015,56.77904,25.89548,-2.13997,-4.8287,-3.8169866,-16.433422,42.2605,60.338776,-7.314118,3.0199175,7.1717973
30,-2.9487881660461426,2.259913682937622,77.9943618774414,0.03680688399824906,-0.6759866091962574,-88.50031736819024,1.7974545,4.4111953,-1.4311258,11.604377,-14.367453,-5.0843945,1.1862949,-0.07629392,-1.696502,13.787368,-14.964339,0.9547267,-1.2260529,3.3627348,9.091966,2.9438708,15.844375,-28.749807,56.80402,25.937756,-2.151098,-4.8417377,-3.8099942,-16.413517,42.272224,60.34915,-7.2961016,2.9580526,7.055339
31,-3.065211772918701,2.2028958797454834,77.96542358398438,-0.043429301052095866,-0.6276261813596056,-88.6652442106759,1.576074,4.642038,-1.3188007,12.146398,-14.697979,-5.1975784,1.1356697,0.16486914,-1.5345943,13.812125,-15.003497,0.82970834,-1.2153702,3.4058495,9.1150465,3.019669,15.889363,-28.723345,56.814465,25.979671,-2.1576912,-4.8632455,-3.808581,-16.390429,42.295723,60.372864,-7.2921476,2.8993728,6.955978
32,-3.1845922470092773,2.1524147987365723,77.93244934082031,-0.13994151653884787,-0.5669389139817061,-88.82538121506587,1.2617695,4.8886566,-1.2201749,12.852613,-15.087679,-5.3079286,1.0842373,0.41968095,-1.3773078,13.817064,-15.046482,0.72142285,-1.2076548,3.4758801,9.129459,3.080733,15.911066,-28.700737,56.836212,26.017973,-2.1539683,-4.8825846,-3.811621,-16.378706,42.321877,60.40655,-7.315737,2.8637414,6.9199243
33,-3.301419973373413,2.1012485027313232,77.896484375,-0.2503903153603932,-0.4830776836468573,-88.98593940854985,0.8486262,5.153679,-1.1324015,13.713313,-15.549611,-5.4265137,1.0136815,0.68928105,-1.2194674,13.81077,-15.098704,0.6278669,-1.2066611,3.565075,9.12594,3.146413,15.926096,-28.669235,56.84465,26.047535,-2.1293995,-4.905948,-3.8180106,-16.369556,42.35411,60.451256,-7.4054,2.8629594,6.9860334
34,-3.4161181449890137,2.0502512454986572,77.8580093383789,-0.37483306081977225,-0.38307872855655406,-89.1497506316242,0.3559177,5.43641,-1.0522292,14.706678,-16.073156,-5.5515924,0.9328085,0.97319496,-1.0571576,13.7902565,-15.154251,0.5427955,-1.2081957,3.6708453,9.109011,3.2170649,15.934658,-28.632292,56.84263,26.071264,-2.0896463,-4.934751,-3.8318903,-16.363146,42.396824,60.511482,-7.537114,2.8838258,7.120964
35,-3.5279159545898438,1.994503140449524,77.81272888183594,-0.5130122203376343,-0.28697980797234424,-89.30439772739787,-0.21969445,5.7301784,-0.99016947,15.876923,-16.63912,-5.6566525,0.87139875,1.2661048,-0.9053781,13.747388,-15.210438,0.47761577,-1.2218039,3.796282,9.101876,3.2868936,15.936364,-28.591932,56.83463,26.098925,-2.0550091,-4.96195,-3.852279,-16.36003,42.44145,60.579685,-7.6579976,2.908914,7.261031
36,-3.6325700283050537,1.9323503971099854,77.7627944946289,-0.6659802681946926,-0.21453773784583832,-89.43610279270969,-0.8718685,6.0287485,-0.95764816,17.247837,-17.22292,-5.7152762,0.8624503,1.5628496,-0.7802715,13.665891,-15.260541,0.44362947,-1.2560834,3.9474413,9.128137,3.3553274,15.932899,-28.559002,56.81516,26.13609,-2.0435412,-4.9795904,-3.878361,-16.360682,42.468586,60.65232,-7.72221,2.9203722,7.3426137
37,-3.727189540863037,1.8722447156906128,77.70458984375,-0.8415898144457982,-0.1614777700939938,-89.54504759347263,-1.6056329,6.3370447,-0.96413267,18.826532,-17.865211,-5.716368,0.903444,1.8700029,-0.68291575,13.539283,-15.305862,0.4572021,-1.359738,4.140458,9.189293,3.4493635,15.905816,-28.466911,56.77739,26.229288,-2.073793,-4.9909673,-3.9365754,-16.372648,42.535503,60.73958,-7.683322,2.9150846,7.32113
38,-3.818368434906006,1.8110320568084717,77.64385986328125,-1.037032203948355,-0.1204456108159177,-89.63695383077717,-2.417538,6.656676,-1.0036992,20.58894,-18.559322,-5.6741295,0.97867596,2.1883204,-0.6048957,13.375146,-15.348674,0.5066174,-1.4741424,4.372105,9.26809,3.5218956,15.849559,-28.388401,56.760284,26.34634,-2.1282237,-4.9921374,-3.985242,-16.403519,42.5798,60.821384,-7.593231,2.9018006,7.2410965
39,-3.908113718032837,1.7516305446624756,77.58369445800781,-1.2408696097188083,-0.10533742248727919,-89.70806168484927,-3.3017957,6.9784937,-1.0644546,22.541712,-19.215538,-5.600942,1.1061251,2.5088089,-0.54938525,13.169792,-15.379328,0.5617778,-1.6004853,4.622814,9.381582,3.5736055,15.773752,-28.324574,56.75158,26.44159,-2.1844485,-4.98061,-4.032188,-16.451063,42.607357,60.893463,-7.4890585,2.8850162,7.170029
40,-3.9936394691467285,1.6904704570770264,77.52155303955078,-1.444260903469679,-0.13000069239373124,-89.75445772804393,-4.2500405,7.294476,-1.1334989,24.688824,-19.74146,-5.509692,1.3043633,2.822947,-0.51820374,12.920785,-15.387415,0.5918977,-1.7445328,4.873658,9.544561,3.6065173,15.6825695,-28.270561,56.743866,26.472342,-2.2203343,-4.9533434,-4.0782523,-16.513254,42.61808,60.949696,-7.421458,2.8701973,7.174886
41,-4.074828147888184,1.6243808269500732,77.46578216552734,-1.6567172162259522,-0.20496122416866022,-89.77332637087146,-5.2659054,7.617684,-1.2211528,27.069994,-20.112694,-5.4413133,1.5969375,3.1454573,-0.5165953,12.607433,-15.359673,0.5841798,-1.9167074,5.1384487,9.767398,3.6219454,15.572299,-28.235933,56.735886,26.444206,-2.2274053,-4.9170313,-4.1304903,-16.59408,42.62122,60.986935,-7.4153223,2.856125,7.297986
42,-4.1501312255859375,1.5612919330596924,77.41159057617188,-1.881577551582275,-0.3198353877161441,-89.76733033300043,-6.343259,7.946995,-1.3283159,29.65406,-20.372274,-5.377218,1.9701622,3.4762702,-0.5403146,12.233246,-15.302138,0.5559515,-2.1154444,5.418417,10.041116,3.625769,15.446916,-28.214376,56.72382,26.375288,-2.2186546,-4.8720384,-4.185297,-16.691145,42.612183,61.008095,-7.446049,2.840838,7.4952364
43,-4.226189136505127,1.4895915985107422,77.36016845703125,-2.091600513642884,-0.4578747979524562,-89.74003912658968,-7.466551,8.254323,-1.4279149,32.356167,-20.529509,-5.2421966,2.388796,3.7862592,-0.57817394,11.8312,-15.232805,0.5225142,-2.3211076,5.6845164,10.350842,3.606933,15.308705,-28.18941,56.716267,26.238842,-2.2034953,-4.8025475,-4.23672,-16.801443,42.587517,61.01844,-7.4604,2.8286278,7.705066
44,-4.301767826080322,1.4084787368774414,77.31758117675781,-2.2615809134512017,-0.6021691777988103,-89.69528743123442,-8.616286,8.514113,-1.4912158,35.083706,-20.592743,-4.962078,2.8192022,4.0471487,-0.6202376,11.433334,-15.169731,0.4992226,-2.5142274,5.9078784,10.680657,3.556803,15.161937,-28.143497,56.719788,26.008585,-2.191687,-4.6930747,-4.27866,-16.920218,42.539566,61.02693,-7.4118023,2.8241246,7.8655667
45,-4.379286766052246,1.328730583190918,77.2840805053711,-2.3874824103256906,-0.757158442144402,-89.6221560595367,-9.808093,8.731499,-1.5057616,37.892902,-20.506695,-4.479244,3.2735577,4.25418,-0.6755958,11.028448,-15.109725,0.48983255,-2.698563,6.080119,11.038034,3.4685466,15.00828,-28.081514,56.737385,25.645815,-2.1817753,-4.5352387,-4.306706,-17.042107,42.458595,61.025715,-7.2548184,2.8311946,7.9643946
46,-4.448866844177246,1.2484283447265625,77.25553131103516,-2.484610094586651,-0.9286052220215443,-89.52279826682013,-11.038208,8.919844,-1.4812313,40.792587,-20.276102,-3.8500059,3.766289,4.4230447,-0.74617904,10.602208,-15.043641,0.4870972,-2.880813,6.216372,11.426706,3.34957,14.848311,-28.010149,56.763382,25.174355,-2.170924,-4.339081,-4.331888,-17.165428,42.35596,61.022636,-7.02057,2.8461337,8.032633
47,-4.514676094055176,1.166124939918518,77.23383331298828,-2.551703424214474,-1.102832719277935,-89.42029914310261,-12.267544,9.065322,-1.4243011,43.64175,-20.010656,-3.16897,4.2627263,4.554966,-0.81272686,10.189164,-14.985759,0.48935708,-3.047877,6.323486,11.825054,3.2166877,14.685326,-27.909195,56.786964,24.663305,-2.1667824,-4.1174536,-4.3542886,-17.290089,42.23609,61.034206,-6.8018622,2.8628926,8.073412
48,-4.578415393829346,1.0764299631118774,77.21902465820312,-2.590048643255846,-1.265765734638561,-89.33763886426779,-13.46375,9.151717,-1.3470649,46.312763,-19.828861,-2.5279615,4.724253,4.650073,-0.85685885,9.831553,-14.954202,0.49462685,-3.1867523,6.409083,12.213222,3.085497,14.524927,-27.761585,56.795403,24.178314,-2.17639,-3.8836005,-4.377283,-17.415663,42.111485,61.075058,-6.680572,2.875078,8.090589
49,-4.63318395614624,0.9731327295303345,77.20854187011719,-2.595600970872577,-1.420091451753727,-89.26855678367394,-14.644687,9.170921,-1.2537789,48.872124,-19.79403,-1.8829411,5.142854,4.6997147,-0.88199294,9.550855,-14.959862,0.5026922,-3.305193,6.4670467,12.599926,2.959836,14.369535,-27.55343,56.773197,23.72855,-2.2042413,-3.6257403,-4.403063,-17.542027,41.974407,61.151596,-6.702104,2.8797357,8.075303
50,-4.685336589813232,0.8596735000610352,77.1996841430664,-2.5676831757332454,-1.5713116072020323,-89.2047691500122,-15.825097,9.13445,-1.1393486,51.369556,-19.84015,-1.2046733,5.5377254,4.706641,-0.8966549,9.322962,-14.99187,0.51434326,-3.4069588,6.4960465,12.992146,2.8330452,14.220061,-27.29669,56.72664,23.280533,-2.2463188,-3.3430088,-4.432631,-17.668564,41.82665,61.255722,-6.80968,2.8804002,8.028893
51,-4.729898452758789,0.7388280630111694,77.19415283203125,-2.5194106433162835,-1.7103343550217887,-89.16593828867964,-16.97217,9.050323,-1.0029825,53.661842,-19.898272,-0.61017656,5.9085336,4.686399,-0.88939416,9.127595,-15.039453,0.5285494,-3.4746606,6.5081186,13.366247,2.7119715,14.080309,-27.006351,56.670803,22.841633,-2.2958262,-3.065559,-4.458993,-17.794502,41.679993,61.37738,-6.952243,2.8810441,7.9703045
52,-4.7678985595703125,0.6147462129592896,77.19212341308594,-2.460665882074739,-1.8278507211405193,-89.17189698215883,-18.054432,8.924668,-0.84209824,55.606056,-19.899212,-0.22122212,6.2593737,4.6546044,-0.84720695,8.934308,-15.086059,0.54362977,-3.4904704,6.51456,13.699329,2.6041698,13.956244,-26.697292,56.618935,22.418955,-2.345521,-2.8236935,-4.4833236,-17.91982,41.556126,61.51288,-7.0673532,2.884971,7.9177256
53,-4.801844596862793,0.45931121706962585,77.19193267822266,-2.387170085122569,-1.923049213377437,-89.23284224794078,-19.06593,8.74269,-0.66020966,57.187363,-19.841093,-0.10412007,6.5845027,4.6102986,-0.76062524,8.755061,-15.135316,0.5518138,-3.4430242,6.5142193,13.984966,2.5179148,13.851555,-26.357685,56.570145,22.013788,-2.3972707,-2.6188743,-4.498644,-18.045235,41.46332,61.66175,-7.162066,2.8892221,7.8693027
54,-4.83690881729126,0.29444655776023865,77.19346618652344,-2.2978142159021946,-2.0003854544843036,-89.33639542604992,-20.026285,8.503901,-0.45670548,58.479168,-19.760853,-0.18897347,6.8845053,4.5467424,-0.6387753,8.598713,-15.192794,0.5561767,-3.3447847,6.502279,14.237318,2.4515305,13.767033,-25.982914,56.512047,21.622522,-2.453159,-2.4382505,-4.5069647,-18.170338,41.390133,61.82422,-7.26127,2.8932965,7.817312
55,-4.866502285003662,0.12905927002429962,77.19673156738281,-2.1982476909897017,-2.0582563579168753,-89.46859739893621,-20.945044,8.236206,-0.22426365,59.47361,-19.639442,-0.39324826,7.165551,4.469221,-0.49701962,8.447079,-15.25496,0.57218623,-3.2134662,6.48344,14.463089,2.3969834,13.704934,-25.601046,56.441814,21.242653,-2.5060034,-2.2904792,-4.5175314,-18.292414,41.3195,61.993614,-7.3389935,2.9042847,7.772638
56,-4.893674850463867,-0.05168471112847328,77.20121002197266,-2.0963692406288112,-2.0947754772166816,-89.61572415313589,-21.8295,7.9701424,0.04341915,60.15857,-19.457184,-0.63161427,7.4335284,4.383637,-0.35053858,8.281769,-15.317576,0.61505526,-3.0653155,6.462078,14.668781,2.346861,13.668204,-25.240997,56.356487,20.871677,-2.548351,-2.1841276,-4.5378594,-18.406971,41.23179,62.163452,-7.370928,2.9289422,7.745656
57,-4.922784328460693,-0.23908619582653046,77.20601654052734,-1.985957292913657,-2.100969055034447,-89.7825698926888,-22.685486,7.71198,0.3631335,60.512966,-19.180756,-0.8901176,7.6832137,4.2831903,-0.20111771,8.091253,-15.376097,0.699864,-2.8919349,6.4359765,14.843553,2.2983818,13.661215,-24.908863,56.24976,20.488111,-2.5656881,-2.1205056,-4.5606494,-18.509026,41.115578,62.343605,-7.343327,2.970007,7.727133
58,-4.9481048583984375,-0.43769538402557373,77.2086410522461,-1.8672365471383008,-2.080499734233795,-89.97387504703912,-23.50844,7.4513764,0.7222334,60.5465,-18.830345,-1.2084613,7.914267,4.167439,-0.04114741,7.8861494,-15.432985,0.81460005,-2.6857755,6.401949,14.987254,2.2573242,13.68472,-24.592516,56.124043,20.098791,-2.5651898,-2.0953128,-4.5918903,-18.594126,40.986313,62.544872,-7.266994,3.0226974,7.714292
59,-4.966108798980713,-0.6379422545433044,77.20695495605469,-1.75070267065131,-2.0508801899128217,-90.17593595740829,-24.287077,7.1940885,1.0824417,60.290657,-18.463398,-1.579441,8.140649,4.052255,0.12831365,7.6821856,-15.496645,0.9339623,-2.4702554,6.364708,15.125149,2.2339368,13.7368765,-24.287458,55.981762,19.744577,-2.5726533,-2.1100254,-4.6347775,-18.669847,40.841602,62.732018,-7.1840096,3.084579,7.730396
60,-4.981703281402588,-0.8506568074226379,77.20267486572266,-1.6496871048250157,-2.029650805410072,-90.37492247030407,-25.008348,6.9441,1.4070945,59.77529,-18.135612,-1.9949417,8.376837,3.9531143,0.30647862,7.4919486,-15.572828,1.0330545,-2.2634542,6.3300405,15.278338,2.2285657,13.809453,-23.996407,55.839725,19.465563,-2.6131217,-2.1639018,-4.7008657,-18.735146,40.681602,62.88756,-7.12985,3.152278,7.796926
61,-4.991199970245361,-1.0653959512710571,77.1925277709961,-1.5630295122578504,-2.019342711826173,-90.57454047404069,-25.660503,6.7023892,1.7062502,58.96709,-17.882166,-2.4961653,8.621198,3.8709757,0.5043482,7.3211017,-15.662948,1.1078365,-2.0615737,6.2984157,15.450886,2.2367074,13.898515,-23.709831,55.69792,19.25307,-2.703662,-2.2731483,-4.7920403,-18.792904,40.499374,63.008873,-7.107172,3.2276793,7.933625
62,-5.0027971267700195,-1.2890527248382568,77.17719268798828,-1.4860767812689095,-2.011640044617761,-90.7802080146862,-26.248846,6.4689283,1.9917879,57.857628,-17.66426,-3.0682616,8.796345,3.7998862,0.71443623,7.3130918,-15.843472,1.1710602,-1.8564726,6.270028,15.6314125,2.2548628,14.003433,-23.431366,55.556023,19.091957,-2.8270123,-2.4316065,-4.9016566,-18.84377,40.29707,63.104156,-7.098365,3.311859,8.124249
63,-5.009793281555176,-1.5327060222625732,77.15433502197266,-1.4246225377504769,-2.0077582103026947,-90.98072645224,-26.785488,6.2435555,2.2311854,56.517185,-17.427755,-3.6201146,8.984864,3.7433589,0.9202547,7.3048186,-16.031311,1.2228228,-1.663039,6.248904,15.817883,2.2894156,14.120498,-23.177822,55.425545,19.016272,-2.9574175,-2.605692,-5.03079,-18.889742,40.092506,63.172165,-7.108284,3.4001768,8.337715
64,-5.009720325469971,-1.7844654321670532,77.1286849975586,-1.3847804878852736,-2.0087717531625517,-91.16483132826065,-27.283018,6.0233445,2.3923576,55.018368,-17.11863,-4.0622687,9.19295,3.7046444,1.099816,7.295532,-16.231695,1.2634082,-1.4955138,6.239141,16.008282,2.3453422,14.243949,-22.965939,55.32022,19.06221,-3.0697358,-2.7610922,-5.1846147,-18.933643,39.910885,63.21391,-7.132589,3.4879696,8.54272
65,-5.002688884735107,-2.0493874549865723,77.0921859741211,-1.3680380866275976,-2.014700923172954,-91.32981157437509,-27.740154,5.7948055,2.4630218,53.340115,-16.720324,-4.350804,9.419886,3.683435,1.2462913,7.286998,-16.444124,1.2951767,-1.3587613,6.2454376,16.200888,2.4194405,14.371146,-22.81361,55.246086,19.29781,-3.1689503,-2.8938973,-5.3593583,-18.977877,39.75172,63.22661,-7.193893,3.581952,8.735586
66,-4.992072105407715,-2.321091890335083,77.04827880859375,-1.3698084035164906,-2.0252356754992706,-91.48198790510047,-28.14429,5.5616035,2.4625866,51.449123,-16.259941,-4.540169,9.663853,3.6782565,1.3721792,7.278271,-16.667665,1.317549,-1.2437457,6.2661204,16.39649,2.5069163,14.501453,-22.708603,55.199947,19.685438,-3.2654738,-3.0190294,-5.5540404,-19.02386,39.605812,63.21015,-7.2837057,3.6819072,8.931721
67,-4.9786763191223145,-2.607025623321533,76.99979400634766,-1.3911571402775282,-2.041565450834955,-91.62310554964192,-28.497114,5.3458343,2.405095,49.40952,-15.747786,-4.6903615,9.926286,3.691632,1.4840399,7.269666,-16.898485,1.3262712,-1.1472962,6.296379,16.596659,2.6105661,14.631396,-22.620302,55.182453,20.10155,-3.3417618,-3.130897,-5.7704353,-19.072203,39.475002,63.164055,-7.364863,3.7733557,9.128615
68,-4.960818767547607,-2.9016666412353516,76.94503784179688,-1.433348781702895,-2.0651595025216514,-91.7550603790984,-28.798866,5.168396,2.3048832,47.27961,-15.196194,-4.8623,10.2101755,3.7263632,1.5886022,7.2615347,-17.134226,1.3168803,-1.0673171,6.3316097,16.802536,2.7332282,14.755689,-22.516577,55.195305,20.42352,-3.3795948,-3.2243557,-6.0141425,-19.12346,39.36478,63.09232,-7.3977127,3.842099,9.323255
69,-4.941640377044678,-3.2124531269073486,76.88199615478516,-1.4979771438764804,-2.102386587080005,-91.87133072749104,-29.035248,5.0170426,2.1503363,45.020283,-14.583995,-5.0798035,10.524801,3.7840142,1.6796564,7.252892,-17.374922,1.2876041,-1.0140649,6.372598,17.022734,2.8712635,14.871511,-22.399824,55.245316,20.621094,-3.359584,-3.306452,-6.2890544,-19.177156,39.27991,62.99537,-7.358739,3.8791096,9.513597
70,-4.9178080558776855,-3.528122663497925,76.81282806396484,-1.5833330117454214,-2.151355070228818,-91.97410909679797,-29.204517,4.883675,1.94079,42.607544,-13.907774,-5.3101783,10.867299,3.8638377,1.7577058,7.243896,-17.622171,1.2409813,-0.985945,6.4228616,17.253485,3.0227766,14.978529,-22.282297,55.333534,20.75947,-3.2958605,-3.3768604,-6.5913377,-19.233353,39.216118,62.87307,-7.275533,3.8941934,9.701661
71,-4.888899803161621,-3.8625950813293457,76.73451232910156,-1.688673296129218,-2.2003055707681964,-92.07835198165519,-29.327984,4.7934403,1.7089345,40.12396,-13.205306,-5.5306044,11.219608,3.9630728,1.8396465,7.2363553,-17.873478,1.1794775,-0.9613593,6.480621,17.478088,3.194921,15.0740795,-22.146202,55.451073,20.862524,-3.2202477,-3.4196513,-6.920183,-19.293781,39.17529,62.72971,-7.1730566,3.9014614,9.889643
72,-4.859612464904785,-4.206820487976074,76.65067291259766,-1.8063263059329657,-2.237782937265442,-92.19857175597971,-29.431423,4.770996,1.4876398,37.659042,-12.517645,-5.7190266,11.561198,4.0789557,1.9417781,7.2403398,-18.132067,1.1051068,-0.92060196,6.5452185,17.679958,3.3950126,15.153845,-21.971441,55.589542,20.954601,-3.1648822,-3.4188685,-7.271536,-19.360268,39.156925,62.56597,-7.079222,3.9149823,10.080134
73,-4.826451301574707,-4.564987659454346,76.55661010742188,-1.9458927238391357,-2.2617523448335946,-92.33594211461761,-29.510012,4.8213954,1.288553,35.188465,-11.864787,-5.8860993,11.89252,4.217291,2.068002,7.2472997,-18.391397,1.0129249,-0.8651182,6.6218896,17.85484,3.626382,15.214481,-21.763475,55.74917,21.018383,-3.1387286,-3.3439343,-7.6462264,-19.434664,39.168972,62.376896,-6.995252,3.9367518,10.279978
74,-4.789353370666504,-4.936295032501221,76.45354461669922,-2.105034587552756,-2.2794103174831655,-92.48533608676777,-29.550344,4.9292674,1.0970551,32.67115,-11.216745,-6.042691,12.22485,4.379166,2.2123055,7.25517,-18.652332,0.9032447,-0.80247474,6.7128534,18.012001,3.8837695,15.254778,-21.528341,55.936295,21.050562,-3.1242707,-3.211516,-8.042525,-19.517736,39.207237,62.16079,-6.9110003,3.9602263,10.485946
75,-4.748676300048828,-5.32682991027832,76.34426879882812,-2.280014321223163,-2.2924098873322194,-92.65029266512829,-29.569496,5.08805,0.90572244,30.177025,-10.541743,-6.166421,12.562213,4.5547233,2.3751915,7.2616243,-18.916574,0.7861727,-0.7228321,6.8131595,18.154062,4.158945,15.274444,-21.25119,56.154724,21.0929,-3.1141713,-3.076689,-8.45786,-19.609894,39.257393,61.92807,-6.832389,3.9861195,10.685665
76,-4.70322322845459,-5.738949775695801,76.22740173339844,-2.4632968306497207,-2.30152753884136,-92.83406881377803,-29.588148,5.2906756,0.70647013,27.782618,-9.811951,-6.2331347,12.904969,4.7340345,2.555976,7.2690268,-19.187473,0.6720057,-0.6172687,6.9168253,18.28324,4.4447336,15.273793,-20.91572,56.406612,21.187298,-3.1008015,-2.9947262,-8.888792,-19.71098,39.30432,61.688053,-6.7668614,4.0153675,10.866614
77,-4.650271892547607,-6.16190767288208,76.10799407958984,-2.654817890345752,-2.3044454971330275,-93.04013099447872,-29.622461,5.5386996,0.49556088,25.498468,-8.988222,-6.2220435,13.248721,4.9151063,2.75568,7.2780204,-19.464151,0.5593585,-0.48596805,7.0220013,18.399721,4.7405744,15.251709,-20.527115,56.70046,21.340239,-3.0870247,-2.9870787,-9.346659,-19.82153,39.356987,61.44092,-6.6969743,4.049969,11.022083
78,-4.596960544586182,-6.603177547454834,75.98267364501953,-2.8571347256886734,-2.3020546763813274,-93.26562432408195,-29.66452,5.8293257,0.28087708,23.296593,-8.101777,-6.1520267,13.593465,5.102396,2.9741726,7.290464,-19.746553,0.4437433,-0.3338279,7.131213,18.502403,5.050676,15.206943,-20.090456,57.03231,21.530983,-3.0755723,-3.0224648,-9.818769,-19.940645,39.405922,61.174217,-6.6400437,4.089296,11.160015
79,-4.543303966522217,-7.042474269866943,75.85148620605469,-3.0669295564362673,-2.299442273361275,-93.50396937736608,-29.708647,6.152039,0.068440534,21.21157,-7.236487,-6.056057,13.950483,5.294106,3.2083588,7.30187,-20.03666,0.33099395,-0.15560143,7.243825,18.590494,5.3732243,15.141277,-19.59402,57.385902,21.760443,-3.0583892,-3.076434,-10.302733,-20.06881,39.456505,60.90683,-6.6001034,4.128208,11.289432
80,-4.487769603729248,-7.514247894287109,75.71006774902344,-3.283068439456585,-2.3016178447594493,-93.74776706527977,-29.741518,6.499584,-0.13747062,19.264753,-6.472953,-5.96676,14.330238,5.4891243,3.4545271,7.310396,-20.337658,0.22676675,0.05179537,7.3588266,18.66414,5.708008,15.058099,-19.024546,57.742203,22.028671,-3.027493,-3.1253724,-10.78929,-20.205978,39.506313,60.651688,-6.5912013,4.161657,11.419418
81,-4.431196212768555,-7.9972429275512695,75.56106567382812,-3.5087819075394218,-2.304890840639642,-93.99245384736645,-29.767189,6.8826756,-0.34198967,17.445633,-5.845172,-5.8776884,14.732444,5.6945257,3.7123835,7.312402,-20.651379,0.12578912,0.28672817,7.477467,18.716644,6.0637493,14.957062,-18.368313,58.099224,22.364037,-2.9814715,-3.1626296,-11.268641,-20.350586,39.54922,60.399483,-6.631893,4.1908493,11.562063
82,-4.373497009277344,-8.492447853088379,75.40718841552734,-3.7447922298510288,-2.3071692156748487,-94.24019743780673,-29.796528,7.299747,-0.5474902,15.753815,-5.3091197,-5.7755165,15.150318,5.9071383,3.981119,7.311758,-20.976423,0.027287027,0.54558414,7.597033,18.748777,6.438934,14.836895,-17.635635,58.46382,22.756218,-2.9247599,-3.2020893,-11.746105,-20.501675,39.585308,60.146317,-6.714139,4.217391,11.70934
83,-4.319352149963379,-8.998271942138672,75.24837493896484,-3.97446083913098,-2.3148023884916014,-94.49438985402553,-29.842,7.725332,-0.7465652,14.257293,-4.8369045,-5.680456,15.582201,6.103771,4.2550697,7.320564,-21.313627,-0.054826327,0.8293681,7.706,18.772367,6.819111,14.701261,-16.848047,58.828354,23.148746,-2.8579721,-3.2507899,-12.23371,-20.66015,39.620277,59.909184,-6.8119755,4.2371354,11.840511
84,-4.262874126434326,-9.527838706970215,75.08617401123047,-4.18269829299689,-2.33161193018911,-94.75637780032433,-29.91421,8.135786,-0.9350737,13.018614,-4.3976126,-5.6103463,16.035551,6.262793,4.5278006,7.32795,-21.652145,-0.10650079,1.1374108,7.794551,18.797565,7.1912727,14.557436,-16.02828,59.182186,23.482864,-2.7813807,-3.316216,-12.742527,-20.82849,39.657913,59.703003,-6.901985,4.246194,11.934902
85,-4.208184242248535,-10.058016777038574,74.92301940917969,-4.367638337632126,-2.362408026130405,-95.02347414130216,-30.015415,8.530375,-1.126096,12.055286,-3.995306,-5.5940294,16.513634,6.381419,4.797905,7.33774,-22.00694,-0.12001508,1.4704599,7.854507,18.83081,7.562075,14.40627,-15.149934,59.526073,23.722424,-2.6928694,-3.3988504,-13.260714,-21.006968,39.683113,59.51199,-7.006357,4.2425237,11.987487
86,-4.1471147537231445,-10.599580764770508,74.75383758544922,-4.532011924311172,-2.399588958314461,-95.29161423808564,-30.146025,8.918574,-1.3220167,11.335873,-3.6465135,-5.60952,17.011206,6.466759,5.063024,7.3469353,-22.375124,-0.103442386,1.82588,7.888847,18.863129,7.935713,14.247061,-14.212978,59.860012,23.904415,-2.592284,-3.4964883,-13.789159,-21.195372,39.70247,59.333992,-7.1229033,4.228581,12.008952
87,-4.085819721221924,-11.153947830200195,74.58988189697266,-4.672814067933076,-2.4267077198370495,-95.5571466031409,-30.346764,9.285393,-1.5073894,10.915715,-3.3581634,-5.5962205,17.50613,6.509643,5.3100996,7.358992,-22.730404,-0.06620826,2.1939242,7.8996506,18.88169,8.297439,14.087187,-13.275924,60.174713,24.080965,-2.4873934,-3.6111588,-14.334805,-21.39483,39.723965,59.184883,-7.2236595,4.207775,12.003941
88,-4.019454002380371,-11.725118637084961,74.43025970458984,-4.785829418158621,-2.4285335787323707,-95.81850009379154,-30.639639,9.618895,-1.6635313,10.814867,-3.1309834,-5.4943438,17.981655,6.503666,5.5285134,7.3694654,-23.042225,-0.018478317,2.5679293,7.889779,18.874777,8.636332,13.939041,-12.3979025,60.456036,24.303387,-2.3856256,-3.7459445,-14.891259,-21.60715,39.739147,59.069595,-7.2971354,4.183818,11.977723
89,-3.9489850997924805,-12.309765815734863,74.2794418334961,-4.869630015425833,-2.3965638535204112,-96.07731541093868,-31.066929,9.915981,-1.8070086,11.093413,-2.952522,-5.2567654,18.426867,6.4475436,5.7178345,7.381999,-23.322386,0.03621188,2.9528222,7.8567877,18.835611,8.958275,13.81068,-11.586926,60.694294,24.587877,-2.2845721,-3.9116957,-15.459639,-21.834934,39.750126,58.98694,-7.3297863,4.151804,11.932037
90,-3.8713700771331787,-12.900715827941895,74.1350326538086,-4.924321654943476,-2.3423770047313464,-96.33241885028163,-31.60816,10.184013,-1.9433161,11.730955,-2.8323274,-4.924194,18.837578,6.3507113,5.8776574,7.437339,-23.603102,0.10244179,3.3526511,7.796373,18.776787,9.268728,13.703428,-10.818041,60.89279,24.902708,-2.182533,-4.105416,-16.045614,-22.080158,39.765514,58.932964,-7.3203034,4.1113076,11.864569
91,-3.790562868118286,-13.502589225769043,73.99162292480469,-4.951659087092479,-2.2759476170380557,-96.58323579264908,-32.191746,10.427278,-2.0303059,12.627146,-2.794103,-4.5670676,19.237011,6.2134986,6.0049043,7.506272,-23.839256,0.1856766,3.763975,7.7064686,18.709854,9.560805,13.619514,-10.097718,61.054783,25.23033,-2.0884361,-4.309463,-16.626953,-22.341,39.759464,58.891678,-7.305442,4.073711,11.77459
92,-3.706563711166382,-14.108478546142578,73.85051727294922,-4.956633648873889,-2.2091349410180556,-96.8257634431822,-32.75067,10.6489525,-2.0303652,13.694256,-2.8659513,-4.2566133,19.633535,6.0378084,6.091626,7.59434,-24.00282,0.29159012,4.1830564,7.585289,18.64891,9.824852,13.563291,-9.436108,61.18336,25.551558,-2.0104873,-4.5060377,-17.196007,-22.61546,39.722057,58.858913,-7.3009996,4.0499096,11.660696
93,-3.6161065101623535,-14.707935333251953,73.71820831298828,-4.9358901028412765,-2.14657359023733,-97.07810326267054,-33.28677,10.85686,-1.9701494,14.95876,-3.080801,-4.042157,20.02838,5.816431,6.1329236,7.7022467,-24.11763,0.43398973,4.631714,7.434921,18.610514,10.051285,13.539487,-8.835922,61.271915,25.852999,-1.9573345,-4.7048845,-17.78638,-22.902676,39.66381,58.865543,-7.271233,4.0447803,11.520857
94,-3.527467966079712,-15.339290618896484,73.5816421508789,-4.88974534139813,-2.083813364349776,-97.34186603396834,-33.817738,11.055994,-1.8531247,16.438375,-3.4074123,-3.8755755,20.169468,5.5798435,6.11208,8.361469,-24.469229,0.60713375,5.1102233,7.255128,18.585308,10.250248,13.548737,-8.291555,61.319386,26.146088,-1.9226903,-4.9111514,-18.381275,-23.201206,39.57428,58.8974,-7.233495,4.0519176,11.356786
95,-3.4364824295043945,-15.974935531616211,73.45265197753906,-4.824021742733118,-2.016250440898574,-97.58903630988013,-34.2966,11.249274,-1.6066307,18.02557,-3.7860816,-3.6819093,19.941357,5.3563437,6.035295,9.82556,-25.142815,0.78850144,5.5886555,7.042271,18.548582,10.43838,13.591782,-7.803078,61.337997,26.450207,-1.8921367,-5.099896,-18.951838,-23.51221,39.47846,58.921417,-7.207157,4.063437,11.171473
96,-3.3436899185180664,-16.626251220703125,73.3373031616211,-4.745291259278929,-1.9389028547195084,-97.79078982835189,-34.67514,11.438186,-1.1568506,19.612516,-4.156986,-3.3860312,19.666044,5.1229334,5.950989,11.415683,-25.730497,0.95643306,6.034841,6.7916117,18.474634,10.631721,13.667897,-7.3698463,61.34058,26.784601,-1.8513888,-5.246116,-19.452776,-23.835962,39.383152,58.891014,-7.22993,4.0722766,10.968258
97,-3.2458927631378174,-17.298086166381836,73.22531127929688,-4.64640692008282,-1.8746022461040712,-97.9522940131526,-34.91133,11.664794,-0.34042522,21.302742,-4.6698833,-2.8804414,19.386623,4.8683543,5.870656,13.112484,-26.26907,1.1023065,6.456218,6.5060587,18.370394,10.844703,13.77832,-7.006485,61.31785,27.170042,-1.7834278,-5.353616,-19.876297,-24.17439,39.327263,58.796616,-7.35138,4.112435,10.758081
98,-3.1456735134124756,-17.995624542236328,73.11077880859375,-4.5250198076677055,-1.820191252047349,-98.09034136044339,-35.020332,11.921921,0.7626386,23.090118,-5.29525,-2.2337103,19.091215,4.58211,5.7920403,14.918783,-26.770033,1.2375506,6.869138,6.1836534,18.247684,11.065743,13.92327,-6.706464,61.26718,27.592203,-1.7000401,-5.432376,-20.24301,-24.527412,39.292862,58.659138,-7.540839,4.176481,10.536317
99,-3.046231985092163,-18.730493545532227,73.00566864013672,-4.383411568748152,-1.725508920214116,-98.18714502559253,-35.06068,12.121116,1.8649096,24.718245,-5.7071376,-1.634322,18.681835,4.27504,5.7033496,16.893196,-27.145452,1.3705127,7.249264,5.8058457,18.083635,11.268999,14.100932,-6.440076,61.21248,28.015192,-1.6293484,-5.46627,-20.555817,-24.892214,39.20432,58.483315,-7.709837,4.1947627,10.281566
100,-2.9533278942108154,-19.47153663635254,72.92770385742188,-4.216855624608122,-1.535258969676426,-98.22009574364866,-35.11735,12.1611595,2.6828763,25.953518,-5.586603,-1.2711378,18.064266,3.9552577,5.588652,19.078241,-27.304546,1.5125159,7.565782,5.348563,17.850418,11.429515,14.3088455,-6.1766267,61.17895,28.403358,-1.5991786,-5.4389286,-20.799473,-25.264448,38.961002,58.26433,-7.798723,4.097703,9.972
101,-2.8637197017669678,-20.234142303466797,72.8760757446289,-3.9985222244729273,-1.1822266200713363,-98.19342134641788,-35.23439,11.989126,3.159337,26.62853,-4.616215,-1.2852218,17.183218,3.5997102,5.4427285,21.470253,-27.319656,1.6155481,7.819914,4.7639446,17.489422,11.543049,14.556747,-5.914516,61.162952,28.777447,-1.6261802,-5.3461967,-21.007233,-25.64881,38.622078,57.99705,-7.814261,3.8425775,9.663123
102,-2.7731733322143555,-20.999027252197266,72.8538589477539,-3.7338143663262775,-0.7091956008363882,-98.10982881517464,-35.380287,11.648827,3.434827,26.916224,-3.049285,-1.5579247,16.103296,3.2040985,5.276685,24.03333,-27.198046,1.6911503,8.017317,4.0692673,17.030191,11.622045,14.846845,-5.66779,61.153755,29.14549,-1.6922017,-5.197432,-21.168465,-26.046734,38.20625,57.68203,-7.78403,3.474215,9.345887
103,-2.6904890537261963,-21.773849487304688,72.85858917236328,-3.4682005074000726,-0.22529770205512206,-97.94357773798829,-35.541176,11.187129,3.524151,27.120539,-1.4276378,-1.8821781,14.905475,2.8119874,5.095829,26.77318,-26.755207,1.8457776,8.136045,3.3458264,16.571821,11.662384,15.160451,-5.432614,61.16956,29.453573,-1.772179,-4.99471,-21.18536,-26.44322,37.5306,57.313007,-7.698055,3.0532482,8.903836
104,-2.6003592014312744,-22.529272079467773,72.87250518798828,-3.2499413601548137,0.15955020554406332,-97.67105877673086,-35.700237,10.659245,3.4567118,27.55045,-0.2903988,-2.034106,13.674446,2.4766004,4.9037495,29.695068,-25.80918,2.1929324,8.163928,2.6816244,16.212044,11.6529255,15.477122,-5.2110186,61.23344,29.648897,-1.8402375,-4.737655,-21.02527,-26.820892,36.483562,56.938118,-7.4691596,2.637092,8.219536
105,-2.5034520626068115,-23.310758590698242,72.90559387207031,-3.0990773433764742,0.4265299603272931,-97.27380733799328,-35.91498,10.0505295,3.1721323,28.393757,0.14987603,-1.88328,12.447499,2.2650642,4.7126546,32.826717,-24.286781,2.694413,8.084104,2.100617,15.948665,11.603084,15.779261,-4.9823494,61.36844,29.652401,-1.8949827,-4.3732257,-20.60094,-27.149021,34.85266,56.532116,-7.0912666,2.208812,7.207022
106,-2.403115749359131,-24.112998962402344,72.9578628540039,-2.992602975995449,0.6297101850775048,-96.76811048383406,-36.168175,9.348702,2.6779215,29.45744,0.20052028,-1.5634676,11.18249,2.1588495,4.520609,36.14415,-22.294565,3.3392155,7.911651,1.5698625,15.73168,11.50469,16.075817,-4.761374,61.566597,29.51332,-1.9479961,-3.9160507,-19.995136,-27.418264,32.789436,56.125057,-6.5772414,1.7395213,5.950621
107,-2.302051067352295,-24.917964935302734,73.04066467285156,-2.9212500000381505,0.7680983973848007,-96.18259664848776,-36.334953,8.617757,2.1066751,30.486517,0.10315814,-1.2409806,9.834059,2.1009862,4.320734,39.6099,-19.927109,4.2892737,7.667109,1.0979019,15.583508,11.334761,16.375563,-4.5845237,61.79789,29.376762,-1.9937121,-3.47018,-19.301247,-27.636889,30.58269,55.74228,-6.0305643,1.2750105,4.5885077
108,-2.199709177017212,-25.693729400634766,73.15213012695312,-2.8776913759961644,0.8405185316184671,-95.54513366408148,-36.29642,7.9212813,1.5886205,31.226046,0.10076981,-1.0855662,8.350468,2.0483034,4.123282,43.214245,-17.293642,5.7088428,7.3664227,0.6919422,15.528279,11.073623,16.684607,-4.484261,62.031918,29.388325,-2.0232413,-3.137868,-18.609392,-27.830894,28.522518,55.40313,-5.553637,0.8670701,3.2537148
109,-2.0940628051757812,-26.458572387695312,73.28508758544922,-2.870311100223122,0.8445243050136155,-94.79537133965762,-35.998444,7.234461,1.1068335,31.53777,0.31391534,-1.2295048,6.7395563,2.144488,4.0449977,46.96072,-14.014632,8.0381,6.9658494,0.3592722,15.584324,10.7002535,16.997042,-4.463516,62.298225,29.638746,-2.040873,-2.9031415,-17.895952,-28.012373,26.591198,55.07737,-5.101775,0.5244803,1.8302673
110,-1.9857492446899414,-27.201322555541992,73.4269027709961,-2.9210835411309644,0.7811681798762597,-93.93909875399747,-35.51982,6.5517554,0.5847805,31.59522,0.5841404,-1.558819,5.0218835,2.5276866,4.127959,50.890682,-10.260294,11.196716,6.468725,0.114757806,15.732493,10.232584,17.304605,-4.5084314,62.602028,30.03509,-2.047689,-2.7249823,-17.118694,-28.177633,24.658335,54.747246,-4.6500354,0.22066909,0.29661217
111,-1.867660641670227,-27.902639389038086,73.57344055175781,-3.0318922787463847,0.6555158378595355,-93.10614454144698,-34.940228,5.957207,0.075913295,31.597895,0.7466089,-1.872946,3.156696,3.0365849,4.202521,55.05681,-6.9131246,14.46032,5.965435,-0.039775614,15.947098,9.7121,17.612402,-4.6207523,62.874107,30.451143,-2.031729,-2.6667385,-16.364012,-28.347057,22.87775,54.47247,-4.2890396,-0.035586763,-1.0787069
112,-1.7621484994888306,-28.583377838134766,73.73753356933594,-3.325061059418928,0.47620291498778805,-92.44781439517102,-34.423576,5.674145,-0.471132,31.881477,0.57666945,-2.020876,1.0881182,3.1989067,3.3685737,59.412636,-4.624902,15.000033,5.55847,0.0019286618,16.190575,9.189419,17.92138,-4.7901998,63.028587,30.763632,-1.9783632,-2.7959728,-15.68721,-28.545816,21.383467,54.283623,-4.1309233,-0.22733155,-2.026188
113,-1.6428272724151611,-29.23729705810547,73.91287231445312,-3.642235291557101,0.22710971941704694,-91.98271965139546,-33.888454,5.559452,-0.8714901,32.36269,0.05078081,-1.8243071,-1.1956662,2.6695108,2.1029062,64.15172,-3.6199408,15.000033,5.2640076,0.111451656,16.501179,8.66137,18.229418,-5.030118,63.050503,30.960594,-1.8510553,-3.188071,-15.09592,-28.797148,20.225626,54.175335,-4.2683525,-0.332949,-2.4250255
114,-1.4983350038528442,-29.888931274414062,74.09994506835938,-3.826530373146,-0.09240884614923271,-91.61977330743038,-33.196045,5.4062514,-1.032089,32.757275,-0.6414208,-1.3664985,-3.6481414,1.5229057,0.822952,69.310684,-3.529585,15.000033,5.014356,0.1342135,16.907492,8.108917,18.530598,-5.3388433,62.97558,31.105288,-1.6692103,-3.7893443,-14.540756,-29.106241,19.320755,54.111122,-4.612574,-0.3604504,-2.434798
115,-1.3314955234527588,-30.497589111328125,74.29883575439453,-3.927281621614575,-0.4424920233347673,-91.34452683761026,-32.386486,5.2355394,-1.0388178,33.026188,-1.370997,-0.8216032,-6.2364974,0.085409224,-0.15836962,74.63133,-4.0849237,15.000033,4.788774,0.12029118,17.356958,7.5527024,18.823732,-5.683191,62.803326,31.18182,-1.5041107,-4.4694567,-14.011864,-29.471828,18.621353,54.095966,-4.9938607,-0.33790797,-2.2080612
116,-1.147914171218872,-31.09349822998047,74.50352478027344,-4.002960365547401,-0.780330084275434,-91.14934204829376,-31.510902,5.085018,-0.97726554,33.14439,-2.013908,-0.36710086,-8.972949,-1.2837768,-0.6150576,79.87504,-5.0251646,15.000033,4.567625,0.12571938,17.793175,7.0145655,19.108551,-6.0222826,62.537132,31.173958,-1.4294168,-5.096157,-13.504066,-29.885632,18.083103,54.139263,-5.248566,-0.29168347,-1.8986481
117,-0.9580652117729187,-31.678577423095703,74.71761322021484,-4.232316844623274,-1.0814950891734707,-91.10695591245631,-30.68475,5.168616,-0.95806235,33.275684,-2.647985,-0.0921452,-11.945222,-2.3818567,-0.58520746,85.02913,-6.440791,15.000033,4.4063053,0.33346853,18.173431,6.4934163,19.389711,-6.368117,62.179996,30.99624,-1.4909214,-5.687852,-13.058265,-30.355486,17.786455,54.279423,-5.313427,-0.23703204,-1.4828879
118,-0.7844536304473877,-32.236351013183594,74.9365234375,-4.59638305321557,-1.3709567215831326,-91.21427592589815,-29.884514,5.4935555,-0.96026224,33.434517,-3.3309805,0.071268134,-15.132704,-4.000324,-0.97100484,90.19086,-8.405177,12.57415,4.2999434,0.700595,18.53026,5.982772,19.66653,-6.727576,61.72613,30.682438,-1.6376786,-6.297516,-12.673159,-30.886028,17.732239,54.507385,-5.282634,-0.15691933,-0.9013977
119,-0.6109692454338074,-32.769779205322266,75.15693664550781,-5.00390094901595,-1.6602457264159678,-91.3952305198442,-29.066814,5.915107,-0.94197756,33.556572,-4.0055795,0.19117701,-18.432137,-5.552505,-1.045602,95.20247,-10.590913,9.835637,4.1994953,1.147674,18.878765,5.496727,19.931831,-7.0549355,61.160427,30.393515,-1.7952577,-6.845461,-12.2928915,-31.460133,17.763882,54.776005,-5.2256937,-0.028359221,-0.25615886
120,-0.43596187233924866,-33.293949127197266,75.38626861572266,-5.448475832317884,-1.954466204477803,-91.59684048491538,-28.240175,6.393149,-0.92552364,33.65772,-4.654756,0.30162707,-21.764915,-6.7394776,-0.6878722,99.873474,-12.55375,7.504599,4.0786333,1.660863,19.221085,5.045786,20.180645,-7.3093686,60.472683,30.290754,-1.8923419,-7.248905,-11.860443,-32.05058,17.721453,55.042797,-5.2145786,0.16978554,0.34928274
121,-0.2631891071796417,-33.812721252441406,75.62120819091797,-5.929508847303903,-2.225511669467219,-91.85589734591282,-27.434557,6.9514475,-0.8809445,33.735847,-5.2702947,0.4131535,-25.218904,-7.467642,0.090055674,104.1939,-14.120661,5.663932,3.9720247,2.2386746,19.526562,4.642063,20.401274,-7.449546,59.646175,30.477022,-1.9147576,-7.486319,-11.352303,-32.638256,17.547617,55.295155,-5.2622056,0.47354552,0.90388423
122,-0.09385206550359726,-34.3331184387207,75.85818481445312,-6.4515295559975305,-2.4828481072860002,-92.184900791556,-26.636524,7.6019626,-0.8046348,33.785664,-5.862563,0.50715464,-28.82197,-7.8281927,1.1745137,108.26452,-15.5092,4.0264883,3.8820488,2.8863628,19.801222,4.27359,20.600355,-7.5071845,58.69905,30.84786,-1.8987806,-7.597258,-10.81572,-33.22771,17.337831,55.576126,-5.3397217,0.86045474,1.4531791
123,0.07710790634155273,-34.85856246948242,76.0954360961914,-7.010983316772206,-2.786902612583871,-92.49414313485788,-25.789427,8.291309,-0.7631991,33.820663,-6.4449244,0.566843,-32.39248,-7.8638396,2.4721391,112.05418,-16.82666,2.6408222,3.7356126,3.5967274,20.10648,3.9207234,20.807013,-7.550318,57.66402,31.255077,-1.8520774,-7.595236,-10.278498,-33.825367,17.146124,55.908154,-5.459221,1.2619369,1.9817935
124,0.23614957928657532,-35.373756408691406,76.32766723632812,-7.611695160802866,-3.196550026669156,-92.69305929799432,-24.839224,8.969613,-0.8228102,33.85792,-7.0339613,0.5768071,-35.742012,-7.6257777,3.9177215,115.53028,-18.190489,1.5856434,3.462279,4.357869,20.5065,3.565416,21.060724,-7.653558,56.569565,31.545046,-1.7838837,-7.4977503,-9.730678,-34.43704,16.99447,56.28049,-5.6492968,1.6090963,2.4767005
125,0.37819331884384155,-35.881046295166016,76.55471801757812,-8.248262325936107,-3.743531527381386,-92.7846574695749,-23.735815,9.634509,-0.97508585,33.88791,-7.6370597,0.5197051,-38.82579,-6.97598,5.570879,118.663574,-19.642185,0.9968648,3.0655763,5.1552477,21.04235,3.2371438,21.374699,-7.826827,55.352604,31.704975,-1.6705394,-7.24765,-9.174459,-35.061558,16.867311,56.700043,-5.924545,1.8821092,2.9156165
126,0.5066496133804321,-36.393062591552734,76.77893829345703,-8.926529735306305,-4.393532426633501,-92.8025025501151,-22.517664,10.316839,-1.1931752,33.908394,-8.246976,0.40640727,-41.70667,-5.9278464,7.3831773,121.49141,-21.10667,0.8132632,2.5764003,5.9908233,21.685125,2.9384985,21.744299,-8.040213,54.008884,31.79971,-1.5184282,-6.863176,-8.60197,-35.69396,16.747143,57.158367,-6.264865,2.116898,3.314777
127,0.6234470009803772,-36.902095794677734,77.00587463378906,-9.660247904410411,-5.101581874206833,-92.7018126512073,-21.257486,11.014465,-1.5159789,33.931114,-8.847795,0.2647292,-44.37492,-4.793885,9.164807,124.0642,-22.524174,0.8020159,1.968851,6.8691773,22.395119,2.6071527,22.186317,-8.314185,52.657997,31.792303,-1.3844281,-6.474928,-7.997765,-36.34071,16.660503,57.632267,-6.636409,2.3278441,3.7175398
128,0.7278668880462646,-37.412384033203125,77.23419189453125,-10.465842098214702,-5.818880918725222,-92.44046049246623,-20.029663,11.723123,-1.9809569,33.966442,-9.422911,0.12494628,-46.860317,-3.894159,10.760255,126.42184,-23.826677,0.723588,1.2218438,7.790265,23.129644,2.182713,22.725407,-8.670949,51.416676,31.644993,-1.3282819,-6.2171216,-7.3108974,-37.01202,16.61212,58.064705,-7.013614,2.5292966,4.1690316
129,0.8221341371536255,-37.92057800292969,77.45708465576172,-11.360676159638032,-6.561215481926532,-91.99161023435961,-18.808245,12.443826,-2.6044683,34.00395,-9.964334,-0.014156694,-49.183025,-3.3176837,12.184278,128.56512,-24.986263,0.47232315,0.33759737,8.765468,23.942348,1.6374272,23.37564,-9.12393,50.264442,31.238544,-1.389206,-6.1297226,-6.7149634,-37.71836,16.721317,58.607807,-7.2945538,2.713184,4.6592855
130,0.9048221707344055,-38.42055130004883,77.67322540283203,-12.335386810489467,-7.337988175533856,-91.37835488246947,-17.563854,13.178039,-3.3594065,34.037224,-10.481433,-0.16146995,-51.355564,-2.9183607,13.529033,130.47719,-26.035969,0.17952967,-0.70186484,9.767419,24.83603,1.0324183,24.127346,-9.643924,49.146275,30.626453,-1.5312829,-6.147122,-6.0534353,-38.451473,16.874025,59.124165,-7.5857716,2.874805,5.1727033
131,0.9746624827384949,-38.917633056640625,77.88030242919922,-13.366410624444342,-8.086480690306322,-90.63711425271056,-16.373245,13.919566,-4.2208385,34.09049,-10.9872675,-0.29777363,-53.421627,-2.6687315,14.770398,132.1652,-26.9949,-0.041161038,-1.8385048,10.773689,25.742283,0.32809097,24.981705,-10.287881,48.13276,30.022707,-1.6983398,-6.2378554,-5.3464255,-39.207993,17.061089,59.62805,-7.865816,3.0372667,5.749304
132,1.0328024625778198,-39.428462982177734,78.07817077636719,-14.426051589641984,-8.74564038984274,-89.80755159151225,-15.314919,14.661145,-5.167867,34.184193,-11.491547,-0.40574357,-55.418694,-2.546041,15.877841,133.63713,-27.883852,-0.078005925,-3.018387,11.763996,26.583954,-0.51076555,25.942127,-11.1102705,47.296143,29.637587,-1.8358685,-6.369208,-4.5837736,-39.983196,17.257103,60.10756,-8.132229,3.2228386,6.4291506
133,1.080711007118225,-39.947776794433594,78.26730346679688,-15.527219909300154,-9.286605413882127,-88.86128051157611,-14.44129,15.397605,-6.250112,34.344875,-11.995238,-0.4658351,-57.344093,-2.5675838,16.890112,134.89012,-28.70676,0.14863344,-4.2640104,12.754711,27.339413,-1.5053529,27.007982,-12.140017,46.665306,29.486752,-1.929277,-6.5555177,-3.7483385,-40.774162,17.461472,60.56366,-8.376064,3.440043,7.22308
134,1.1071628332138062,-40.45268249511719,78.44673156738281,-16.676087666944706,-9.7375496711138,-87.79122467679824,-13.698322,16.12966,-7.4643197,34.542606,-12.489639,-0.49177134,-59.200935,-2.7624073,17.82112,135.92535,-29.45216,0.55206114,-5.585481,13.745794,28.052876,-2.6535919,28.173107,-13.369139,46.20614,29.4655,-2.0084858,-6.8054657,-2.8372164,-41.581253,17.672068,60.995525,-8.606642,3.6752055,8.108864
135,1.127445101737976,-40.95787811279297,78.61064147949219,-17.827699852921064,-10.127585415447843,-86.67054156344557,-13.017824,16.857435,-8.715752,34.736652,-12.973781,-0.5172246,-61.034184,-3.1312659,18.602966,136.7469,-30.116339,0.99700594,-6.9047046,14.702669,28.741182,-3.95334,29.428381,-14.794754,45.88559,29.610815,-2.0883799,-7.077698,-1.8683032,-42.39973,17.863228,61.392864,-8.843033,3.9170997,9.079487
136,1.1308443546295166,-41.467018127441406,78.7594223022461,-18.934770114288924,-10.490648481276523,-85.57085038571861,-12.328233,17.582747,-9.907218,34.883057,-13.446565,-0.57576245,-62.884113,-3.667752,19.167856,137.36046,-30.693605,1.35146,-8.143999,15.590905,29.41192,-5.402673,30.76483,-16.41381,45.67328,29.961334,-2.1836538,-7.329659,-0.8462858,-43.22437,18.00108,61.737286,-9.110311,4.1536527,10.127184
137,1.1207468509674072,-41.96876907348633,78.89324951171875,-19.9959761068851,-10.764767765587843,-84.48562059215737,-11.72413,18.291384,-11.0723715,35.008904,-13.911874,-0.67439216,-64.86328,-4.5184836,19.5083,137.77089,-31.168238,1.4990889,-9.248386,16.439316,29.793802,-7.076187,32.165653,-18.424791,45.708908,30.67519,-2.2831833,-7.624333,0.3215574,-44.035038,18.160345,62.116142,-9.422033,4.3758307,11.303345
138,1.0967061519622803,-42.47711944580078,79.01818084716797,-21.022436991309625,-10.93161312454767,-83.39380747946456,-11.23786,18.97674,-12.249292,35.127007,-14.36536,-0.79469734,-66.9513,-5.641808,19.701855,137.97542,-31.539015,1.5579631,-10.200862,17.260178,29.793802,-9.049628,33.58132,-20.960424,46.09979,31.649647,-2.389163,-7.959756,1.6453027,-44.79212,18.378523,62.599316,-9.747904,4.589278,12.601635
139,1.0671501159667969,-42.99605178833008,79.14353942871094,-21.994436424237385,-11.097786220302057,-82.3413492102707,-10.708651,19.661947,-13.3480625,35.19361,-14.806717,-0.9357216,-68.99462,-6.7713456,19.756796,137.97333,-31.820536,1.708837,-11.053821,17.995584,29.793802,-11.173917,34.99576,-23.684645,46.59363,32.602398,-2.5443122,-8.222806,2.9861372,-45.508713,18.50858,63.049145,-10.087878,4.804009,13.935545
140,1.0216577053070068,-43.52507781982422,79.26763153076172,-22.882328268160467,-11.308425085518056,-81.3943553427913,-10.057256,20.360012,-14.278384,35.175808,-15.230957,-1.0955551,-70.92545,-7.628356,19.689417,137.77338,-32.011097,2.1463513,-11.763638,18.610704,29.793802,-13.354005,36.37891,-26.483885,47.192196,33.216812,-2.791409,-8.326637,4.3080883,-46.18003,18.512283,63.47164,-10.407962,5.0362673,15.260457
141,0.9740792512893677,-44.05463790893555,79.38300323486328,-23.68186960799296,-11.594554314704114,-80.55490956879333,-9.226141,21.083942,-15.014944,35.031567,-15.630776,-1.291891,-72.727646,-8.231788,19.481306,137.36432,-32.15594,2.8145227,-12.32285,19.110762,29.793802,-15.64755,37.734886,-29.484118,47.938236,33.3169,-3.1866062,-8.211432,5.608101,-46.80953,18.39645,63.881786,-10.715665,5.29937,16.639158
142,0.9148528575897217,-44.59595489501953,79.4912338256836,-24.413123282688893,-11.931765547409213,-79.79210804506329,-8.265813,21.826235,-15.60081,34.79562,-16.014881,-1.518569,-74.43125,-8.715448,19.123793,136.74684,-32.250076,3.6398828,-12.757766,19.518372,29.793802,-18.071993,39.06153,-32.692043,48.789295,33.106136,-3.688631,-7.939062,6.904294,-47.403564,18.176832,64.26387,-11.026306,5.5825987,18.071672
143,0.8376785516738892,-45.14553451538086,79.59161376953125,-25.07542126575401,-12.28656551383038,-79.12305825282536,-7.253447,22.568253,-16.044641,34.542572,-16.396944,-1.7389534,-76.03745,-8.978265,18.648813,135.93768,-32.224087,4.7981977,-13.083491,19.833696,29.793802,-20.479094,40.32026,-35.796936,49.66547,32.84927,-4.187082,-7.59312,8.157366,-47.95658,17.85647,64.61366,-11.314425,5.8688173,19.412485
144,0.7548779249191284,-45.7100944519043,79.68020629882812,-25.669212595082193,-12.62727849054666,-78.56579821382908,-6.2661214,23.291111,-16.359295,34.343227,-16.787481,-1.9187449,-77.54697,-8.912945,18.088205,134.95837,-32.01994,6.4671636,-13.325093,20.060274,29.793802,-22.719759,41.47164,-38.464172,50.53364,32.82438,-4.5673676,-7.245269,9.297261,-48.46658,17.465637,64.95501,-11.547663,6.142091,20.51166
145,0.6736199855804443,-46.2791748046875,79.75947570800781,-26.161588946782086,-12.958583495004905,-78.18133838061603,-5.300394,23.999502,-16.491331,34.182747,-17.183931,-2.0556982,-79.01558,-8.383308,17.407307,133.76656,-31.63139,8.82492,-13.436326,20.180075,29.793802,-24.816011,42.516212,-40.589577,51.507122,33.055183,-4.8192906,-6.903374,10.285498,-48.93911,17.016418,65.30192,-11.649362,6.4259515,21.32929
146,0.5791494250297546,-46.86000442504883,79.80760955810547,-26.55978528878821,-13.300487313773772,-77.94112249714172,-4.3187194,24.694653,-16.453573,34.034157,-17.58071,-2.1673625,-80.43755,-7.4877653,16.615273,132.36739,-31.140285,11.728077,-13.435741,20.207287,29.793802,-26.838844,43.475708,-42.35398,52.627792,33.406975,-4.9942455,-6.524673,11.135839,-49.387276,16.523125,65.66375,-11.649546,6.724034,21.943068
147,0.47493815422058105,-47.42897033691406,79.8345718383789,-26.92313473204963,-13.642775025306449,-77.72739448685074,-3.3461292,25.351858,-16.361275,33.939445,-17.978664,-2.2506309,-81.74897,-6.4859266,15.7500515,130.84625,-30.587282,14.803604,-13.441652,20.188581,29.793802,-28.68389,44.337296,-43.784355,53.75833,33.970818,-5.0664067,-6.1014795,11.868872,-49.816566,16.007795,66.04418,-11.674678,6.9926662,22.380106
148,0.345065176486969,-47.978240966796875,79.87544250488281,-27.417218249761348,-13.981993409657454,-77.49363124197436,-2.375395,26.159151,-16.301168,33.842934,-18.337694,-2.368118,-83.17804,-6.4981623,13.746227,129.23633,-29.81122,15.000033,-13.518474,20.270805,29.793802,-30.285576,45.075336,-44.943115,54.791332,34.805748,-5.00759,-5.6229835,12.494056,-50.234577,15.501082,66.459496,-11.846847,7.186246,22.667482
149,0.19410395622253418,-48.524261474609375,79.91240692138672,-28.304090955759328,-14.366536686071816,-77.31835445307894,-1.3573499,27.47087,-16.238703,33.76274,-18.73062,-2.5622137,-84.29833,-6.6478133,11.069679,127.390205,-28.8398,15.000033,-13.551079,20.782736,29.793802,-31.65328,45.653156,-45.880096,55.762634,36.07117,-4.731787,-5.070099,13.062532,-50.644535,14.9678,66.949356,-12.254288,7.283692,22.793882
150,0.03397476300597191,-49.05084228515625,79.92900848388672,-29.1721282732078,-14.770416407152043,-77.04327557782877,-0.29811284,28.695614,-16.187319,33.71941,-19.122993,-2.7026799,-85.11208,-6.8361297,8.39712,125.446144,-27.822851,15.000033,-13.685403,21.245352,29.793802,-32.753967,46.03442,-46.359856,56.746,37.84733,-4.2722454,-4.464609,13.566408,-51.04563,14.39035,67.47089,-12.818727,7.3145757,22.748425
151,0.10071481764316559,-49.73545837402344,80.00042724609375,-29.89027530498301,-15.130448827804178,-76.77413135802861,0.6611209,29.719347,-16.10907,33.79598,-19.488073,-2.814307,-85.86142,-7.022087,5.9248734,123.55489,-26.650843,15.000033,-13.845758,21.586508,29.793802,-33.866653,46.290665,-46.79969,57.82018,39.42671,-3.7742987,-3.820912,13.959813,-51.453438,13.792118,67.95023,-13.38416,7.304303,22.564487
152,0.08038703352212906,-50.36074447631836,80.01432037353516,-30.338049665860193,-15.377847334695197,-76.62224658867876,1.3583344,30.43614,-15.981608,34.09706,-19.807678,-2.9226696,-86.79563,-7.202585,3.8019807,121.86964,-25.197445,15.000033,-13.945682,21.70574,29.793802,-34.914017,46.46114,-46.928825,58.879593,40.6903,-3.4007392,-3.1794271,14.211688,-51.840107,13.173692,68.27415,-13.813552,7.2784243,22.275608
153,-0.07215534895658493,-50.907718658447266,79.95072937011719,-30.463515013866118,-15.46132249473503,-76.66146015574803,1.7101673,30.81215,-15.7566595,34.666103,-20.126776,-3.03744,-88.07015,-7.398282,1.9965316,120.40757,-23.234592,15.000033,-13.95218,21.575191,29.793802,-35.9725,46.633972,-46.79768,59.930992,41.473537,-3.217957,-2.5460129,14.260475,-52.20167,12.532497,68.4049,-14.095391,7.258435,21.842121
154,-0.20104017853736877,-51.46635818481445,79.88544464111328,-30.36068145781343,-15.425866670593031,-76.82298228710711,1.7866307,30.928383,-15.49061,35.479637,-20.458841,-3.147191,-89.529106,-7.637167,0.37600285,119.091774,-20.865795,15.000033,-13.914717,21.254879,29.793802,-36.946896,46.84907,-46.373528,60.921932,41.966038,-3.14095,-1.9113752,14.1292515,-52.53249,11.877808,68.40466,-14.299247,7.226585,21.263775
155,-0.2845565676689148,-52.034549713134766,79.82797241210938,-30.14345350859008,-15.350472534769363,-77.00194299708332,1.6664062,30.859045,-15.311668,36.5397,-20.73968,-3.248497,-90.94605,-7.9333463,-1.0793517,117.93201,-18.456326,15.000033,-13.8904705,20.811926,29.793802,-37.737194,47.09271,-45.716366,61.79077,42.19056,-3.1051533,-1.2541349,13.855294,-52.824253,11.283702,68.37187,-14.393415,7.1448708,20.628164
156,-0.3480801284313202,-52.58784484863281,79.75554656982422,-29.918089570873356,-15.318666196557178,-77.09531820084837,1.4364685,30.676,-15.342362,37.84195,-20.89619,-3.3398612,-92.09675,-8.276454,-2.376441,116.93528,-16.374413,15.000033,-13.938697,20.314514,29.793802,-38.269436,47.306156,-44.897343,62.520195,42.17295,-3.042179,-0.549304,13.4596195,-53.067867,10.836951,68.41659,-14.346185,6.9749327,20.018267
157,-0.39901676774024963,-53.11463928222656,79.66273498535156,-29.692827384942024,-15.343048716179648,-77.06062795598248,1.0812833,30.337387,-15.6486,39.44784,-20.908735,-3.4355078,-92.928894,-8.687034,-3.4852998,116.14019,-14.71575,15.000033,-14.091207,19.756119,29.793802,-38.542866,47.42461,-43.88849,63.17862,41.804306,-2.9341338,0.25692827,12.918012,-53.2607,10.593327,68.58442,-14.137281,6.68069,19.473583
158,-0.4418012201786041,-53.63310623168945,79.5492172241211,-29.43198476617476,-15.38927554947641,-76.9580112003807,0.58482033,29.83043,-16.13428,41.337677,-20.816544,-3.5484617,-93.55903,-9.126291,-4.434303,115.53014,-13.2868185,15.000033,-14.306162,19.125023,29.793802,-38.64312,47.425407,-42.69578,63.837555,41.116154,-2.8262467,1.1475204,12.208312,-53.404045,10.515035,68.83274,-13.785171,6.290281,18.942266
159,-0.47972431778907776,-54.122894287109375,79.42288970947266,-29.167335527183404,-15.467862138206563,-76.8377332243156,0.036493786,29.264132,-16.680285,43.374416,-20.633348,-3.6738415,-94.02382,-9.494841,-5.3058147,115.03184,-12.015417,15.000033,-14.528783,18.47864,29.793802,-38.635555,47.307594,-41.44551,64.4871,40.34474,-2.7405434,2.042185,11.365806,-53.49335,10.532807,69.137566,-13.320436,5.853868,18.365156
160,-0.5239344835281372,-54.61548614501953,79.27888488769531,-28.92497191388343,-15.58557834209384,-76.75254845322634,-0.4827841,28.744505,-17.17731,45.418407,-20.37011,-3.7999818,-94.36247,-9.69584,-6.1706376,114.57095,-10.839258,15.000033,-14.702352,17.853977,29.793802,-38.545414,47.056786,-40.109917,65.103714,39.86714,-2.6983407,2.8476431,10.429155,-53.51004,10.5728,69.46325,-12.779589,5.423236,17.680674
161,-0.5697923302650452,-55.09664535522461,79.12989044189453,-28.726311955744908,-15.755370164046623,-76.70138705800854,-1.0167521,28.2796,-17.664915,47.539764,-19.943043,-3.9226174,-94.54082,-9.700522,-7.042198,114.11223,-9.7684765,15.000033,-14.802211,17.307606,29.793802,-38.45596,46.72877,-39.083084,65.69202,39.387497,-2.6755772,3.5887456,9.451847,-53.448544,10.560458,69.814995,-12.171304,4.997985,16.848133
162,-0.6299132108688354,-55.57526779174805,78.95020294189453,-28.545052710074057,-15.964438476317175,-76.66361208979703,-1.5828432,27.799007,-18.168243,49.771427,-19.37069,-4.0657578,-94.5701,-9.554731,-7.8738875,113.69999,-8.826302,15.000033,-14.84651,16.7708,29.793802,-38.270596,46.2783,-37.964985,66.244064,39.10779,-2.6806536,4.274396,8.430684,-53.281647,10.517378,70.17188,-11.495956,4.5535283,15.903715
163,-0.6894974708557129,-56.04145431518555,78.76437377929688,-28.344419200948558,-16.202855460931417,-76.65645241649507,-2.0436263,27.320488,-18.572681,51.910946,-18.818882,-4.2419243,-94.53315,-9.293824,-8.660846,113.37094,-7.9403925,15.000033,-14.821216,16.23726,29.793802,-38.12429,45.73962,-37.02767,66.76461,38.78764,-2.706785,4.9000635,7.3540397,-53.052967,10.473751,70.53493,-10.738847,4.0988016,14.89892
164,-0.7551214694976807,-56.515132904052734,78.56416320800781,-28.087578126630415,-16.453042832155962,-76.69836148813013,-2.2840486,26.871498,-18.778612,53.763382,-18.455444,-4.4426713,-94.51911,-8.95707,-9.396197,113.15928,-7.036184,15.000033,-14.724212,15.675545,29.793802,-38.061916,45.124043,-36.227135,67.22475,38.461075,-2.765736,5.4318194,6.226712,-52.80296,10.453342,70.86434,-9.890858,3.6430788,13.8952055
165,-0.8291542530059814,-57.00050735473633,78.34393310546875,-27.753732687248068,-16.74006095113143,-76.83182619475714,-2.236675,26.501337,-18.712727,55.253918,-18.297947,-4.647478,-94.522934,-8.5048485,-10.1070795,113.05785,-6.0190964,15.000033,-14.531256,15.097834,29.793802,-38.020138,44.47912,-35.720757,67.62132,37.99282,-2.8869717,5.826188,5.075326,-52.542713,10.43276,71.14964,-8.85334,3.184052,12.858103
166,-0.9008996486663818,-57.49348449707031,78.10430145263672,-27.36506685378156,-17.05819130710518,-77.03475128250342,-1.9907697,26.186008,-18.459568,56.492485,-18.262672,-4.848416,-94.51173,-7.9372053,-10.783462,113.05333,-4.955265,15.000033,-14.264611,14.507309,29.793802,-37.942673,43.81439,-35.4078,67.91537,37.443573,-3.0593507,6.1004,3.9052296,-52.259872,10.4019,71.39037,-7.664714,2.7096853,11.7829895
167,-0.9753820300102234,-57.994388580322266,77.84712219238281,-26.946300458347526,-17.350991647317507,-77.2287498989706,-1.6654521,25.862497,-18.162176,57.566578,-18.369293,-5.0463824,-94.52508,-7.363496,-11.372352,113.171165,-3.9971964,15.000033,-13.99307,13.902207,29.793802,-37.96263,43.124557,-35.232307,68.0434,36.785137,-3.216346,6.347719,2.6767213,-51.998844,10.418894,71.590675,-6.50354,2.2187796,10.777362
168,-1.0446438789367676,-58.49534225463867,77.57416534423828,-26.527167978834104,-17.563965827436622,-77.33526814115244,-1.3780192,25.474731,-17.96103,58.56623,-18.639637,-5.2402916,-94.59801,-6.88431,-11.821882,113.43757,-3.307793,15.000033,-13.792473,13.2983055,29.793802,-38.211548,42.3983,-35.16346,67.94516,35.94908,-3.290857,6.669089,1.3466996,-51.831528,10.549913,71.74967,-5.539793,1.7189945,9.95759
169,-1.1102590560913086,-59.004432678222656,77.28759765625,-26.108811527568257,-17.69593015805454,-77.34553677353738,-1.1415772,25.005365,-17.89886,59.528313,-19.076548,-5.440678,-94.742966,-6.499933,-12.119118,113.885155,-2.9497378,15.000033,-13.681147,12.712469,29.793802,-38.63621,41.622158,-35.195522,67.61258,34.74064,-3.216469,7.074411,-0.06205492,-51.797447,10.881183,71.82627,-4.826739,1.2011932,9.490953
170,-1.176072359085083,-59.500450134277344,76.97970581054688,-25.678846249929975,-17.770719250624268,-77.29803495353256,-0.90295,24.49928,-17.904873,60.4014,-19.669939,-5.636249,-94.938705,-6.164885,-12.294253,114.49311,-2.8318527,15.000033,-13.646029,12.142504,29.793802,-39.166355,40.77556,-35.245373,67.082535,33.314926,-3.05279,7.515571,-1.5693736,-51.887104,11.396765,71.83228,-4.254851,0.6764266,9.287018
171,-1.2425470352172852,-59.991188049316406,76.65750885009766,-25.252654690752234,-17.77722834164481,-77.18097374954434,-0.6731143,23.997463,-17.94748,61.146786,-20.416409,-5.7997074,-95.16462,-5.8991756,-12.362054,115.19735,-2.8809664,15.000033,-13.687042,11.60758,29.793802,-39.9223,39.883377,-35.411507,66.321236,31.895176,-2.912373,8.0286,-3.243045,-52.114082,11.972672,71.84065,-3.7475755,0.18172805,9.07009
172,-1.3008588552474976,-60.46744155883789,76.32978057861328,-24.841705958511877,-17.70229809351694,-76.98357241942193,-0.46453843,23.534466,-17.99167,61.721794,-21.31277,-5.905357,-95.40082,-5.7187457,-12.332554,115.93787,-3.033521,15.000033,-13.799882,11.12196,29.793802,-41.002605,38.98551,-35.7574,65.264534,30.729183,-2.9073176,8.634326,-5.1247864,-52.499752,12.462394,71.89562,-3.24047,-0.2508621,8.567622
173,-1.3610081672668457,-60.91613006591797,76.0110092163086,-24.456650315466494,-17.55199767721463,-76.67467572318256,-0.25705326,23.122265,-18.034986,62.110302,-22.442142,-5.9405174,-95.636024,-5.726676,-12.22932,116.74708,-3.271805,15.000033,-13.997211,10.675779,29.793802,-42.377144,38.092506,-36.28331,63.80176,29.851044,-3.1091864,9.349165,-7.2118983,-53.06156,12.875462,71.9869,-2.768238,-0.6040004,7.6612444
174,-1.4257934093475342,-61.35124588012695,75.7074203491211,-24.086220843612768,-17.32989918238429,-76.26740656389336,-0.05190616,22.737331,-18.095425,62.33423,-23.775747,-5.9221044,-95.882484,-5.879799,-12.031381,117.64077,-3.6348763,15.000033,-14.276221,10.267926,29.793802,-43.963974,37.19768,-36.94036,61.941895,29.131254,-3.4410489,10.146659,-9.482001,-53.797348,13.2830715,72.06775,-2.3542776,-0.8997105,6.516705
175,-1.4856889247894287,-61.79020309448242,75.4184799194336,-23.707456659941407,-17.01871202059874,-75.82119881291148,0.101233244,22.353813,-18.16634,62.41256,-25.143488,-5.8675838,-96.166916,-5.974051,-11.685427,118.53309,-4.1191382,15.000033,-14.61818,9.909583,29.793802,-45.788006,36.307407,-37.66703,59.823452,28.624035,-3.7989902,10.978325,-11.965373,-54.69605,13.654188,72.12677,-1.9194756,-1.1683424,5.2869573
176,-1.5408209562301636,-62.2332649230957,75.16069793701172,-23.298859589487463,-16.601055744236,-75.39647643310474,0.15519862,21.947632,-18.236042,62.364002,-26.376451,-5.7926283,-96.515,-5.806239,-11.14527,119.3393,-4.715667,15.000033,-14.986029,9.617496,29.793802,-47.88198,35.445526,-38.440727,57.5572,28.356136,-4.070907,11.796353,-14.660613,-55.745743,13.922408,72.14213,-1.3878984,-1.4408379,4.1238823
177,-1.5755643844604492,-62.68216323852539,74.9385986328125,-22.838705591603848,-16.064963471506875,-74.98687505891385,0.08711574,21.496902,-18.291868,62.209442,-27.507578,-5.679751,-96.92739,-5.20559,-10.304003,120.01516,-5.437444,15.000033,-15.404325,9.3629465,29.793802,-50.269047,34.626957,-39.298046,55.070343,28.390413,-4.2291336,12.625433,-17.665844,-56.947407,14.030509,72.09305,-0.68682635,-1.7050139,2.993917
178,-1.6065621376037598,-63.10458755493164,74.77531433105469,-22.32957209179397,-15.425523074500042,-74.57305047683572,-0.069314115,21.00716,-18.332258,61.93249,-28.600412,-5.5234714,-97.39084,-4.319409,-9.219464,120.61802,-6.264996,15.000033,-15.86914,9.135244,29.793802,-52.910534,33.851913,-40.246773,52.298126,28.681456,-4.3203,13.477522,-20.972515,-58.30933,14.057998,71.98354,0.11899585,-1.9543048,1.8397694
179,-1.6650458574295044,-63.534610748291016,74.66374969482422,-21.898617469307823,-14.711337680252273,-74.31955883334076,-0.25317043,20.722883,-18.302717,61.466015,-29.548124,-5.4249372,-97.88588,-3.577406,-8.398737,121.12729,-7.0730677,15.000033,-16.164614,9.119219,29.793802,-55.767376,33.11991,-41.221714,49.36913,29.117685,-4.353271,14.276253,-24.395292,-59.8177,14.116096,71.83854,0.90648174,-2.227436,0.78088146
180,-1.715492844581604,-63.96088409423828,74.62609100341797,-21.472495594589144,-13.927658162297815,-74.1068433828483,-0.46184275,20.444899,-18.2998,60.802048,-30.21042,-5.3498416,-98.46394,-3.0711462,-7.730721,121.699295,-7.9163833,15.000033,-16.398447,9.205757,29.793802,-58.781956,32.427345,-42.111,46.442814,29.592955,-4.33887,14.951717,-27.843918,-61.451912,14.407959,71.70153,1.5443144,-2.548575,-0.061995756
181,-1.7725775241851807,-64.42513275146484,74.6756820678711,-21.060775112411715,-13.05245750190159,-73.92127079104151,-0.69226736,20.189743,-18.342278,59.90139,-30.640238,-5.3133583,-99.1003,-3.6511872,-7.6679354,122.44545,-8.848655,13.546396,-16.606766,9.397865,29.793802,-61.974728,31.776579,-42.8814,43.370075,30.062143,-4.2380934,15.41066,-31.447508,-63.19801,15.031238,71.59304,2.0630913,-2.9286795,-0.5745875
182,-1.8331525325775146,-64.89842224121094,74.81260681152344,-20.65055008758384,-12.087654187638957,-73.75664372060653,-0.9566997,19.940645,-18.407854,58.800953,-30.880585,-5.286888,-99.86156,-4.34928,-7.619145,123.2879,-9.918163,12.224196,-16.79782,9.68195,29.793802,-65.34769,31.17438,-43.588284,40.1101,30.590612,-4.058397,15.713746,-35.335278,-65.03747,15.995889,71.52001,2.520472,-3.3438609,-0.8458777
183,-1.9043498039245605,-65.3671646118164,75.02407836914062,-20.24429278821935,-11.081584117404121,-73.64852456879053,-1.2341945,19.711391,-18.477108,57.5302,-30.774666,-5.2832046,-100.593414,-4.969888,-7.579654,124.0365,-10.995522,11.137042,-16.90484,10.048579,29.793802,-68.877426,30.617765,-44.27535,37.030773,31.227913,-3.8854165,16.017971,-39.396133,-66.922806,17.338858,71.500435,2.8340468,-3.7675476,-1.0663017
184,-1.9946551322937012,-65.81468200683594,75.31135559082031,-19.846103894541496,-10.086000866739132,-73.6321629197704,-1.501644,19.515354,-18.529812,56.12445,-30.163836,-5.318247,-101.134254,-5.3680067,-7.5821652,124.505394,-11.9368925,10.308333,-16.841248,10.480065,29.793802,-72.49396,30.113894,-44.97419,34.46421,32.054382,-3.8040788,16.493206,-43.475246,-68.79759,19.050694,71.562454,2.920997,-4.1788964,-1.4392565
185,-2.107764720916748,-66.24568939208984,75.69628143310547,-19.441552218985095,-9.12083770824605,-73.74322549488377,-1.730461,19.337889,-18.547148,54.586517,-29.051071,-5.442771,-101.479454,-5.4744787,-7.637098,124.6435,-12.631102,9.822879,-16.562414,10.927045,29.793802,-76.40463,29.671173,-45.849163,32.6086,33.21677,-3.908757,17.265768,-47.604195,-70.64498,21.241018,71.73822,2.593003,-4.5666723,-2.0753596
186,-2.2355833053588867,-66.68468475341797,76.19770812988281,-19.035412567520854,-8.155534089619495,-73.95385691770446,-1.9394873,19.168575,-18.542109,52.90755,-27.510212,-5.633933,-101.69994,-5.3901167,-7.7387586,124.549965,-13.164832,9.629696,-16.121277,11.390092,29.793802,-80.56407,29.288498,-46.83811,31.235325,34.644096,-4.1174026,18.229902,-51.866894,-72.44205,23.892145,71.984024,1.9447938,-4.9387264,-2.8674958
187,-2.356245994567871,-67.13170623779297,76.81966400146484,-18.658776847284482,-7.156747660073362,-74.20693789681881,-2.1839263,19.022146,-18.537327,51.094925,-25.486202,-5.7973466,-101.75317,-5.201421,-7.8570333,124.260765,-13.702422,9.594011,-15.619825,11.91209,29.793802,-84.67042,28.945236,-47.66938,30.197197,36.030228,-4.2579293,19.187243,-56.17859,-74.12217,26.777151,72.207405,1.2950926,-5.3053913,-3.6959624
188,-2.451791524887085,-67.5784683227539,77.56002807617188,-18.33864143620212,-6.094711691510517,-74.44463399593026,-2.5224679,18.91162,-18.552103,49.163876,-22.925577,-5.837014,-101.60561,-5.0291495,-8.027243,123.813,-14.39415,9.5044,-15.156327,12.518842,29.793802,-88.462555,28.619282,-48.097298,29.403885,37.066036,-4.176799,19.92831,-60.39089,-75.61463,29.599426,72.33574,0.9536046,-5.689712,-4.445751
189,-2.5258536338806152,-68.02767181396484,78.40347290039062,-18.100904182891075,-4.977235717753349,-74.69574556493168,-2.9539182,18.881575,-18.569613,47.12244,-19.792795,-5.6961865,-101.17769,-4.851502,-8.294485,123.186646,-15.326198,9.325769,-14.74007,13.213743,29.793802,-91.97707,28.293713,-48.09044,29.067791,37.880043,-3.8106527,20.47215,-64.38717,-76.88567,32.264355,72.3633,1.0190694,-6.120964,-5.254624
190,-2.581094741821289,-68.47560119628906,79.34345245361328,-17.928098178347007,-3.817279839065561,-74.97711837778756,-3.4697833,18.892567,-18.570347,45.005314,-16.14962,-5.424531,-100.508286,-4.6290236,-8.642732,122.37081,-16.400047,9.145216,-14.335581,13.943067,29.793802,-95.39976,27.974855,-47.82767,29.266132,38.569138,-3.2595463,20.899117,-68.17848,-77.946045,34.827404,72.35457,1.3108996,-6.589685,-6.145867
191,-2.6316909790039062,-68.91826629638672,80.36164855957031,-17.767109645860533,-2.592044588824162,-75.2117697217275,-4.1263003,18.843355,-18.576658,42.865013,-12.07231,-5.088463,-99.743355,-4.4404087,-8.993555,121.4166,-17.496424,8.959363,-13.979091,14.657712,29.793802,-98.684784,27.691732,-47.37561,29.699284,38.77817,-2.6366308,21.097555,-71.79265,-78.80465,37.180824,72.35487,1.6998956,-7.0549035,-6.8203974
192,-2.6841797828674316,-69.3650131225586,81.44510650634766,-17.562388131766085,-1.273880717417996,-75.32058800567383,-4.981682,18.649395,-18.628534,40.739014,-7.608552,-4.7662554,-99.03234,-4.363929,-9.24354,120.37876,-18.500534,8.788362,-13.709902,15.296326,29.793802,-101.77271,27.490244,-46.81378,30.037846,38.148903,-2.052269,20.963593,-75.21099,-79.483864,39.19532,72.37714,2.0844269,-7.468018,-6.980912
193,-2.7456445693969727,-69.81178283691406,82.5728988647461,-17.286583517808374,0.21750808892444673,-75.25947144274954,-6.172896,18.238476,-18.937042,38.60652,-2.3860674,-4.2549233,-98.44158,-4.4591446,-9.337423,119.25598,-19.401026,8.643888,-13.605229,15.847349,29.793802,-104.62997,27.405788,-46.029842,30.151247,36.173054,-1.4822379,20.338007,-78.40944,-80.0005,40.733276,72.408714,2.4635894,-7.816733,-6.373659
194,-2.8155696392059326,-70.26258850097656,83.72850799560547,-16.950950254973428,1.8525157283754512,-75.07199725899055,-7.704764,17.689331,-19.426708,36.549965,3.477975,-3.600199,-97.89677,-4.6760974,-9.315483,118.03028,-20.253624,8.519826,-13.647513,16.331236,29.793802,-107.30495,27.4597,-45.050392,30.199123,33.182575,-0.8428846,19.343748,-81.31451,-80.37489,41.807373,72.44094,2.89182,-8.116696,-5.206865
195,-2.8838083744049072,-70.69526672363281,84.89312744140625,-16.5622462481889,3.4928441688102656,-74.80767424061573,-9.372483,17.136858,-19.76334,34.649624,9.249273,-3.274083,-97.33239,-4.9366784,-9.220062,116.72892,-21.041986,8.408527,-13.730705,16.74753,29.793802,-109.81638,27.677368,-44.1431,30.248823,30.075445,-0.17884871,18.288698,-83.871254,-80.63835,42.53052,72.497345,3.3291671,-8.361089,-3.8749826
196,-2.9474849700927734,-71.1299057006836,86.06208801269531,-16.14167809711539,4.991468783016939,-74.5235972444588,-10.879883,16.698269,-19.663544,32.864048,14.2395,-3.7652202,-96.672104,-5.149373,-9.109708,115.37578,-21.749285,8.302002,-13.734003,17.102173,29.793802,-112.1358,28.085821,-43.56891,30.332912,27.73506,0.40883046,17.450373,-86.03615,-80.82569,43.043755,72.59882,3.748676,-8.549928,-2.776062
197,-3.0208325386047363,-71.54765319824219,87.2409439086914,-15.704979677830776,6.332920332472624,-74.2141883582533,-12.06913,16.480537,-18.9175,30.871088,18.592922,-5.644741,-95.885185,-5.302705,-8.999676,113.95365,-22.382948,8.215594,-13.629747,17.423271,29.793802,-114.27199,28.721064,-43.435707,30.407803,26.325026,0.85697556,16.817905,-87.82277,-80.96563,43.392303,72.78528,4.133595,-8.677783,-1.935871
198,-3.1318600177764893,-71.96324157714844,88.4472885131836,-15.235208018616298,7.580621085212097,-73.85829050383904,-13.022988,16.346409,-17.85119,28.651163,22.641937,-8.596004,-95.009,-5.4356894,-8.856685,112.458046,-22.94953,8.148985,-13.475999,17.71716,29.793802,-116.15702,29.596878,-43.57447,30.390638,25.37988,1.2110105,16.247702,-89.26567,-81.06849,43.52907,73.03339,4.5100827,-8.747568,-1.1649553
199,-3.227433204650879,-72.37423706054688,89.64627075195312,-14.723610197362877,8.698374600373844,-73.50055758966242,-13.787882,16.105663,-16.892979,26.56679,25.993446,-11.712907,-94.06162,-5.52586,-8.686156,110.93111,-23.433466,8.069754,-13.261585,17.975054,29.793802,-117.62854,30.691566,-43.80505,30.256268,24.832447,1.4936966,15.800687,-90.37761,-81.136284,43.45505,73.27753,4.8816986,-8.777345,-0.5384756
200,-3.330887794494629,-72.75601959228516,90.79817962646484,-14.17789281241807,9.650058422100175,-73.18910548139523,-14.453391,15.65489,-16.338285,25.019432,28.23113,-13.987654,-93.05906,-5.5523624,-8.508491,109.41147,-23.81843,7.9425883,-12.97045,18.19354,29.793802,-118.551315,31.959198,-43.93989,30.021961,24.623756,1.7283355,15.545552,-91.17292,-81.17114,43.227207,73.457756,5.3095903,-8.786864,-0.13714147
201,-3.4245896339416504,-73.12305450439453,91.92534637451172,-13.617209881397736,10.409519521486896,-72.92920356677647,-15.010808,14.926599,-16.306591,24.088758,28.985176,-15.000033,-91.98833,-5.51113,-8.351216,107.910416,-24.095814,7.7375317,-12.575608,18.39064,29.793802,-118.93169,33.369152,-43.959923,29.752523,25.025732,1.8719994,15.610202,-91.685776,-81.19057,42.92253,73.60301,5.8295817,-8.796806,-0.07278588
202,-3.5180039405822754,-73.48641967773438,93.01602935791016,-13.053740089026176,11.013650354679868,-72.70872328667724,-15.484045,14.07033,-16.399744,23.600965,28.572044,-15.000033,-90.850914,-5.408121,-8.212682,106.40021,-24.276642,7.477212,-12.04363,18.622326,29.718401,-118.73155,34.89915,-43.859825,29.409658,25.991188,1.9258411,15.927009,-91.906044,-81.202354,42.546238,73.75926,6.3894324,-8.797606,-0.27560213
203,-3.614955425262451,-73.8464126586914,94.09202575683594,-12.496142464806233,11.50099788511199,-72.54650103894,-15.961843,13.194531,-16.571632,23.624321,27.593735,-15.000033,-89.663765,-5.2402906,-8.091243,104.866875,-24.376547,7.192963,-11.389823,18.898052,29.565985,-117.89803,36.52644,-43.538025,28.935,26.958313,1.9826329,16.273136,-91.83656,-81.19421,42.03678,73.87558,6.949668,-8.762184,-0.54179263
204,-3.7165679931640625,-74.21440124511719,95.19109344482422,-11.934843550840537,11.874466198198249,-72.45049585688884,-16.533873,12.526613,-16.274778,24.245916,26.632313,-14.940777,-88.40799,-5.0044546,-7.9519305,103.30732,-24.423025,6.933249,-10.676533,19.198765,29.467432,-116.48287,38.23086,-42.896645,28.313917,27.385372,2.1194866,16.404772,-91.56011,-81.13962,41.29944,73.902504,7.447287,-8.660805,-0.6639783
205,-3.838104724884033,-74.57366943359375,96.2844467163086,-11.344348095261893,12.118248497665109,-72.44017540053667,-17.253445,12.21899,-15.0383835,25.592028,25.744808,-14.338229,-87.07536,-4.6788826,-7.7569265,101.708305,-24.385042,6.710169,-9.882411,19.5071,29.440327,-114.37185,39.992756,-41.80023,27.522339,27.041338,2.3439825,16.380337,-91.1043,-81.01138,40.268448,73.84007,7.877244,-8.472557,-0.6578009
206,-3.9676506519317627,-74.92400360107422,97.34595489501953,-10.72789197366652,12.222784263150245,-72.50310854898963,-18.05366,12.145424,-13.265869,27.639858,24.60345,-13.338662,-85.65997,-4.2705455,-7.515443,100.077034,-24.266567,6.500077,-9.025667,19.814789,29.499073,-111.57016,41.800194,-40.275463,26.584362,26.246126,2.615927,16.28461,-90.48618,-80.80163,38.9721,73.711876,8.227772,-8.218045,-0.6114719
207,-4.096359729766846,-75.27304077148438,98.38069915771484,-10.103419129930948,12.244010184053693,-72.60581803615733,-18.921154,12.172212,-11.430103,30.25542,23.226208,-12.182332,-84.20611,-3.8321304,-7.2384915,98.45065,-24.129538,6.306172,-8.181621,20.117971,29.602896,-108.16053,43.630493,-38.451656,25.50171,25.27515,2.9403024,15.932308,-89.65058,-80.51284,37.540043,73.49688,8.516851,-7.924105,-0.44648343
208,-4.223029136657715,-75.61514282226562,99.39006805419922,-9.487876222404255,12.239393984555631,-72.71118054251511,-19.866636,12.1067295,-9.995976,33.322678,21.661076,-11.135999,-82.75947,-3.4182239,-6.9398403,96.86524,-24.03474,6.1307464,-7.4156494,20.41856,29.707195,-104.253914,45.453922,-36.46523,24.29625,24.409616,3.3280544,15.137223,-88.575714,-80.14345,36.08164,73.193474,8.707721,-7.617796,-0.07383745
209,-4.350678443908691,-75.96776580810547,100.37089538574219,-8.87395180748745,12.21722457727427,-72.81881558908991,-20.948017,11.899678,-8.98958,37.00253,19.809965,-10.205433,-81.32554,-3.0361943,-6.606889,95.313995,-23.984766,5.9858036,-6.759093,20.604334,29.793802,-99.90644,47.2398,-34.431232,23.073011,23.50905,3.8733141,13.744651,-87.07799,-79.75263,34.975925,72.682465,9.409,-7.2805033,0.57224023
210,-4.469306945800781,-76.33370971679688,101.31485748291016,-8.25436533326365,12.182832949467944,-72.94683543485621,-22.205292,11.635113,-8.21228,41.346203,17.671272,-9.275323,-79.915794,-2.6681578,-6.2342243,93.77647,-23.94213,5.8654227,-6.060942,21.00447,29.793802,-94.57883,48.90383,-31.75686,21.495676,22.513426,4.547878,11.910333,-85.722374,-79.13745,33.248512,72.328415,9.017101,-6.9165707,1.5772356
211,-4.579282283782959,-76.69924926757812,102.20353698730469,-7.633029958358911,12.13337266674017,-73.07820716658986,-23.55036,11.245592,-7.7453384,46.048916,15.470648,-8.463164,-78.53123,-2.327276,-5.8378944,92.28703,-23.926971,5.7460814,-5.494675,21.201473,29.793802,-88.95839,50.442394,-29.143463,19.99336,21.785187,5.1959987,9.866825,-83.88422,-78.416664,31.72038,71.77118,9.008474,-6.556858,2.5406792
212,-4.6858320236206055,-77.06676483154297,103.03658294677734,-7.02432085158887,12.085726024887123,-73.1992301461526,-24.91332,10.66008,-7.6533,50.80607,13.448499,-7.890262,-77.19325,-2.0265791,-5.443519,90.873116,-23.952011,5.605868,-5.028002,21.286724,29.793802,-83.18116,51.83226,-26.621681,18.558353,21.673647,5.616738,7.8612995,-81.87849,-77.60163,30.392958,71.146255,8.984257,-6.2409396,3.3223414
213,-4.787628650665283,-77.44017028808594,103.82553100585938,-6.428267142159248,12.030506835053226,-73.30136435031766,-26.276041,9.742024,-8.052854,55.6798,11.697287,-7.667714,-75.90173,-1.7781713,-5.06404,89.558205,-24.036201,5.424988,-4.6398993,21.296684,29.793802,-77.24907,53.056644,-24.234667,17.187025,22.451065,5.6995187,5.7986765,-79.70892,-76.66456,29.101631,70.496376,8.593173,-6.01745,3.8864555
214,-4.889954090118408,-77.81564331054688,104.56962585449219,-5.838289223450628,11.955867769807716,-73.39442908493247,-27.637348,8.495556,-8.815404,60.788906,10.084181,-7.752024,-74.64307,-1.5730485,-4.6853757,88.32706,-24.169188,5.2206516,-4.318494,21.171524,29.793802,-71.22433,54.115166,-22.038103,15.952429,23.866962,5.5123634,3.6111405,-77.253075,-75.62749,27.937717,69.7412,8.153126,-5.8551507,4.3104334
215,-4.982226371765137,-78.19224548339844,105.28032684326172,-5.263393109759477,11.87730727562473,-73.49060861128844,-28.949003,7.096025,-9.6455,65.8912,8.524794,-8.012363,-73.4172,-1.3902048,-4.3032484,87.143456,-24.317358,5.021365,-4.033175,20.962156,29.793802,-65.17691,54.988644,-19.925503,14.84584,25.480103,5.123775,1.5730976,-74.69227,-74.47937,26.81188,68.9331,7.6973195,-5.6826267,4.667774
216,-5.065544128417969,-78.56947326660156,105.96184539794922,-4.715498523847797,11.809374176706042,-73.60113752202392,-30.184202,5.7731094,-10.282176,70.73794,6.9453483,-8.279174,-72.22034,-1.2081975,-3.9168286,85.9688,-24.447697,4.854186,-3.766148,20.693468,29.793802,-59.214138,55.658737,-17.841036,13.8853,26.860046,4.6505985,-0.051047232,-72.16774,-73.21882,25.720095,68.09877,7.384335,-5.426117,5.014131
217,-5.1411566734313965,-78.9487075805664,106.61690521240234,-4.203221629237828,11.751926777084673,-73.73111350298576,-31.33409,4.5935,-10.700274,75.31728,5.3354216,-8.537949,-71.05155,-1.0183945,-3.5280695,84.80339,-24.563972,4.7271833,-3.505305,20.378529,29.793802,-53.35377,56.119984,-15.832366,13.062272,28.023745,4.054923,-1.112391,-69.69356,-71.84924,24.706783,67.23717,7.355121,-5.066821,5.2989855
218,-5.204730033874512,-79.32341003417969,107.25418090820312,-3.7206204574822834,11.692886325490864,-73.87373353180415,-32.402195,3.456961,-11.026209,79.74497,3.731946,-8.854875,-69.90486,-0.83318895,-3.1404126,83.662384,-24.680357,4.6238585,-3.2513056,20.019363,29.793802,-47.603638,56.382942,-13.974906,12.379447,29.16977,3.3232644,-1.7701503,-67.23932,-70.38004,23.810083,66.342064,7.492397,-4.6412787,5.5101547
219,-5.265374660491943,-79.69710540771484,107.87826538085938,-3.2615341169128302,11.632191845273844,-74.02289862697477,-33.40371,2.3809867,-11.258841,83.95077,2.1487265,-9.153623,-68.77517,-0.6602791,-2.758132,82.53373,-24.776382,4.533839,-3.0090654,19.62304,29.793802,-42.030632,56.441486,-12.238426,11.854819,30.165829,2.635089,-2.242737,-64.874466,-68.826675,23.030834,65.43481,7.591847,-4.1583047,5.7656584
220,-5.315100193023682,-80.06548309326172,108.48831176757812,-2.8202515625416242,11.56899231282707,-74.17282897135398,-34.3558,1.381732,-11.403224,87.850426,0.60775214,-9.359488,-67.65546,-0.5068048,-2.3860247,81.40223,-24.829931,4.4474406,-2.7813916,19.198248,29.793802,-36.693798,56.28039,-10.581043,11.500308,30.87984,2.1622212,-2.7596865,-62.660328,-67.21696,22.380272,64.53308,7.4718714,-3.625656,6.1861944
221,-5.3536834716796875,-80.4298324584961,109.08385467529297,-2.3955887201740276,11.512772254596383,-74.32864792600222,-35.26987,0.4919849,-11.451953,91.43787,-0.87383795,-9.444835,-66.56172,-0.3730165,-2.0234637,80.271385,-24.83016,4.36445,-2.5647383,18.769426,29.793802,-31.56358,55.88115,-9.023243,11.281745,31.087912,2.004634,-3.2603183,-60.63116,-65.57055,21.839626,63.654934,7.075923,-2.984424,6.915629
222,-5.392483711242676,-80.78936004638672,109.67017364501953,-1.9927101886500849,11.458791864534039,-74.49158198770648,-36.137325,-0.29357168,-11.423005,94.753586,-2.301438,-9.444541,-65.48876,-0.25427034,-1.6716294,79.145035,-24.789715,4.2890167,-2.3475342,18.350986,29.793802,-26.657139,55.247013,-7.620322,11.190175,30.942001,2.06111,-3.6716306,-58.739998,-63.904408,21.412233,62.783752,6.5043793,-2.253598,7.861737
223,-5.424524307250977,-81.13990783691406,110.24750518798828,-1.6149389964311969,11.385501273812961,-74.65037063933103,-36.949165,-1.0206255,-11.36358,97.772575,-3.6817718,-9.381319,-64.40139,-0.15040049,-1.3382423,78.01055,-24.722694,4.218282,-2.1200962,17.945438,29.793802,-22.088749,54.395954,-6.362308,11.269133,30.862854,2.1902037,-4.209949,-56.923878,-62.240982,21.117266,61.903606,5.7926474,-1.5670357,8.800172
224,-5.453364372253418,-81.48509979248047,110.81757354736328,-1.2660759639687966,11.27237143263286,-74.79391779770881,-37.70086,-1.7348601,-11.31055,100.464806,-5.0195613,-9.270974,-63.26597,-0.061292432,-1.0309734,76.8568,-24.644209,4.1493883,-1.8769156,17.557833,29.793802,-17.943111,53.3548,-5.206848,11.54992,31.26326,2.2409983,-5.097393,-55.12181,-60.600468,20.970469,60.99962,4.9748855,-1.0527519,9.5059595
225,-5.485663414001465,-81.81759643554688,111.38162231445312,-0.949333770413745,11.112453184854983,-74.92047602907067,-38.400215,-2.4657812,-11.295667,102.83733,-6.3159366,-9.088906,-62.074627,0.01578011,-0.7503776,75.683815,-24.553978,4.073855,-1.6176172,17.185959,29.793802,-14.213383,52.139015,-4.1015363,12.021506,32.35449,2.1094048,-6.5622077,-53.27883,-58.99902,21.014212,60.028072,4.077238,-0.74869853,9.898587
226,-5.507709980010986,-82.1419448852539,111.93769073486328,-0.6636534650463944,10.918711450395792,-75.03669566386378,-39.055836,-3.1836839,-11.307877,104.903,-7.5577602,-8.841091,-60.846977,0.082110316,-0.49447766,74.49475,-24.444422,3.9957833,-1.3514006,16.840784,29.793802,-10.819526,50.75598,-3.0480268,12.640799,33.87082,1.8567766,-8.432932,-51.440964,-57.442924,21.243385,59.015503,3.0904179,-0.5791152,10.107871
227,-5.535370349884033,-82.4571533203125,112.48600769042969,-0.40705885963004784,10.700547949791408,-75.14427567020684,-39.66709,-3.8400133,-11.307436,106.63329,-8.725716,-8.573908,-59.589382,0.13768923,-0.2684729,73.28172,-24.31819,3.9312692,-1.0896076,16.544952,29.793802,-7.7219195,49.227898,-2.068031,13.388647,35.508476,1.5926976,-10.335016,-49.684994,-55.926723,21.563118,58.044476,1.9666069,-0.49711004,10.225049
228,-5.565741062164307,-82.77619171142578,113.03156280517578,-0.17758741288746122,10.468469027121824,-75.2447077468179,-40.235867,-4.3818727,-11.254881,107.99652,-9.8004875,-8.330673,-58.308872,0.18272027,-0.07750838,72.03568,-24.176647,3.8962488,-0.84225595,16.308552,29.793802,-4.8886223,47.589592,-1.1861506,14.253985,36.97225,1.4679062,-11.902132,-48.06251,-54.44228,21.866604,57.177353,0.6778612,-0.45876858,10.339382
229,-5.5933756828308105,-83.08301544189453,113.56822204589844,0.01663956196627582,10.259168082419027,-75.33834288739344,-40.82372,-4.770528,-11.146226,108.98258,-10.759421,-8.113794,-57.044243,0.22018993,0.067034595,70.745056,-24.009247,3.889767,-0.55643094,16.147669,29.621801,-2.3599458,45.85191,-0.48084533,15.306807,38.27015,1.6158711,-13.186891,-46.45084,-52.96951,22.08027,56.436607,-0.95265454,-0.5286026,10.494266
230,-5.616908550262451,-83.37464141845703,114.0960693359375,0.17670978957521605,10.053092074111884,-75.42438683220747,-41.41138,-5.0362387,-11.008405,109.60847,-11.612455,-7.898547,-55.77615,0.25274944,0.17079516,69.41621,-23.818348,3.9054353,-0.24260747,16.048414,29.329855,-0.15160368,44.029217,0.081568964,16.56536,39.532463,1.9480928,-14.338678,-44.841892,-51.506397,22.24802,55.795982,-2.8542736,-0.70796496,10.626278
231,-5.643768787384033,-83.66817474365234,114.62101745605469,0.3179680787277471,9.839615842310396,-75.5021353509239,-41.96024,-5.2340465,-10.850034,109.886185,-12.381071,-7.6916466,-54.49383,0.27801204,0.2544351,68.05615,-23.609741,3.9513676,0.055924676,15.989489,29.01295,1.8470483,42.162865,0.54991144,17.97267,40.650505,2.297816,-15.168338,-43.3018,-50.054924,22.409367,55.24639,-4.708578,-0.8480207,10.686316
232,-5.674219608306885,-83.95149993896484,115.13934326171875,0.45658012439429035,9.626386640191724,-75.57072121626405,-42.45506,-5.419307,-10.677004,109.826126,-13.08164,-7.497686,-53.20715,0.29176417,0.33885694,66.66958,-23.384525,4.0350547,0.33771276,15.956324,28.668898,3.789939,40.30186,0.9138833,19.453184,41.508015,2.5048544,-15.479239,-41.82396,-48.612232,22.587015,54.795837,-6.198253,-0.8010121,10.636304
233,-5.698712348937988,-84.2281494140625,115.65343475341797,0.593605137213792,9.414988645014176,-75.62513444510289,-42.902992,-5.5913024,-10.481492,109.40823,-13.709407,-7.303755,-51.91499,0.2923861,0.4258575,65.25241,-23.143497,4.1613092,0.5627856,15.924761,28.340477,5.3903475,38.495823,1.0900137,21.301952,42.071068,2.5761435,-15.077285,-40.444786,-47.164925,22.800625,54.4281,-7.1413474,-0.44719422,10.409843
234,-5.7175493240356445,-84.50384521484375,116.15998840332031,0.7230015826722257,9.20099688634626,-75.66738726543795,-43.305,-5.7240567,-10.262449,108.63091,-14.260045,-7.110002,-50.61322,0.28180584,0.5072697,63.80524,-22.886326,4.3234353,0.78814447,15.902039,27.977718,6.9592757,36.73856,1.2005281,23.212824,42.395496,2.5995712,-14.106574,-39.07207,-45.699898,22.936083,54.141644,-7.7719736,0.10857127,10.052602
235,-5.734699726104736,-84.77762603759766,116.65825653076172,0.8488627107725703,8.984968350412398,-75.7070569945511,-43.635868,-5.834623,-10.035507,107.53977,-14.752895,-6.94139,-49.305977,0.26151195,0.5881632,62.33363,-22.611164,4.515694,0.99468124,15.86566,27.603722,8.416133,35.04592,1.2728482,25.234493,42.430744,2.5287945,-12.9017315,-37.74349,-44.232418,23.06936,53.934258,-8.2604685,0.68082327,9.690411
236,-5.754055976867676,-85.0516586303711,117.14960479736328,0.9748174448151946,8.767312493116641,-75.75346710972693,-43.871433,-5.939824,-9.816955,106.178825,-15.206896,-6.822736,-47.996952,0.23273212,0.67319113,60.84246,-22.315344,4.732474,1.1921421,15.814276,27.220062,9.784529,33.4248,1.3363206,27.312952,42.134,2.309688,-11.792973,-36.44128,-42.772785,23.187513,53.797638,-8.85181,1.0832711,9.456093
237,-5.765613555908203,-85.31735229492188,117.6378402709961,1.1093869051960623,8.544381626156294,-75.80918988209585,-43.994125,-6.063137,-9.604334,104.51785,-15.631341,-6.8038096,-46.68815,0.18877809,0.7722733,59.339424,-21.996893,4.978625,1.3799467,15.7243595,26.829845,11.079407,31.893044,1.4023755,29.454178,41.454556,1.8427687,-10.74336,-35.190243,-41.35672,23.402025,53.7393,-9.483444,1.2416844,9.390866
238,-5.778164386749268,-85.59133911132812,118.11833190917969,1.2487374151913364,8.317588607567197,-75.86871106077145,-44.013386,-6.188899,-9.391884,102.54467,-16.021656,-6.8574424,-45.376617,0.13089186,0.8813164,57.819378,-21.658218,5.2558193,1.5658668,15.612251,26.432716,12.286384,30.447876,1.4524844,31.675524,40.43474,1.166089,-9.629799,-33.951637,-39.983383,23.62869,53.732796,-10.095856,1.2611,9.425831
239,-5.785910606384277,-85.86451721191406,118.59300994873047,1.3797000672149866,8.095175256624604,-75.92940749216936,-43.948425,-6.2745466,-9.183584,100.327034,-16.365784,-6.8860755,-44.061222,0.0698326,0.9823345,56.26849,-21.302763,5.5527883,1.7538369,15.498967,26.020464,13.400945,29.08028,1.4972832,33.94694,39.167065,0.44268993,-8.651429,-32.717957,-38.648796,23.82014,53.771664,-10.707784,1.2241731,9.507016
