project-unveil/project-unveil.github.io/assets/demos/g1_csv/crawling.csv
Frame,root_translateX,root_translateY,root_translateZ,root_rotateX,root_rotateY,root_rotateZ,left_hip_pitch_joint_dof,left_hip_roll_joint_dof,left_hip_yaw_joint_dof,left_knee_joint_dof,left_ankle_pitch_joint_dof,left_ankle_roll_joint_dof,right_hip_pitch_joint_dof,right_hip_roll_joint_dof,right_hip_yaw_joint_dof,right_knee_joint_dof,right_ankle_pitch_joint_dof,right_ankle_roll_joint_dof,waist_yaw_joint_dof,waist_roll_joint_dof,waist_pitch_joint_dof,left_shoulder_pitch_joint_dof,left_shoulder_roll_joint_dof,left_shoulder_yaw_joint_dof,left_elbow_joint_dof,left_wrist_roll_joint_dof,left_wrist_pitch_joint_dof,left_wrist_yaw_joint_dof,right_shoulder_pitch_joint_dof,right_shoulder_roll_joint_dof,right_shoulder_yaw_joint_dof,right_elbow_joint_dof,right_wrist_roll_joint_dof,right_wrist_pitch_joint_dof,right_wrist_yaw_joint_dof
0,-0.09799812734127045,-2.555668830871582,41.05668258666992,2.9381775993957016,67.82356419152548,-88.21918973345498,-4.9039927,5.3442965,-6.70958,9.243139,-24.361912,-0.9205756,-2.270914,-8.122166,-4.751656,10.010901,-12.964725,11.650534,-0.7950153,-1.1265647,27.228243,-85.062485,24.21594,-61.91223,80.41435,20.392015,-5.27111,70.34643,-82.30803,-26.428827,52.844894,76.34888,-14.762728,-5.5044494,-69.37644
1,-0.10618288069963455,-2.5684516429901123,41.04280090332031,2.9030918392727596,67.81782106420252,-88.25521784697123,-4.8831115,5.358893,-6.700895,9.248021,-24.354673,-0.9365797,-2.2632813,-8.107527,-4.7345734,10.026157,-12.965913,11.611855,-0.7512892,-1.1306432,27.262764,-85.022095,24.067987,-61.653416,80.46556,20.649652,-5.141278,70.54286,-82.18484,-26.382051,52.46757,76.266785,-15.156119,-5.348488,-69.52138
2,-0.11693739891052246,-2.578253746032715,41.03428268432617,2.8661181540615326,67.81098668134533,-88.29309436259611,-4.861272,5.3738003,-6.6923337,9.254152,-24.347921,-0.95218456,-2.255516,-8.092432,-4.7159243,10.043199,-12.9674835,11.569933,-0.70341396,-1.1374075,27.30391,-84.97414,23.93714,-61.380352,80.48725,20.920391,-5.001435,70.74555,-82.06356,-26.343803,52.093777,76.169,-15.542902,-5.1791687,-69.66791
3,-0.12715116143226624,-2.587587833404541,41.02702331542969,2.8335575684307512,67.8060042608035,-88.32713522282333,-4.8418694,5.387403,-6.68351,9.259288,-24.3403,-0.9663766,-2.2480736,-8.078907,-4.700311,10.0567045,-12.96812,11.534606,-0.6610233,-1.1439377,27.336918,-84.92818,23.821049,-61.137505,80.50242,21.15931,-4.875644,70.92643,-81.94371,-26.311811,51.74292,76.06782,-15.897927,-5.0298157,-69.79982
4,-0.13612127304077148,-2.5970447063446045,41.019439697265625,2.8125524740370946,67.8060386599087,-88.35145702511734,-4.8291826,5.3969927,-6.6740336,9.263418,-24.331423,-0.9761381,-2.2414267,-8.069317,-4.691829,10.061035,-12.96617,11.515677,-0.625917,-1.1536525,27.350473,-84.89827,23.718851,-60.97573,80.53037,21.32541,-4.7882943,71.056786,-81.84865,-26.2861,51.486237,75.99021,-16.136818,-4.932169,-69.89904
5,-0.14555701613426208,-2.6068384647369385,41.01266860961914,2.8055436987351428,67.81350313578668,-88.3652844688434,-4.825532,5.400573,-6.6627975,9.264966,-24.319262,-0.97993404,-2.2354155,-8.066449,-4.6932373,10.049561,-12.958734,11.523938,-0.60095376,-1.1679395,27.336382,-84.8935,23.631983,-60.93449,80.58447,21.383305,-4.756759,71.11861,-81.78808,-26.268442,51.36096,75.94973,-16.213133,-4.912776,-69.956184
6,-0.15368452668190002,-2.6146461963653564,41.00479507446289,2.8086391662457393,67.82628416294823,-88.37140518651515,-4.8283124,5.399794,-6.6502223,9.265256,-24.30557,-0.979296,-2.2295454,-8.067885,-4.7016063,10.026607,-12.947578,11.551285,-0.58689255,-1.1832712,27.306208,-84.89409,23.588882,-60.973442,80.62159,21.364004,-4.764009,71.12899,-81.75798,-26.261415,51.34365,75.93083,-16.161621,-4.9485316,-69.98102
7,-0.16078272461891174,-2.621349811553955,40.99635696411133,2.819397395714128,67.84031323725452,-88.36965135323112,-4.8344965,5.39795,-6.638823,9.266481,-24.2925,-0.97724515,-2.2253397,-8.070635,-4.7133656,10.004762,-12.938037,11.579972,-0.58031976,-1.1988996,27.269384,-84.895035,23.562073,-61.03424,80.6561,21.322958,-4.7862053,71.11795,-81.735146,-26.258224,51.359367,75.9186,-16.077896,-4.9996233,-69.990486
8,-0.17242668569087982,-2.627903699874878,40.98822784423828,2.8355568464717025,67.85104879757395,-88.35909918998883,-4.838211,5.3985033,-6.630728,9.266773,-24.28119,-0.97677696,-2.2217314,-8.070443,-4.7251015,9.992303,-12.933684,11.59216,-0.57621986,-1.2101114,27.240015,-84.885475,23.544353,-61.061245,80.672134,21.310183,-4.7967997,71.11291,-81.71021,-26.256329,51.361977,75.8999,-16.02774,-5.0241675,-69.998505
9,-0.18403397500514984,-2.6328282356262207,40.981178283691406,2.8584059574793184,67.85783744199095,-88.33751168185523,-4.841672,5.401845,-6.6277823,9.271651,-24.274042,-0.977078,-2.2235503,-8.066887,-4.7359834,10.001149,-12.939816,11.580287,-0.57618994,-1.223835,27.22131,-84.8745,23.530466,-61.05491,80.69095,21.327688,-4.796078,71.11805,-81.67925,-26.254377,51.343044,75.86907,-16.01515,-5.013634,-70.008255
10,-0.19520199298858643,-2.6384615898132324,40.97446823120117,2.889634980824066,67.86249635040707,-88.30460273561262,-4.844598,5.4063926,-6.6286693,9.276029,-24.267574,-0.97727716,-2.2237444,-8.061305,-4.749008,10.0125065,-12.947141,11.554904,-0.57669896,-1.2361745,27.202873,-84.865265,23.49932,-61.021725,80.72738,21.374739,-4.792931,71.12183,-81.6456,-26.250397,51.31149,75.84231,-16.02707,-4.989158,-70.0119
11,-0.20655827224254608,-2.643150568008423,40.967010498046875,2.9222460618109096,67.86630711546007,-88.26919983825977,-4.847299,5.412167,-6.6300025,9.280644,-24.263794,-0.9792225,-2.2259429,-8.054732,-4.7614074,10.030089,-12.959692,11.524844,-0.5791096,-1.2441957,27.185709,-84.853836,23.473791,-60.98755,80.75658,21.417332,-4.788382,71.12416,-81.61414,-26.24705,51.288525,75.81773,-16.046114,-4.9559364,-70.01277
12,-0.2141372710466385,-2.6474149227142334,40.95896911621094,2.9495270533563693,67.87052659402512,-88.23985185820466,-4.847378,5.419524,-6.6279902,9.280851,-24.261827,-0.9848834,-2.226713,-8.047644,-4.771288,10.043042,-12.973594,11.499062,-0.57920915,-1.2511461,27.168436,-84.84101,23.45839,-60.968956,80.77302,21.440706,-4.7836695,71.12596,-81.58437,-26.244753,51.273613,75.796364,-16.071293,-4.919765,-70.01398
13,-0.22788044810295105,-2.651752233505249,40.94990921020508,2.9670619146154125,67.8756051412378,-88.22072676560639,-4.844292,5.429855,-6.620652,9.275181,-24.261934,-0.996395,-2.2268922,-8.038756,-4.777527,10.050273,-12.9887,11.477158,-0.5732427,-1.2558554,27.152966,-84.83214,23.452412,-60.96953,80.77844,21.442663,-4.780179,71.12601,-81.56362,-26.24355,51.272415,75.78665,-16.108648,-4.8781223,-70.012535
14,-0.24110113084316254,-2.653400421142578,40.9404411315918,2.9796838177146787,67.88108500790199,-88.2063590452595,-4.8392935,5.442666,-6.610173,9.265269,-24.263966,-1.0120686,-2.2267323,-8.028416,-4.7815256,10.055296,-13.006299,11.455318,-0.5637068,-1.2618421,27.128893,-84.82574,23.429361,-60.992664,80.8017,21.423521,-4.774366,71.12824,-81.52472,-26.238934,51.26037,75.77641,-16.175312,-4.8262553,-70.01498
15,-0.251588374376297,-2.6559791564941406,40.931983947753906,2.9925628642869144,67.88610447263784,-88.19233369528739,-4.8331423,5.455143,-6.599661,9.254136,-24.267355,-1.0283267,-2.2245166,-8.018549,-4.784341,10.056803,-13.0242605,11.437265,-0.55162317,-1.2688448,27.108374,-84.82308,23.40999,-61.018967,80.81904,21.402851,-4.770228,71.130005,-81.49598,-26.234785,51.25643,75.77137,-16.230314,-4.7771277,-70.01694
16,-0.26399049162864685,-2.6568245887756348,40.92241668701172,3.0100015155826285,67.89045279559281,-88.17512118355667,-4.827258,5.4648304,-6.592133,9.2450695,-24.272379,-1.0414381,-2.2207117,-8.011043,-4.7866697,10.057289,-13.042692,11.42661,-0.5446258,-1.273557,27.090567,-84.81521,23.404106,-61.02626,80.82401,21.398384,-4.769878,71.13388,-81.472435,-26.233187,51.252098,75.761406,-16.268665,-4.740981,-70.02287
17,-0.27515679597854614,-2.6595773696899414,40.91233444213867,3.0356249266069946,67.89438305664258,-88.15130975320318,-4.822701,5.470277,-6.5892224,9.238175,-24.278208,-1.0501127,-2.2139137,-8.006808,-4.7889075,10.053804,-13.059568,11.426102,-0.5381844,-1.2907262,27.067883,-84.81229,23.37964,-61.030838,80.852554,21.41403,-4.7734165,71.14433,-81.43521,-26.226568,51.218563,75.73898,-16.291525,-4.721206,-70.04218
18,-0.28950709104537964,-2.6592519283294678,40.90196990966797,3.066460593092939,67.89756441121622,-88.12332622375793,-4.818334,5.4732356,-6.5894365,9.231852,-24.284872,-1.0565844,-2.2045674,-8.004571,-4.7909875,10.04775,-13.0763645,11.433149,-0.53669375,-1.3004978,27.04698,-84.801346,23.365826,-61.01469,80.86414,21.443478,-4.7784085,71.15833,-81.402954,-26.222643,51.187782,75.71342,-16.29874,-4.7135777,-70.06642
19,-0.2995999753475189,-2.660648822784424,40.89133071899414,3.0970533131820495,67.9004349260205,-88.09660422526858,-4.813372,5.4752746,-6.5896387,9.226601,-24.293299,-1.0618005,-2.194331,-8.003402,-4.791643,10.041051,-13.0949,11.443638,-0.5346389,-1.3128496,27.026121,-84.79162,23.352352,-60.994965,80.879,21.478893,-4.786206,71.171776,-81.37118,-26.218435,51.153698,75.68662,-16.303427,-4.708595,-70.090706
20,-0.31236061453819275,-2.6599199771881104,40.882041931152344,3.123372319672319,67.90269906391133,-88.07504097934738,-4.8074856,5.477921,-6.58797,9.222733,-24.303627,-1.0667365,-2.183713,-8.002106,-4.7910786,10.034072,-13.115663,11.453475,-0.52990496,-1.3266294,27.005104,-84.782394,23.337662,-60.979187,80.895035,21.508162,-4.795347,71.18036,-81.34048,-26.2133,51.121876,75.66175,-16.314611,-4.6968036,-70.10869
21,-0.32529911398887634,-2.6594390869140625,40.86953353881836,3.145565355347252,67.9039282083165,-88.05836264545488,-4.800051,5.481378,-6.583976,9.221195,-24.316795,-1.0704523,-2.1716683,-8.000786,-4.789094,10.026804,-13.140194,11.464332,-0.5258502,-1.3372391,26.984646,-84.769455,23.331114,-60.971176,80.90238,21.518705,-4.8052945,71.18194,-81.3108,-26.210606,51.09913,75.635376,-16.334536,-4.6742015,-70.11702
22,-0.3384719491004944,-2.660332679748535,40.85824966430664,3.165547735916291,67.90466714227698,-88.04504940620878,-4.7916803,5.484685,-6.57867,9.221178,-24.331993,-1.0727744,-2.161015,-8.000394,-4.785265,10.023749,-13.169954,11.477567,-0.519246,-1.3535706,26.961807,-84.756355,23.3202,-60.965992,80.91478,21.529007,-4.8160114,71.17919,-81.273506,-26.205803,51.061172,75.60543,-16.371265,-4.645651,-70.12101
23,-0.3517966866493225,-2.6598663330078125,40.84442901611328,3.181803581682191,67.90508531010546,-88.03604627487107,-4.7819724,5.4884334,-6.5722513,9.219439,-24.347008,-1.0761472,-2.1482487,-7.9996033,-4.780768,10.016007,-13.198217,11.4882965,-0.5118214,-1.3667543,26.939236,-84.741844,23.310976,-60.963184,80.923515,21.531244,-4.8267255,71.1756,-81.23875,-26.201326,51.03058,75.57767,-16.403423,-4.6171455,-70.12307
24,-0.3652394115924835,-2.659057378768921,40.83236312866211,3.1930063501852364,67.90600560054624,-88.03277368327362,-4.770893,5.4925094,-6.5645547,9.215512,-24.361832,-1.0828875,-2.1359036,-7.9982133,-4.7756824,10.008182,-13.226344,11.4916115,-0.5010139,-1.3795769,26.919521,-84.7301,23.304724,-60.960037,80.93019,21.533518,-4.8384156,71.17325,-81.21561,-26.1976,51.01519,75.55849,-16.418285,-4.5956388,-70.125
25,-0.3777178227901459,-2.6603245735168457,40.818843841552734,3.1959082768291767,67.90894354706838,-88.03824486519794,-4.759544,5.497929,-6.554161,9.207151,-24.3757,-1.0953728,-2.1311321,-7.99557,-4.767583,10.009468,-13.258434,11.483008,-0.4922315,-1.3993962,26.889845,-84.71045,23.297754,-60.949738,80.95,21.548218,-4.8528337,71.1774,-81.168045,-26.193115,50.984642,75.51891,-16.444742,-4.574221,-70.13479
26,-0.39251893758773804,-2.660613536834717,40.80514907836914,3.1929300162116885,67.91207178637806,-88.04988287448487,-4.7472,5.5044293,-6.5422525,9.196865,-24.38978,-1.1118191,-2.1277122,-7.9920382,-4.7580786,10.01229,-13.291766,11.466162,-0.47985017,-1.419237,26.861536,-84.69337,23.288038,-60.937073,80.97189,21.564295,-4.8676147,71.18258,-81.12593,-26.186615,50.95469,75.486336,-16.466967,-4.5587277,-70.14384
27,-0.4060271680355072,-2.6610617637634277,40.791988372802734,3.1879465596206003,67.91532589497467,-88.06466701061788,-4.7336783,5.509947,-6.530021,9.185326,-24.403101,-1.1281098,-2.1245916,-7.9892693,-4.7488937,10.016159,-13.325669,11.448635,-0.4679674,-1.4367473,26.833284,-84.67442,23.280602,-60.92457,80.9908,21.57781,-4.88274,71.18821,-81.08591,-26.181133,50.93465,75.45449,-16.4819,-4.545365,-70.15394
28,-0.4192243814468384,-2.6599316596984863,40.77737045288086,3.185307037202399,67.91822750456468,-88.07905141564807,-4.719888,5.5126557,-6.5187488,9.175356,-24.414898,-1.1402668,-2.1192155,-7.989765,-4.7422075,10.017551,-13.357888,11.438412,-0.45763704,-1.4567358,26.80348,-84.655365,23.268251,-60.912704,81.01402,21.596302,-4.8965073,71.192444,-81.04386,-26.171423,50.911316,75.424774,-16.503523,-4.5316963,-70.16609
29,-0.4283352196216583,-2.66281795501709,40.76317596435547,3.186789886540782,67.9214697487066,-88.09271902860108,-4.706332,5.510444,-6.5096555,9.167621,-24.42495,-1.1456856,-2.1117456,-7.9955497,-4.7389627,10.01782,-13.389534,11.440245,-0.4478795,-1.4806548,26.775967,-84.63845,23.261112,-60.911617,81.03107,21.61233,-4.911714,71.192505,-81.009674,-26.164965,50.907833,75.3956,-16.506737,-4.5198207,-70.17887
30,-0.4412541687488556,-2.6637532711029053,40.7465934753418,3.190228361024937,67.92499346776125,-88.1071202561249,-4.691044,5.504757,-6.5016437,9.157643,-24.431654,-1.1469766,-2.099289,-8.0049715,-4.7383585,10.00955,-13.41642,11.449057,-0.44122687,-1.5052704,26.746407,-84.61792,23.254845,-60.912155,81.044975,21.628881,-4.926028,71.19117,-80.9703,-26.158228,50.906086,75.36148,-16.511705,-4.508999,-70.19418
31,-0.4547283947467804,-2.666375160217285,40.73164749145508,3.192615320691692,67.92697626317978,-88.12212728268877,-4.675416,5.4996395,-6.4932594,9.151107,-24.439878,-1.1479094,-2.0861874,-8.013772,-4.738907,10.003447,-13.444285,11.457762,-0.4324881,-1.5262436,26.72372,-84.601204,23.251825,-60.91263,81.05179,21.642645,-4.9388747,71.18849,-80.94087,-26.154192,50.90558,75.33362,-16.516966,-4.499484,-70.20627
32,-0.4680072069168091,-2.668917179107666,40.71602249145508,3.1916576276103044,67.92691968071905,-88.13767356812048,-4.6582856,5.498314,-6.482548,9.145747,-24.449982,-1.1522248,-2.0736175,-8.018934,-4.7398486,10.001748,-13.4741335,11.459431,-0.4214645,-1.5481504,26.696104,-84.57679,23.24586,-60.913845,81.062256,21.65442,-4.948353,71.19053,-80.89857,-26.145267,50.894417,75.30591,-16.527044,-4.4824123,-70.222496
33,-0.4815281927585602,-2.670593500137329,40.70229721069336,3.1834238389526597,67.92257310989841,-88.15620320342748,-4.638947,5.503154,-6.46758,9.145124,-24.464808,-1.1623015,-2.0601704,-8.017647,-4.7402325,10.005616,-13.507463,11.450083,-0.40275216,-1.5579135,26.681536,-84.55788,23.242785,-60.90788,81.06222,21.658401,-4.954491,71.194145,-80.87216,-26.140268,50.876175,75.29578,-16.544855,-4.4636717,-70.23234
34,-0.4932153522968292,-2.671332597732544,40.690032958984375,3.1703350367247025,67.91555995693649,-88.17708522912193,-4.618329,5.5119076,-6.4495087,9.147741,-24.482487,-1.1757855,-2.046225,-8.012649,-4.740403,10.012975,-13.54302,11.434247,-0.38020778,-1.5737525,26.665813,-84.53741,23.232834,-60.896645,81.07058,21.671907,-4.9566097,71.200424,-80.831924,-26.124804,50.809402,75.28961,-16.60267,-4.440824,-70.24387
35,-0.5072518587112427,-2.6703073978424072,40.677978515625,3.1591250031901676,67.90762606961187,-88.19489904289226,-4.597356,5.5212917,-6.4324827,9.151272,-24.50031,-1.1891193,-2.031046,-8.006453,-4.742912,10.020313,-13.577233,11.417068,-0.3568883,-1.5829569,26.655046,-84.51943,23.226252,-60.89017,81.07304,21.67496,-4.958645,71.20702,-80.80418,-26.114859,50.769577,75.288765,-16.63512,-4.418782,-70.25298
36,-0.520498514175415,-2.6724660396575928,40.66402816772461,3.1564927053210248,67.9004849315872,-88.204258697599,-4.5789027,5.5282936,-6.4211335,9.155373,-24.51616,-1.1990316,-2.0154402,-8.002118,-4.7500033,10.026456,-13.608458,11.403799,-0.34193033,-1.5927933,26.642315,-84.5018,23.221375,-60.89094,81.08124,21.673372,-4.962082,71.21323,-80.77307,-26.107037,50.739773,75.27963,-16.65995,-4.400948,-70.26332
37,-0.5343791246414185,-2.6749629974365234,40.65169906616211,3.1671453668196965,67.8947634848644,-88.20054075850238,-4.5630884,5.5320644,-6.4180512,9.158593,-24.529314,-1.203909,-1.998299,-8.000382,-4.764103,10.029541,-13.635133,11.396014,-0.33618894,-1.6149336,26.625181,-84.49229,23.208038,-60.918945,81.11331,21.660519,-4.9679713,71.21801,-80.74178,-26.084372,50.71782,75.273285,-16.66734,-4.3899455,-70.27802
38,-0.5460264086723328,-2.679535150527954,40.63933563232422,3.1864308830415795,67.88924812063148,-88.18760849401619,-4.5492344,5.5342712,-6.420788,9.162624,-24.541296,-1.2058103,-1.979635,-7.999315,-4.783603,10.030903,-13.658666,11.390708,-0.33759165,-1.629329,26.607939,-84.47847,23.20083,-60.946472,81.1401,21.643196,-4.9744797,71.22284,-80.71539,-26.069479,50.72942,75.2618,-16.648207,-4.382232,-70.29276
39,-0.5597782135009766,-2.6825015544891357,40.62672424316406,3.2074116965074517,67.8840137482039,-88.17314228001216,-4.536776,5.535543,-6.424097,9.168556,-24.5527,-1.2067,-1.96329,-7.999092,-4.8033814,10.036403,-13.682842,11.386965,-0.3414848,-1.6414578,26.591396,-84.463234,23.197073,-60.97096,81.16215,21.627007,-4.9810705,71.22834,-80.68569,-26.058836,50.741314,75.24178,-16.6308,-4.3746476,-70.30555
40,-0.5724145174026489,-2.6854794025421143,40.61434555053711,3.2235805779049462,67.87930947676824,-88.16427333851736,-4.5236425,5.5370107,-6.4227204,9.17372,-24.56122,-1.20865,-1.9473633,-7.9990554,-4.819502,10.040014,-13.705048,11.383601,-0.34354532,-1.6528412,26.575401,-84.44682,23.195024,-60.988438,81.17823,21.613981,-4.9875565,71.2364,-80.654976,-26.050396,50.74503,75.2188,-16.62488,-4.364329,-70.315155
41,-0.584003746509552,-2.690701961517334,40.60286331176758,3.2323918878053948,67.87498899045896,-88.16382600686033,-4.509889,5.538641,-6.414261,9.179919,-24.567995,-1.2117145,-1.9329987,-7.99926,-4.8308454,10.043484,-13.726427,11.38173,-0.3445943,-1.6695005,26.557943,-84.43006,23.192122,-61.006863,81.19207,21.600634,-4.9923596,71.24935,-80.62243,-26.030293,50.730022,75.19924,-16.639927,-4.3487816,-70.32068
42,-0.595753014087677,-2.694317579269409,40.590946197509766,3.237729651936923,67.87099410185995,-88.16769022494202,-4.4958725,5.539836,-6.4016194,9.186303,-24.572536,-1.2150367,-1.9213265,-8.000111,-4.839599,10.050918,-13.749128,11.381531,-0.34553215,-1.6840954,26.541542,-84.41116,23.191246,-61.012745,81.198135,21.595793,-4.9969983,71.26524,-80.59129,-26.009483,50.70889,75.177956,-16.667223,-4.331143,-70.32078
43,-0.6079890727996826,-2.698275089263916,40.57891082763672,3.2420720193393326,67.86747242836464,-88.17279421907298,-4.4830875,5.5408306,-6.388235,9.194835,-24.576872,-1.2190489,-1.9114985,-8.001271,-4.8458886,10.060136,-13.771263,11.380374,-0.34476584,-1.695087,26.525896,-84.39002,23.19179,-61.00927,81.1989,21.596941,-5.0015,71.280846,-80.55696,-25.997429,50.686657,75.14876,-16.698019,-4.311733,-70.32086
44,-0.6188451647758484,-2.7026326656341553,40.56792068481445,3.248689431232627,67.86480875559914,-88.17600756525968,-4.471093,5.5413537,-6.377435,9.201856,-24.579329,-1.2244017,-1.904401,-8.002745,-4.849466,10.07246,-13.79333,11.375712,-0.34364742,-1.7126178,26.509815,-84.369484,23.194248,-61.004814,81.20437,21.604603,-5.0066886,71.29112,-80.528564,-25.970833,50.65073,75.13363,-16.735243,-4.293065,-70.32791
45,-0.6308631300926208,-2.7059621810913086,40.55762481689453,3.258358830141148,67.86306444142272,-88.1771777116345,-4.4606285,5.5407104,-6.3696213,9.208453,-24.57992,-1.2314423,-1.8991201,-8.005628,-4.849714,10.086031,-13.81461,11.366175,-0.33895883,-1.7224973,26.495317,-84.34767,23.195217,-60.99166,81.20973,21.615484,-5.012479,71.29554,-80.49832,-25.961113,50.62395,75.11102,-16.763271,-4.275821,-70.34229
46,-0.6414146423339844,-2.7098233699798584,40.5485954284668,3.269835261617686,67.8620554957552,-88.1774699358932,-4.4507847,5.5390286,-6.3632135,9.21393,-24.57832,-1.2398698,-1.8970499,-8.009406,-4.8467374,10.103576,-13.836178,11.353241,-0.33418718,-1.7424923,26.479244,-84.3243,23.197708,-60.96943,81.22078,21.643616,-5.018348,71.29455,-80.46889,-25.933315,50.563705,75.102425,-16.815311,-4.259772,-70.36337
47,-0.6563472151756287,-2.714895725250244,40.53984832763672,3.281449642412713,67.86166929215928,-88.17665525162766,-4.4421067,5.53817,-6.3583016,9.219563,-24.57655,-1.2489977,-1.8956169,-8.012192,-4.842632,10.121604,-13.856779,11.33901,-0.32732064,-1.7553917,26.464466,-84.301895,23.198671,-60.946117,81.229675,21.668196,-5.025347,71.29357,-80.44076,-25.918106,50.522564,75.086334,-16.853128,-4.241334,-70.38584
48,-0.6704357266426086,-2.721115827560425,40.526859283447266,3.292152495566649,67.86177202998844,-88.174006991797,-4.434236,5.539855,-6.355073,9.224886,-24.575768,-1.258331,-1.8940609,-8.011697,-4.8390465,10.139706,-13.876201,11.325333,-0.3269403,-1.770456,26.446594,-84.277855,23.200811,-60.917694,81.24299,21.698788,-5.034717,71.29566,-80.41628,-25.882727,50.47187,75.081505,-16.907845,-4.2197313,-70.41012
49,-0.6842692494392395,-2.726409435272217,40.51612091064453,3.30476099416694,67.8628892755169,-88.16550040761147,-4.428181,5.5443835,-6.3556614,9.230325,-24.577337,-1.2679908,-1.8913547,-8.007385,-4.8376317,10.155728,-13.89323,11.311952,-0.3274468,-1.7774229,26.428036,-84.254005,23.201956,-60.88532,81.251686,21.729155,-5.047022,71.30233,-80.38427,-25.864454,50.435284,75.05566,-16.957302,-4.190819,-70.43422
50,-0.6941685676574707,-2.7315661907196045,40.5052375793457,3.3187647114973355,67.86491668550849,-88.15278096626952,-4.42412,5.5511827,-6.359448,9.235231,-24.579332,-1.27839,-1.8893918,-8.000018,-4.8368654,10.17378,-13.910362,11.297926,-0.32955903,-1.7825117,26.408543,-84.230415,23.202898,-60.84792,81.25993,21.764051,-5.0617847,71.31092,-80.34973,-25.848349,50.39889,75.02255,-17.01095,-4.1572084,-70.45973
51,-0.7038233876228333,-2.737175703048706,40.49507141113281,3.3281590483956704,67.86668567185559,-88.14362766783502,-4.4188232,5.5597563,-6.361776,9.239558,-24.581417,-1.2885821,-1.8864503,-7.9907146,-4.8346753,10.189652,-13.924914,11.284969,-0.3294769,-1.7853782,26.390444,-84.209175,23.20339,-60.819027,81.26777,21.790693,-5.0770516,71.32084,-80.31522,-25.8389,50.37261,74.98493,-17.056776,-4.1227016,-70.48347
52,-0.7147713303565979,-2.7434499263763428,40.4846076965332,3.3263577437234835,67.8672369142757,-88.14643669041101,-4.4108276,5.569821,-6.357836,9.244174,-24.58278,-1.2977684,-1.8820634,-7.980297,-4.8290706,10.201425,-13.935545,11.274539,-0.329783,-1.7889717,26.37179,-84.18245,23.205416,-60.779903,81.27634,21.827015,-5.0905013,71.331345,-80.2824,-25.814571,50.33423,74.96054,-17.115778,-4.090644,-70.50377
53,-0.7263259291648865,-2.749140739440918,40.47482681274414,3.3065698832985952,67.86524333732619,-88.16767731024296,-4.398898,5.582794,-6.344768,9.25239,-24.585667,-1.3049067,-1.8752857,-7.967324,-4.817654,10.209244,-13.941976,11.268537,-0.32095507,-1.7870636,26.360966,-84.16426,23.20615,-60.771248,81.28558,21.830032,-5.101996,71.34232,-80.25256,-25.807884,50.323105,74.92825,-17.144955,-4.0598598,-70.51479
54,-0.7362127304077148,-2.755326271057129,40.466041564941406,3.274478339142396,67.862229914896,-88.20121382901135,-4.3837175,5.5982866,-6.32565,9.259846,-24.587893,-1.3108,-1.8664768,-7.9518466,-4.802369,10.212294,-13.944056,11.2655,-0.3138742,-1.7914888,26.346037,-84.138275,23.210798,-60.76539,81.29703,21.835035,-5.1117244,71.35524,-80.22184,-25.778307,50.301254,74.908844,-17.18582,-4.0272384,-70.52461
55,-0.7489123940467834,-2.763017416000366,40.45602798461914,3.239660415917281,67.85906213098416,-88.23793274356788,-4.3687153,5.613828,-6.304757,9.268497,-24.58996,-1.3171549,-1.8598129,-7.9369473,-4.786253,10.218494,-13.947136,11.262457,-0.30251443,-1.7926836,26.334908,-84.11715,23.214117,-60.76549,81.30511,21.83245,-5.1207905,71.36717,-80.19235,-25.76161,50.293945,74.883354,-17.208323,-3.9979143,-70.531876
56,-0.7598433494567871,-2.7692699432373047,40.44710922241211,3.2141452053620934,67.85781455007204,-88.26686513280562,-4.355015,5.626263,-6.286538,9.272406,-24.587803,-1.3253963,-1.8523687,-7.9254456,-4.7739043,10.219993,-13.94802,11.256382,-0.28917396,-1.7950953,26.324488,-84.09946,23.215681,-60.76323,81.307976,21.833868,-5.130057,71.37749,-80.164474,-25.754238,50.288128,74.85902,-17.224749,-3.978985,-70.5411
57,-0.7719881534576416,-2.7762269973754883,40.43842697143555,3.199272327046662,67.85963866689158,-88.28701624145353,-4.3447213,5.635168,-6.27103,9.27339,-24.582554,-1.3376745,-1.850805,-7.9188056,-4.7651305,10.227759,-13.952672,11.245615,-0.27901462,-1.8037909,26.309082,-84.08019,23.218092,-60.755527,81.30503,21.843756,-5.1397285,71.38517,-80.131546,-25.744055,50.275772,74.83548,-17.24108,-3.9715674,-70.55678
58,-0.7833671569824219,-2.782055377960205,40.42832565307617,3.190366372800513,67.86379651034959,-88.30280240812782,-4.33605,5.6415415,-6.2564635,9.270488,-24.573898,-1.352471,-1.8528196,-7.9155846,-4.75852,10.238499,-13.959041,11.231997,-0.2723731,-1.817795,26.288042,-84.055275,23.222734,-60.740303,81.296295,21.864464,-5.1490045,71.391815,-80.09391,-25.727524,50.255238,74.81534,-17.263159,-3.9724407,-70.57756
59,-0.7940534353256226,-2.7887654304504395,40.42021942138672,3.185213869688736,67.86782167434482,-88.31523020080893,-4.3290424,5.6467295,-6.243697,9.270136,-24.565517,-1.366674,-1.856005,-7.9134655,-4.7532344,10.251823,-13.966932,11.217806,-0.26729915,-1.83372,26.269148,-84.03083,23.232595,-60.724113,81.283104,21.886436,-5.1567397,71.39781,-80.072685,-25.697346,50.243904,74.81761,-17.276484,-3.9759173,-70.59886
60,-0.8074815273284912,-2.795098066329956,40.412654876708984,3.1803145849662435,67.86963454324251,-88.32666913024838,-4.3211417,5.652329,-6.2330046,9.271782,-24.55737,-1.3770859,-1.8537738,-7.9097247,-4.7494435,10.259021,-13.972035,11.205086,-0.25744632,-1.8466485,26.256105,-84.0152,23.23565,-60.716663,81.27754,21.899162,-5.161882,71.40549,-80.04294,-25.688562,50.239788,74.800095,-17.27781,-3.971432,-70.617676
61,-0.820217490196228,-2.79982328414917,40.40595245361328,3.178743562096958,67.86837038044283,-88.33448142127484,-4.3137717,5.6572905,-6.22532,9.280611,-24.551556,-1.3810178,-1.84979,-7.9052877,-4.7463155,10.269507,-13.97985,11.194468,-0.25323054,-1.8620766,26.244541,-83.99342,23.246649,-60.706406,81.27018,21.914232,-5.1611443,71.41637,-80.025215,-25.659092,50.2447,74.8049,-17.27312,-3.9551036,-70.63832
62,-0.833143413066864,-2.8076822757720947,40.39944839477539,3.1802001826390223,67.8650884688854,-88.33931844405613,-4.3059964,5.661444,-6.219889,9.291942,-24.545599,-1.3808994,-1.8424913,-7.9007397,-4.744586,10.277877,-13.987275,11.184685,-0.24525501,-1.8783141,26.238623,-83.97946,23.254171,-60.705128,81.26721,21.922749,-5.1568427,71.428444,-80.0078,-25.639147,50.25802,74.80499,-17.25368,-3.9324884,-70.6578
63,-0.8444024324417114,-2.813169479370117,40.39235305786133,3.1798409854591725,67.86145620383927,-88.34477333086299,-4.2990656,5.6668606,-6.215824,9.305667,-24.541428,-1.3808929,-1.8347358,-7.8943954,-4.743896,10.285665,-13.994227,11.17557,-0.23480102,-1.8939561,26.234606,-83.96951,23.25818,-60.70538,81.26903,21.930447,-5.152485,71.43995,-79.98526,-25.628332,50.267,74.79509,-17.23643,-3.9080036,-70.675224
64,-0.8558789491653442,-2.819103956222534,40.38558578491211,3.173972848054309,67.85955128157339,-88.3536026361406,-4.293017,5.675604,-6.2120833,9.317638,-24.538464,-1.3853984,-1.8282813,-7.8852363,-4.744535,10.291881,-13.999734,11.166964,-0.22875614,-1.9049311,26.224903,-83.95117,23.267017,-60.70168,81.26744,21.934872,-5.1502337,71.450874,-79.96941,-25.604834,50.28206,74.79584,-17.223864,-3.8866122,-70.69267
65,-0.8678199648857117,-2.825460195541382,40.37778854370117,3.1598575356367253,67.85952817848825,-88.36711960743193,-4.2875967,5.689417,-6.2091646,9.326738,-24.536928,-1.3970994,-1.8221667,-7.8712034,-4.74728,10.294058,-14.00183,11.160088,-0.21780096,-1.9103509,26.21561,-83.93821,23.27027,-60.69991,81.27031,21.934313,-5.151285,71.45788,-79.94808,-25.596056,50.28628,74.780205,-17.224586,-3.8685682,-70.70302
66,-0.8799934983253479,-2.8304522037506104,40.370361328125,3.1403967657954928,67.86066444592825,-88.38332330753387,-4.284218,5.7068176,-6.207684,9.3369665,-24.537794,-1.4132087,-1.816495,-7.8533854,-4.7517037,10.293691,-14.001831,11.154609,-0.20706104,-1.9121428,26.20385,-83.923805,23.272554,-60.698666,81.27537,21.929659,-5.1536713,71.463524,-79.92494,-25.589771,50.2892,74.75879,-17.232014,-3.8502345,-70.71049
67,-0.8870762586593628,-2.83502197265625,40.365631103515625,3.118210480789438,67.86252239513647,-88.40202823080537,-4.280177,5.7248483,-6.2054253,9.345493,-24.53866,-1.4296967,-1.8113018,-7.8352084,-4.7563863,10.292683,-14.001152,11.147976,-0.1958259,-1.9140766,26.190432,-83.907524,23.275845,-60.69618,81.27951,21.926308,-5.157727,71.46861,-79.902115,-25.580479,50.29105,74.739716,-17.239637,-3.835347,-70.71934
68,-0.9001376032829285,-2.840958833694458,40.35800552368164,3.0962660791423,67.86461158726348,-88.42243773303288,-4.276569,5.7403984,-6.2014,9.355592,-24.539394,-1.4426802,-1.8093035,-7.8200445,-4.759494,10.298049,-14.003895,11.137682,-0.18400665,-1.9177126,26.176888,-83.88882,23.279287,-60.686207,81.28178,21.93272,-5.164407,71.47411,-79.878044,-25.570194,50.28465,74.72758,-17.248932,-3.828628,-70.734024
69,-0.9093053340911865,-2.846954107284546,40.35103988647461,3.071128172015829,67.86633973469134,-88.44890576242271,-4.2709084,5.7530327,-6.1941595,9.3659725,-24.53926,-1.4510502,-1.8063418,-7.808399,-4.7613196,10.3025255,-14.005788,11.1215315,-0.17183764,-1.9247395,26.163437,-83.86596,23.285772,-60.663216,81.28131,21.954952,-5.175339,71.479485,-79.85628,-25.54953,50.265278,74.731995,-17.263248,-3.8354387,-70.75882
70,-0.9207022190093994,-2.8523261547088623,40.34510803222656,3.0425812619904224,67.86792574808561,-88.4802011635792,-4.263442,5.7644653,-6.1847,9.375192,-24.537968,-1.4569329,-1.8029338,-7.7982445,-4.762409,10.306179,-14.006681,11.101214,-0.15728578,-1.93349,26.150724,-83.841736,23.292694,-60.633606,81.279564,21.985977,-5.1898236,71.48413,-79.838066,-25.52444,50.241024,74.74798,-17.276001,-3.8521926,-70.78986
71,-0.9306274652481079,-2.8579440116882324,40.33567428588867,3.0180858280615723,67.87087447723798,-88.50821079329285,-4.2578773,5.774237,-6.174943,9.385328,-24.537424,-1.4610175,-1.8036369,-7.7900085,-4.7622585,10.315945,-14.011393,11.080639,-0.14056785,-1.9419277,26.137676,-83.821304,23.295288,-60.612072,81.27872,22.01133,-5.2040696,71.48966,-79.814026,-25.513226,50.22055,74.751755,-17.281096,-3.8684878,-70.81914
72,-0.9417258501052856,-2.865635871887207,40.324180603027344,3.005806016352514,67.87693261017225,-88.52418285538558,-4.254841,5.7821264,-6.166393,9.390164,-24.534185,-1.4638932,-1.8037277,-7.7828565,-4.761927,10.319199,-14.01377,11.063371,-0.12868494,-1.950914,26.119398,-83.79775,23.297737,-60.592052,81.27439,22.03871,-5.2135444,71.49834,-79.78524,-25.501701,50.19826,74.748,-17.29259,-3.874448,-70.84061
73,-0.9523832201957703,-2.8721134662628174,40.31370162963867,3.0085969021879277,67.88798471552212,-88.52561574114237,-4.2573566,5.7877,-6.1586914,9.3905325,-24.52874,-1.4643362,-1.8101494,-7.7774754,-4.75958,10.32574,-14.019124,11.050386,-0.12446397,-1.9640334,26.093685,-83.772354,23.301922,-60.57879,81.26865,22.066433,-5.217647,71.510796,-79.7577,-25.483265,50.180576,74.74142,-17.30672,-3.8673742,-70.85016
74,-0.9634702205657959,-2.879026412963867,40.30446243286133,3.021873890780734,67.90280535722982,-88.51732138178916,-4.2634077,5.791199,-6.151238,9.387334,-24.521471,-1.4625058,-1.820466,-7.77372,-4.755428,10.333112,-14.025614,11.039629,-0.12668887,-1.9795439,26.0629,-83.74561,23.30938,-60.576294,81.26051,22.086573,-5.218218,71.52613,-79.73682,-25.455078,50.175594,74.74067,-17.313482,-3.852784,-70.85278
75,-0.9718614816665649,-2.885071277618408,40.294776916503906,3.041674873851927,67.91746388849138,-88.50200057234798,-4.269262,5.793845,-6.1454306,9.382929,-24.514261,-1.461076,-1.8286667,-7.7705984,-4.752449,10.338262,-14.032459,11.03061,-0.12872757,-1.9913789,26.032562,-83.72062,23.313139,-60.577663,81.25071,22.100939,-5.2166653,71.54216,-79.706474,-25.4424,50.17125,74.72144,-17.319735,-3.831873,-70.85317
76,-0.9806846976280212,-2.8915655612945557,40.28589630126953,3.0659817841544643,67.92832018654892,-88.48096398162005,-4.270975,5.796129,-6.1427007,9.3787775,-24.50839,-1.4626409,-1.8311685,-7.7681966,-4.753175,10.342926,-14.041634,11.02282,-0.134537,-2.0043669,26.003592,-83.692665,23.32143,-60.58558,81.23621,22.10453,-5.2139153,71.55665,-79.6809,-25.417196,50.158432,74.71457,-17.335339,-3.8086588,-70.86044
77,-0.9918330907821655,-2.8982605934143066,40.27528762817383,3.094960192186555,67.93350255514623,-88.45345251652284,-4.267069,5.798042,-6.144114,9.376718,-24.505617,-1.4680309,-1.8241272,-7.766337,-4.75908,10.3443985,-14.05251,11.016373,-0.14240317,-2.0130215,25.9792,-83.66318,23.331144,-60.598076,81.21564,22.093489,-5.209007,71.57012,-79.65342,-25.3906,50.13348,74.70858,-17.36437,-3.7811823,-70.87684
78,-0.9992145299911499,-2.9057769775390625,40.26234817504883,3.1297428480582212,67.93521847999048,-88.41873850202181,-4.2604837,5.7995467,-6.148865,9.376072,-24.504623,-1.4758282,-1.8110497,-7.7650213,-4.768495,10.344534,-14.065693,11.011489,-0.15016294,-2.0148883,25.957615,-83.63387,23.336811,-60.613056,81.191444,22.07199,-5.2019205,71.58362,-79.62072,-25.376064,50.107292,74.69242,-17.39794,-3.748001,-70.89681
79,-1.0088038444519043,-2.910045623779297,40.252132415771484,3.166978421821698,67.93598546703359,-88.38102413232905,-4.252267,5.8009877,-6.1548533,9.374969,-24.504292,-1.4853085,-1.797067,-7.7640457,-4.77917,10.345784,-14.079956,11.007664,-0.15806474,-2.0204794,25.936583,-83.60601,23.343212,-60.63191,81.16836,22.049671,-5.1952553,71.59506,-79.58563,-25.36027,50.074955,74.674,-17.433693,-3.7136693,-70.9172
80,-1.0178649425506592,-2.9152257442474365,40.23879623413086,3.2033618331011913,67.93795995147455,-88.34426843927804,-4.2444477,5.8030634,-6.1603503,9.370832,-24.501617,-1.4958749,-1.7825481,-7.7626085,-4.7896075,10.342184,-14.090743,11.004457,-0.16597651,-2.0296185,25.914167,-83.578094,23.349031,-60.64195,81.15054,22.04174,-5.192384,71.604095,-79.549225,-25.345951,50.04735,74.65299,-17.461056,-3.6813433,-70.933716
81,-1.023428201675415,-2.920398235321045,40.22856140136719,3.238288334405384,67.94253233527701,-88.3086026961308,-4.2385225,5.806618,-6.165013,9.364205,-24.496412,-1.5092956,-1.7741301,-7.7605433,-4.7992616,10.344093,-14.102554,11.002036,-0.17451708,-2.0452995,25.888968,-83.548904,23.357388,-60.63586,81.1382,22.057688,-5.194734,71.608284,-79.515945,-25.324705,50.025734,74.63684,-17.479624,-3.6544259,-70.94606
82,-1.0343817472457886,-2.9262075424194336,40.21626281738281,3.273258034037674,67.94793909390121,-88.27236952125162,-4.2330694,5.811088,-6.1696243,9.355779,-24.489605,-1.5252286,-1.7662014,-7.7579904,-4.8093085,10.344773,-14.113147,11.000579,-0.17982382,-2.0572214,25.86549,-83.52469,23.359274,-60.622227,81.13221,22.081621,-5.2008257,71.60978,-79.481384,-25.31892,50.019318,74.61123,-17.481823,-3.6305215,-70.95403
83,-1.0451401472091675,-2.9319167137145996,40.20282745361328,3.3083838308412714,67.95329340867822,-88.23644668945464,-4.2278857,5.8150554,-6.174689,9.348666,-24.484173,-1.5400436,-1.7587237,-7.75599,-4.8188415,10.346604,-14.124292,10.999573,-0.18751423,-2.0684695,25.838144,-83.491295,23.362692,-60.591335,81.12405,22.123085,-5.2074394,71.61249,-79.443794,-25.307875,50.01329,74.58636,-17.486431,-3.6035774,-70.96057
84,-1.0560877323150635,-2.938324213027954,40.1888427734375,3.3436142116202654,67.95686734814609,-88.20186983262853,-4.222224,5.8170667,-6.180429,9.345605,-24.482388,-1.5500333,-1.750087,-7.7553616,-4.827525,10.350679,-14.1368685,10.998525,-0.19601198,-2.0779984,25.813133,-83.45988,23.366104,-60.570312,81.11596,22.155277,-5.213259,71.61838,-79.41166,-25.296799,50.01464,74.563446,-17.485174,-3.5712414,-70.96327
85,-1.0646615028381348,-2.945282459259033,40.17455291748047,3.380053778915678,67.95843534358276,-88.16851771644251,-4.21615,5.8156924,-6.1873503,9.348435,-24.485983,-1.5524869,-1.7411251,-7.7578907,-4.8350782,10.360162,-14.152138,10.998071,-0.20766985,-2.0877006,25.788784,-83.42706,23.37131,-60.566097,81.10724,22.174297,-5.2180777,71.629814,-79.381516,-25.281918,50.022648,74.542015,-17.481052,-3.5307622,-70.96323
86,-1.0731277465820312,-2.9508092403411865,40.160980224609375,3.41902548207354,67.9584744001973,-88.13409550500951,-4.210042,5.8118315,-6.196,9.355003,-24.492868,-1.5499396,-1.732116,-7.76252,-4.842654,10.373768,-14.169325,10.998214,-0.2172791,-2.0974429,25.76769,-83.397675,23.3742,-60.572784,81.099945,22.188538,-5.2235928,71.64415,-79.35434,-25.274206,50.031235,74.52108,-17.475655,-3.4878173,-70.958336
87,-1.0828369855880737,-2.956385612487793,40.146575927734375,3.455775834346061,67.95812030243428,-88.10234618360913,-4.2038674,5.80806,-6.204129,9.3633995,-24.501352,-1.5466931,-1.7220075,-7.7668304,-4.8489237,10.385757,-14.186686,10.997621,-0.2278274,-2.1086283,25.743406,-83.36488,23.37736,-60.58355,81.09198,22.197672,-5.2263403,71.66012,-79.320404,-25.266376,50.04055,74.49192,-17.465574,-3.4398344,-70.95322
88,-1.0902348756790161,-2.961634397506714,40.13416290283203,3.4858631774866833,67.95747847121162,-88.07655793757097,-4.196147,5.80678,-6.2101417,9.3706,-24.50881,-1.5469148,-1.709853,-7.768212,-4.852487,10.393078,-14.203399,10.995126,-0.2394174,-2.1231115,25.71866,-83.33183,23.384653,-60.588863,81.083115,22.208462,-5.2261777,71.67322,-79.285286,-25.250143,50.043438,74.46006,-17.456404,-3.3901563,-70.9482
89,-1.0992733240127563,-2.9678666591644287,40.12161636352539,3.5094246474743116,67.95619137271969,-88.05569811628992,-4.1871014,5.8088946,-6.2140193,9.377557,-24.51549,-1.5517577,-1.6947837,-7.765526,-4.85284,10.394555,-14.218962,10.989457,-0.24785042,-2.1359463,25.698265,-83.30618,23.38917,-60.577396,81.07677,22.227943,-5.2220345,71.6808,-79.25163,-25.239658,50.03534,74.42175,-17.4488,-3.3450463,-70.93971
90,-1.108275294303894,-2.97375750541687,40.106746673583984,3.5293085808044196,67.954683144754,-88.03783477667304,-4.1770406,5.8128223,-6.216741,9.383489,-24.521248,-1.558981,-1.6789066,-7.7607775,-4.850933,10.394127,-14.234943,10.981621,-0.2654351,-2.1486413,25.672607,-83.26544,23.40586,-60.53828,81.05965,22.266806,-5.212968,71.687355,-79.22221,-25.204235,50.016773,74.39741,-17.455767,-3.299138,-70.93306
91,-1.1192545890808105,-2.9776954650878906,40.09288024902344,3.543684596980224,67.95305169169512,-88.0257822254706,-4.1657968,5.818024,-6.2179766,9.388804,-24.527191,-1.5677431,-1.6608928,-7.7546854,-4.8480473,10.388722,-14.250165,10.973598,-0.27450243,-2.1614046,25.64994,-83.234314,23.41384,-60.506306,81.04813,22.298433,-5.2041693,71.693634,-79.18357,-25.187319,49.996414,74.351364,-17.455269,-3.2477942,-70.92271
92,-1.129660964012146,-2.9825708866119385,40.07782745361328,3.5534321880850563,67.9522980757039,-88.02016879350337,-4.1547484,5.8228903,-6.21782,9.39358,-24.533438,-1.5772399,-1.6430422,-7.7496543,-4.8457737,10.380631,-14.266082,10.967503,-0.2768046,-2.1762345,25.627478,-83.20574,23.419308,-60.482277,81.035545,22.323183,-5.1980443,71.702995,-79.14406,-25.175615,49.980793,74.29851,-17.44983,-3.1854763,-70.90918
93,-1.1394813060760498,-2.9874203205108643,40.06310272216797,3.5608346145474217,67.95209858311661,-88.01961984382521,-4.1423464,5.8256793,-6.2171474,9.395682,-24.539116,-1.5869486,-1.6236103,-7.7472305,-4.844006,10.3677025,-14.281718,10.962988,-0.27690715,-2.192726,25.602146,-83.169586,23.429585,-60.45651,81.0147,22.34723,-5.1965837,71.71615,-79.106094,-25.155968,49.97313,74.250275,-17.443142,-3.1100276,-70.893135
94,-1.1533831357955933,-2.992588758468628,40.04793930053711,3.5640744547863976,67.95189701686041,-88.02506404507098,-4.1288533,5.8277607,-6.215423,9.397049,-24.544872,-1.5974737,-1.6028292,-7.745818,-4.84178,10.351238,-14.297327,10.959289,-0.26752153,-2.2129633,25.580086,-83.14324,23.433521,-60.446247,80.999115,22.357729,-5.199057,71.730125,-79.06688,-25.148386,49.97468,74.19101,-17.422983,-3.0254793,-70.87222
95,-1.1651334762573242,-2.9973573684692383,40.03428649902344,3.561241738886004,67.95349527212979,-88.03664024583051,-4.117369,5.8317375,-6.211744,9.399334,-24.551908,-1.6092979,-1.5826945,-7.742913,-4.8411717,10.330617,-14.313092,10.957659,-0.25910294,-2.2296815,25.551609,-83.10435,23.441439,-60.42447,80.972336,22.376575,-5.198813,71.74969,-79.02076,-25.135557,49.96671,74.12672,-17.415983,-2.9314609,-70.85343
96,-1.1775708198547363,-3.00168776512146,40.02212142944336,3.547236389238497,67.9572860371632,-88.05750926669764,-4.110065,5.841364,-6.204672,9.40606,-24.56262,-1.6230532,-1.5639975,-7.7348995,-4.8432894,10.306101,-14.329564,10.959457,-0.24206352,-2.2382967,25.52893,-83.076164,23.444647,-60.407543,80.94168,22.391548,-5.193958,71.77285,-78.98367,-25.130217,49.941788,74.06305,-17.41851,-2.8378556,-70.83384
97,-1.190964937210083,-3.0059728622436523,40.009185791015625,3.524660331527644,67.96374103045224,-88.08577756309309,-4.1072135,5.8548098,-6.195282,9.415995,-24.574884,-1.63673,-1.5453504,-7.724312,-4.849395,10.272534,-14.3440075,10.968661,-0.22442119,-2.2528636,25.502674,-83.03895,23.457224,-60.373432,80.89643,22.431381,-5.1794224,71.79947,-78.9317,-25.112396,49.84105,73.99602,-17.482977,-2.7474465,-70.82266
98,-1.2063831090927124,-3.0098319053649902,39.996822357177734,3.494111094773419,67.97195576105533,-88.1214227515975,-4.1066756,5.871216,-6.184013,9.427174,-24.588017,-1.6506724,-1.5253226,-7.711293,-4.8585067,10.230578,-14.3568945,10.983285,-0.20225643,-2.2659452,25.48,-83.00644,23.47226,-60.347675,80.844376,22.464859,-5.160054,71.829636,-78.88831,-25.091875,49.72386,73.93606,-17.55613,-2.6578748,-70.81547
99,-1.2229983806610107,-3.0112884044647217,39.98524475097656,3.4511279148991925,67.9826708245278,-88.16734120014384,-4.111183,5.8945346,-6.1676974,9.444463,-24.60728,-1.6693226,-1.5104412,-7.691311,-4.8686776,10.191504,-14.373618,10.995996,-0.1755024,-2.2753534,25.455547,-82.97405,23.48777,-60.318687,80.78484,22.505432,-5.138367,71.86357,-78.840576,-25.07158,49.5791,73.86391,-17.653679,-2.5584486,-70.80156
100,-1.2409532070159912,-3.0130808353424072,39.97115707397461,3.390637804139308,67.99668877479326,-88.22704986798449,-4.1200876,5.9294763,-6.1435056,9.465617,-24.633507,-1.697223,-1.4994164,-7.6584415,-4.878664,10.151471,-14.391674,10.999072,-0.14382596,-2.2912197,25.427309,-82.94261,23.513165,-60.294975,80.7144,22.55652,-5.118175,71.899086,-78.783134,-25.041996,49.38301,73.768166,-17.79078,-2.4382923,-70.76958
101,-1.2615818977355957,-3.0137152671813965,39.9576530456543,3.3058063451717303,68.01558548894648,-88.30613219464419,-4.1343436,5.978768,-6.1086626,9.489606,-24.66657,-1.7395673,-1.4958447,-7.6081576,-4.881427,10.1126585,-14.408916,10.988987,-0.11006464,-2.3056808,25.393496,-82.90799,23.554798,-60.27703,80.63142,22.611645,-5.102103,71.936775,-78.72434,-24.998522,49.153526,73.657104,-17.955673,-2.2900677,-70.710815
102,-1.2884559631347656,-3.0139729976654053,39.94447708129883,3.200933503323024,68.03870183239184,-88.40141784312098,-4.153686,6.039569,-6.0651517,9.516692,-24.7054,-1.7927651,-1.4997305,-7.5446754,-4.8797903,10.077701,-14.42828,10.970486,-0.069110945,-2.3065104,25.355537,-82.87395,23.589304,-60.246822,80.547844,22.6798,-5.0886226,71.97961,-78.660324,-24.964464,48.909286,73.52418,-18.137466,-2.1202657,-70.631485
103,-1.3192999362945557,-3.0120131969451904,39.93061828613281,3.0880056971581573,68.06207625307226,-88.50280147131578,-4.178227,6.1072087,-6.017919,9.555542,-24.755335,-1.8475761,-1.5044701,-7.4750032,-4.8871636,10.043747,-14.455028,10.947724,-0.027764203,-2.321642,25.317593,-82.836296,23.649303,-60.22613,80.43272,22.753872,-5.0707006,72.022194,-78.590324,-24.912224,48.607998,73.371994,-18.36358,-1.9416374,-70.547516
104,-1.353633165359497,-3.008424758911133,39.9166259765625,2.978786669618552,68.08228051649442,-88.60006333592109,-4.2077894,6.177478,-5.97185,9.611936,-24.819157,-1.8951283,-1.5020331,-7.406218,-4.9176807,10.0055895,-14.4932165,10.925291,0.011201244,-2.3361578,25.282795,-82.78728,23.72864,-60.181858,80.27049,22.849339,-5.043465,72.067474,-78.51808,-24.85477,48.27996,73.19499,-18.622816,-1.7644659,-70.4728
105,-1.3910632133483887,-3.0031890869140625,39.90355682373047,2.883733606707327,68.0962464656242,-88.68194501471405,-4.2456903,6.248256,-5.932904,9.696213,-24.900572,-1.9277794,-1.4889493,-7.341858,-4.9833055,9.964738,-14.544968,10.907894,0.049192853,-2.3500037,25.255112,-82.73221,23.81833,-60.121788,80.063934,22.961178,-5.0065246,72.11335,-78.43084,-24.804684,47.890583,72.965385,-18.943907,-1.5879315,-70.40244
106,-1.4277846813201904,-2.9948980808258057,39.889705657958984,2.7942792228840196,68.10682330051525,-88.75648769893557,-4.2907844,6.3226786,-5.896854,9.800767,-24.995546,-1.9522235,-1.4689821,-7.2774715,-5.0737767,9.920786,-14.606499,10.892038,0.08782693,-2.3666098,25.232412,-82.67006,23.927431,-60.055325,79.80954,23.084188,-4.9593945,72.158226,-78.33074,-24.760101,47.44506,72.68835,-19.3171,-1.4061289,-70.32998
107,-1.4762024879455566,-2.985356330871582,39.872520446777344,2.6935956590549637,68.11822219352815,-88.84304788019622,-4.3373356,6.4026184,-5.853663,9.9118,-25.101889,-1.9801736,-1.4506174,-7.2086186,-5.1693625,9.878476,-14.680893,10.869829,0.13312091,-2.3891635,25.208984,-82.602,24.051771,-59.968224,79.52266,23.23433,-4.907125,72.208336,-78.21998,-24.722738,46.993675,72.389435,-19.693165,-1.22691,-70.26961
108,-1.5325950384140015,-2.973543643951416,39.852325439453125,2.565208551585744,68.13464571295617,-88.96070807160531,-4.378625,6.490356,-5.7928424,10.01214,-25.214874,-2.0233777,-1.4339167,-7.129991,-5.250905,9.82587,-14.762318,10.83326,0.19162998,-2.4222655,25.17955,-82.53004,24.190022,-59.855717,79.20599,23.41937,-4.8455358,72.26604,-78.106636,-24.688377,46.587685,72.09782,-20.020878,-1.0533781,-70.2332
109,-1.5907654762268066,-2.958609104156494,39.8253288269043,2.4008190933198383,68.160236089038,-89.11848545656488,-4.4137664,6.586766,-5.705566,10.093211,-25.332561,-2.0874958,-1.4275317,-7.0398126,-5.3105593,9.769409,-14.852292,10.786147,0.26409265,-2.4640641,25.139454,-82.45303,24.341433,-59.71223,78.86857,23.646664,-4.779276,72.33855,-77.99388,-24.653055,46.24044,71.81787,-20.290186,-0.8811306,-70.2295
110,-1.6515108346939087,-2.943469285964966,39.79722213745117,2.210476124017825,68.1915702013677,-89.30514147989747,-4.4460683,6.6906514,-5.5992527,10.165468,-25.457329,-2.1654723,-1.4255515,-6.9410024,-5.3596206,9.706373,-14.949856,10.730807,0.34625158,-2.5124238,25.09225,-82.37041,24.50627,-59.54397,78.505646,23.90741,-4.706771,72.42172,-77.88195,-24.613863,45.92702,71.542114,-20.526329,-0.70938224,-70.250595
111,-1.7221934795379639,-2.924546003341675,39.766357421875,2.005098130126328,68.22187104452823,-89.50939360166085,-4.477687,6.8010173,-5.488179,10.244929,-25.593124,-2.2502053,-1.4247833,-6.8371224,-5.405923,9.648648,-15.065771,10.657339,0.43675333,-2.5725358,25.043175,-82.27982,24.686249,-59.34981,78.1032,24.199566,-4.6189246,72.50383,-77.76913,-24.568684,45.639412,71.280975,-20.734196,-0.54856867,-70.28597
112,-1.8015332221984863,-2.902604579925537,39.73457717895508,1.7953528002499823,68.24463355888331,-89.71976627507934,-4.5120163,6.916895,-5.3865147,10.349641,-25.745363,-2.3345375,-1.420597,-6.7309694,-5.457636,9.606566,-15.211224,10.555529,0.5331476,-2.6483545,24.997656,-82.17943,24.884005,-59.1324,77.64655,24.516443,-4.505961,72.572525,-77.65471,-24.51543,45.37203,71.04439,-20.918713,-0.40929365,-70.325005
113,-1.8801318407058716,-2.8796255588531494,39.6977424621582,1.5841021137743143,68.25944615997989,-89.93492660407236,-4.552134,7.0354977,-5.2915006,10.488312,-25.919598,-2.4125404,-1.4148859,-6.627281,-5.5130033,9.585512,-15.394418,10.42432,0.6350357,-2.7376163,24.954601,-82.06713,25.10252,-58.906456,77.130615,24.842484,-4.367167,72.62858,-77.536125,-24.451595,45.120655,70.84013,-21.0865,-0.296663,-70.36791
114,-1.9760992527008057,-2.85543155670166,39.65446090698242,1.3659362831966173,68.26919606051781,-90.16016579446502,-4.59533,7.1584716,-5.1973143,10.649064,-26.110508,-2.4884465,-1.4086984,-6.5231304,-5.569033,9.579367,-15.608437,10.268553,0.7429955,-2.839448,24.911442,-81.94072,25.34377,-58.66327,76.55907,25.188152,-4.2070656,72.6771,-77.41558,-24.375578,44.889507,70.66414,-21.233551,-0.20442855,-70.42
115,-2.0794625282287598,-2.820834159851074,39.61505889892578,1.1391864697590202,68.27272378953248,-90.39378364354071,-4.6358128,7.29193,-5.1147685,10.820774,-26.310587,-2.5741477,-1.3994746,-6.4105906,-5.6305203,9.583659,-15.84064,10.087555,0.8526746,-2.958273,24.871344,-81.8026,25.608362,-58.377754,75.93413,25.575497,-4.0233955,72.71057,-77.29881,-24.287643,44.688435,70.505806,-21.34896,-0.12590227,-70.47833
116,-2.1795966625213623,-2.789273977279663,39.56956100463867,0.9032158278099808,68.26868775194289,-90.63375895395762,-4.6673975,7.440292,-5.053893,10.990858,-26.510036,-2.678171,-1.3860718,-6.2825675,-5.702359,9.597517,-16.081078,9.880634,0.9628993,-3.0996113,24.837675,-81.65245,25.896473,-58.019245,75.25538,26.033947,-3.8144567,72.722145,-77.19108,-24.189043,44.52358,70.35584,-21.42227,-0.054512285,-70.53962
117,-2.3024861812591553,-2.7551181316375732,39.52090072631836,0.651108902952721,68.25592798926925,-90.88474052684448,-4.6901536,7.6092873,-5.015556,11.161672,-26.713516,-2.8068972,-1.3696911,-6.1335473,-5.784018,9.6261635,-16.333338,9.633302,1.0745647,-3.2656326,24.808792,-81.48376,26.20704,-57.555584,74.52445,26.60035,-3.5739937,72.71237,-77.088936,-24.083572,44.42228,70.20495,-21.428696,0.015747083,-70.60103
118,-2.435161828994751,-2.723536968231201,39.4671516418457,0.3859546551986805,68.23537412117497,-91.14565067749777,-4.706369,7.7947154,-4.994223,11.337285,-26.923384,-2.954053,-1.3496747,-5.96848,-5.87321,9.666755,-16.600756,9.351011,1.1888194,-3.4518247,24.78389,-81.29831,26.540422,-57.011944,73.73828,27.248524,-3.3038979,72.682205,-76.992,-23.971867,44.37529,70.06075,-21.38071,0.07993841,-70.6645
119,-2.5711803436279297,-2.6874353885650635,39.41972351074219,0.12119272151234567,68.20865608784212,-91.40595474624469,-4.7144127,7.987258,-4.992014,11.509614,-27.128372,-3.110946,-1.3221909,-5.7958775,-5.972337,9.710487,-16.874891,9.063446,1.3024973,-3.653349,24.766193,-81.10359,26.900297,-56.439213,72.8958,27.916908,-3.0192876,72.62894,-76.89853,-23.850935,44.328186,69.928795,-21.32314,0.1282211,-70.73604
120,-2.715749502182007,-2.650845527648926,39.36988067626953,-0.12998957278442527,68.17752632194289,-91.65527251636759,-4.71298,8.177776,-5.0108094,11.671389,-27.317423,-3.2686496,-1.28527,-5.623924,-6.0834064,9.752031,-17.14927,8.800054,1.4116426,-3.866143,24.758696,-80.906136,27.29265,-55.892178,71.98667,28.54067,-2.7292566,72.547386,-76.8098,-23.715572,44.22847,69.81772,-21.301956,0.15067245,-70.82135
121,-2.869647979736328,-2.6160435676574707,39.314369201660156,-0.3811707783842878,68.13622540363991,-91.90367089986158,-4.690068,8.374267,-5.060019,11.813587,-27.492512,-3.4371803,-1.2289299,-5.445845,-6.2090592,9.786265,-17.426655,8.564832,1.5207002,-4.0881476,24.765793,-80.707596,27.72343,-55.39467,71.00381,29.116816,-2.4319134,72.45249,-76.72446,-23.559649,44.049877,69.73168,-21.333433,0.14097664,-70.92163
122,-3.02239727973938,-2.582857608795166,39.25878143310547,-0.6332277324197841,68.08579914450918,-92.15197859963143,-4.6507816,8.577266,-5.135788,11.943985,-27.659105,-3.6160936,-1.1580135,-5.2606344,-6.347007,9.819712,-17.71074,8.34369,1.6268213,-4.3226705,24.784075,-80.50068,28.194504,-54.919716,69.951485,29.670969,-2.1248524,72.34122,-76.64859,-23.380737,43.82761,69.672005,-21.393303,0.105420366,-71.033875
123,-3.1813807487487793,-2.548304319381714,39.20588684082031,-0.8554897011000218,68.03866735218446,-92.37696400461635,-4.6169353,8.7694,-5.219169,12.075569,-27.808765,-3.7851775,-1.0895566,-5.084839,-6.493489,9.855157,-17.989237,8.138456,1.7207767,-4.572766,24.803072,-80.26139,28.707394,-54.424747,68.81834,30.201633,-1.8139963,72.18252,-76.58759,-23.18067,43.59203,69.64119,-21.465563,0.053419605,-71.15859
124,-3.342043876647949,-2.5141923427581787,39.153377532958984,-1.017804516510993,68.0077394359105,-92.55620179385168,-4.6117945,8.932745,-5.2920876,12.222549,-27.933743,-3.9238098,-1.0405984,-4.934501,-6.6450667,9.893281,-18.248356,7.950378,1.7764553,-4.8371882,24.820131,-80.020294,29.255611,-53.920757,67.63635,30.6429,-1.5070832,71.93927,-76.55877,-22.96075,43.388542,69.633804,-21.53202,-0.005258904,-71.29352
125,-3.5017170906066895,-2.483447313308716,39.10291290283203,-1.0973831837867019,67.99490501614292,-92.67485411930949,-4.6397142,9.056345,-5.3643126,12.3873205,-28.03276,-4.0215926,-1.0200576,-4.8204556,-6.8088536,9.947536,-18.497482,7.7731175,1.8050234,-5.1334276,24.825047,-79.73107,29.843134,-53.38807,66.388695,31.063135,-1.1730584,71.61269,-76.5531,-22.727661,43.2362,69.65446,-21.567709,-0.06728216,-71.44561
126,-3.6665194034576416,-2.4558684825897217,39.058441162109375,-1.115759993062991,67.99429896493896,-92.74854083894338,-4.6897388,9.151656,-5.4415226,12.563449,-28.109732,-4.0909476,-1.0184665,-4.7318106,-6.984226,10.013578,-18.739471,7.60757,1.8003093,-5.451384,24.828306,-79.43749,30.468267,-52.87045,65.094185,31.415798,-0.8187373,71.2125,-76.57553,-22.480864,43.123318,69.695625,-21.586426,-0.13751507,-71.611
127,-3.834446430206299,-2.428941011428833,39.01811218261719,-1.109184839565701,68.00609572111732,-92.80005730782275,-4.761157,9.235604,-5.498841,12.751361,-28.164015,-4.144936,-1.0297068,-4.6522193,-7.156828,10.075529,-18.954628,7.4655714,1.7681963,-5.765974,24.834396,-79.150505,31.120754,-52.303223,63.73482,31.668064,-0.5131468,70.741234,-76.62111,-22.216375,42.99303,69.755516,-21.637022,-0.2202789,-71.77982
128,-3.97809100151062,-2.4091622829437256,38.986427307128906,-1.1138481138448062,68.02996265477944,-92.85202532183258,-4.855312,9.324993,-5.5122337,12.95622,-28.195202,-4.1962266,-1.0408542,-4.564506,-7.3124166,10.103196,-19.115574,7.35902,1.7421079,-6.0591774,24.833128,-78.752304,31.794668,-51.48509,62.208458,31.934135,-0.32547727,70.2179,-76.66189,-21.9356,42.767147,69.8412,-21.77034,-0.32085836,-71.94656
129,-4.123733043670654,-2.391857862472534,38.960750579833984,-1.0518689349401795,68.07233676202456,-92.82472709122965,-4.9884396,9.408573,-5.4857173,13.179044,-28.200092,-4.242991,-1.0637652,-4.481349,-7.4813194,10.118759,-19.239931,7.260244,1.6781056,-6.325822,24.831451,-78.273705,32.477318,-50.478065,60.611996,32.01957,-0.33232787,69.59033,-76.71475,-21.632011,42.423016,69.95682,-22.02223,-0.4533128,-72.117035
130,-4.276309967041016,-2.377570152282715,38.94442367553711,-0.9321558717369129,68.13101026942816,-92.73400525329133,-5.157674,9.482342,-5.430121,13.423112,-28.180794,-4.278121,-1.0983803,-4.4063296,-7.6601405,10.123483,-19.331152,7.172843,1.586325,-6.5798087,24.824839,-77.715,33.1612,-49.30161,58.943497,31.986782,-0.47546348,68.87564,-76.78112,-21.304758,41.993507,70.106026,-22.359766,-0.61070615,-72.294716
131,-4.408059597015381,-2.377089023590088,38.930294036865234,-0.922603797123909,68.1940488901437,-92.7472744599253,-5.3219533,9.575704,-5.3281107,13.669019,-28.14141,-4.30757,-1.1331118,-4.3099537,-7.7831206,10.092647,-19.359922,7.1556573,1.5158861,-6.8083344,24.82152,-77.199066,33.843796,-47.996166,57.137142,31.997238,-0.62179404,68.16075,-76.87027,-20.954628,41.544785,70.27635,-22.722355,-0.7635345,-72.459656
132,-4.525659084320068,-2.3853726387023926,38.92603302001953,-1.193451808058589,68.24928439211286,-93.03396762511213,-5.440343,9.7180605,-5.161654,13.896246,-28.085325,-4.3390136,-1.1584797,-4.1626387,-7.7844906,10.0069065,-19.300503,7.267859,1.5200701,-6.9986205,24.82678,-76.82209,34.528793,-46.580635,55.105476,32.24383,-0.6414219,67.53576,-76.98616,-20.585857,41.143475,70.45673,-23.0487,-0.88335925,-72.59148
133,-4.633944034576416,-2.4052441120147705,38.92743682861328,-1.7884392336842465,68.28901262912811,-93.62980985472076,-5.4953055,9.926724,-4.910141,14.0958605,-28.020166,-4.374559,-1.1540687,-3.940538,-7.631082,9.827357,-19.127686,7.516944,1.6173159,-7.141385,24.84057,-76.56633,35.219254,-44.982212,52.728764,32.935566,-0.4356974,67.12889,-77.1219,-20.202888,40.783104,70.648254,-23.3277,-0.9703806,-72.674995
134,-4.732243537902832,-2.4369168281555176,38.939720153808594,-2.6187684784404883,68.3173599797698,-94.44939121866894,-5.50964,10.182047,-4.5875697,14.279519,-27.941933,-4.410786,-1.1299902,-3.6655352,-7.3624277,9.574497,-18.863174,7.8751793,1.7829617,-7.242488,24.85848,-76.3786,35.919983,-43.214897,50.072426,33.93122,-0.09557295,66.85507,-77.27452,-19.80802,40.434853,70.85805,-23.58888,-1.0393137,-72.72483
135,-4.814595699310303,-2.4772088527679443,38.9673957824707,-3.6568902862066537,68.33789392488994,-95.4811265508627,-5.501401,10.459168,-4.2283015,14.457076,-27.83745,-4.448437,-1.1193216,-3.3757508,-7.022542,9.313476,-18.551321,8.349102,1.999445,-7.3101673,24.88642,-76.41716,36.647522,-41.540375,47.39888,34.792145,0.21797727,66.48343,-77.456985,-19.402525,40.13338,71.07381,-23.833427,-1.0775247,-72.76247
136,-4.88795280456543,-2.5299878120422363,39.00615692138672,-4.8761787403605465,68.35381757843766,-96.71338917768335,-5.490333,10.734093,-3.8674428,14.641177,-27.695585,-4.4878306,-1.1562421,-3.1059976,-6.6569595,9.113727,-18.238949,8.944711,2.246716,-7.362232,24.931442,-76.738785,37.409912,-40.102795,44.900467,35.19298,0.34387827,65.79394,-77.67131,-18.98638,39.900436,71.27289,-24.063774,-1.0769228,-72.81031
137,-4.9451704025268555,-2.590430974960327,39.061798095703125,-6.333462299779372,68.35651112133016,-98.2138502231629,-5.4644527,11.003922,-3.4932907,14.822915,-27.510384,-4.5364385,-1.2488095,-2.8288102,-6.123778,8.94964,-17.958206,9.699502,2.5228572,-7.4113584,25.00104,-77.29067,38.19947,-38.806435,42.443726,34.872913,0.15465128,64.49395,-77.90211,-18.556404,39.729984,71.39349,-24.30488,-1.0122286,-72.87033
138,-4.9863152503967285,-2.653292179107666,39.134193420410156,-8.0201332300719,68.33597588813545,-99.96149097492841,-5.419751,11.281975,-3.0951262,15.002725,-27.290565,-4.5917225,-1.3771294,-2.5326798,-5.453539,8.801022,-17.684479,10.5974865,2.8462634,-7.4413505,25.089628,-78.18321,39.03043,-37.742558,40.048405,33.948597,-0.21350297,62.777462,-78.14731,-18.114153,39.60691,71.47198,-24.547352,-0.8959863,-72.93415
139,-5.016724586486816,-2.734027624130249,39.21381378173828,-9.813956862736298,68.29706069061946,-101.81335311927312,-5.3860397,11.571105,-2.709225,15.2034235,-27.044622,-4.6395235,-1.5463979,-2.2730427,-4.949268,8.759868,-17.379877,11.562133,3.1812842,-7.451669,25.198133,-79.398094,39.8967,-36.96977,37.947693,33.01329,-0.5382718,61.15851,-78.433495,-17.660217,39.54698,71.58107,-24.743568,-0.77593124,-72.99787
140,-5.041964530944824,-2.822098970413208,39.310447692871094,-11.596738548998214,68.25101248019011,-103.63040023869166,-5.3929253,11.874676,-2.3719814,15.445289,-26.779919,-4.666257,-1.7613776,-2.1067529,-4.9094067,8.906456,-16.995352,12.520635,3.4993496,-7.435772,25.32522,-80.98475,40.78387,-36.614193,36.421867,32.610783,-0.64163303,60.16173,-78.79035,-17.194902,39.566395,71.80433,-24.845793,-0.6996781,-73.060036
141,-5.0743184089660645,-2.9226126670837402,39.41572952270508,-13.330503188282096,68.20017860763689,-105.38242614212346,-5.448232,12.180245,-2.0997376,15.738024,-26.484352,-4.672959,-1.9882835,-2.0467918,-5.4188643,9.173955,-16.38716,13.570177,3.800512,-7.4031825,25.479656,-83.005554,41.66185,-36.776985,35.579044,33.112583,-0.41930678,60.136745,-79.24574,-16.716562,39.701454,72.199234,-24.802216,-0.682399,-73.12866
142,-5.08714485168457,-3.0317251682281494,39.5307502746582,-15.084851085497126,68.13860427641902,-107.14127943797627,-5.536324,12.495923,-1.8715148,16.067556,-26.15731,-4.6677995,-2.2410512,-2.0559764,-6.3075533,9.553294,-15.617937,14.703139,4.0966706,-7.348062,25.658451,-85.4148,42.498997,-37.35979,35.249336,34.1772,0.01241547,60.73475,-79.7758,-16.223057,39.93171,72.70917,-24.652838,-0.69827867,-73.201225
143,-5.098519802093506,-3.149099349975586,39.64963150024414,-17.139510158486484,68.07321655187849,-109.08147308152833,-5.7341533,12.99279,-1.655074,16.567656,-25.907663,-4.6883326,-2.475987,-1.8756802,-7.362883,9.850131,-14.745715,15.000033,4.44109,-7.1579127,25.811995,-88.21124,43.298317,-38.30004,35.3618,35.1775,0.46393567,61.441986,-80.33951,-15.71776,40.19255,73.26543,-24.48681,-0.7326256,-73.26157
144,-5.106506824493408,-3.2791554927825928,39.772037506103516,-19.241178187497287,68.00136131013055,-111.03187792296426,-5.923828,13.515053,-1.4425807,17.012365,-25.642214,-4.676543,-2.9048905,-1.8116758,-8.692796,10.630179,-14.261324,15.000033,4.7486496,-6.922491,25.954489,-91.24076,44.067837,-39.38582,35.753326,35.62916,0.7254347,61.756626,-80.889656,-15.205126,40.423786,73.76381,-24.3935,-0.7710313,-73.29115
145,-5.072443962097168,-3.4255306720733643,39.89570617675781,-21.30194382240236,67.93109004449086,-112.91931934326796,-6.1029444,14.022828,-1.2621341,17.379093,-25.34736,-4.6032567,-3.537094,-2.0240164,-10.509219,12.007155,-14.351707,15.000033,4.9897285,-6.656257,26.09043,-94.53087,44.821392,-40.583866,36.37978,35.416275,0.7126308,61.64296,-81.42766,-14.689742,40.625015,74.197235,-24.38589,-0.8115049,-73.26887
146,-5.0261430740356445,-3.591526746749878,40.015869140625,-23.32628463797342,67.85783580366359,-114.76238553155447,-6.274017,14.507406,-1.1091208,17.687077,-25.019321,-4.479373,-4.2763042,-2.486193,-12.745558,13.79364,-14.796849,15.000033,5.173635,-6.3646374,26.229076,-98.06691,45.558083,-41.93445,37.247665,34.822548,0.54817104,61.333164,-81.975235,-14.169837,40.837276,74.60546,-24.41807,-0.8608095,-73.20616
147,-4.965451717376709,-3.7800164222717285,40.13470458984375,-25.507877242624314,67.7625959816748,-116.68233345038558,-6.4519563,15.084499,-0.94143414,18.003437,-24.708023,-4.3587594,-5.5160036,-3.085957,-15.001925,16.764725,-15.812271,15.000033,5.3406935,-5.9560785,26.354343,-101.750145,46.28186,-43.45007,38.344784,33.871273,0.32263887,60.73175,-82.51579,-13.642167,41.063923,74.97235,-24.489744,-0.9171528,-73.13908
148,-4.900444507598877,-3.9832096099853516,40.2513427734375,-27.995249806582375,67.62247902401286,-118.83390546410556,-6.6261687,15.784898,-0.6771211,18.33727,-24.43311,-4.2766542,-7.3468394,-3.7284575,-16.874853,20.964808,-17.218176,15.000033,5.540609,-5.4244337,26.446209,-105.43731,46.9953,-45.095623,39.63833,32.636253,0.12999566,59.741154,-83.03749,-13.0985565,41.300144,75.280045,-24.600777,-0.97913754,-73.099915
149,-4.810788631439209,-4.1867289543151855,40.36536407470703,-30.790351128738816,67.42325453299026,-121.30575762633964,-6.765926,16.524857,-0.2408297,18.629482,-24.167578,-4.2180476,-9.1188755,-4.21233,-18.250614,24.822676,-18.085089,15.000033,5.800253,-4.851403,26.488663,-109.16972,47.704205,-46.87805,41.09511,31.045841,0.10884489,58.222694,-83.55076,-12.529717,41.571484,75.5336,-24.732174,-1.050324,-73.09913
150,-4.697271347045898,-4.409291744232178,40.46888732910156,-33.81008649070734,67.16015915353192,-123.99440785442847,-6.88535,17.30782,0.31724378,18.891191,-23.908922,-4.163297,-10.9589815,-4.626808,-19.367899,28.680155,-18.71697,15.000033,6.091659,-4.220593,26.487022,-112.98627,48.40946,-48.800446,42.71299,29.09414,0.22139649,56.267975,-84.06375,-11.929834,41.876244,75.75236,-24.89083,-1.1302675,-73.11899
151,-4.557648658752441,-4.647780418395996,40.554901123046875,-36.923937839238285,66.82133365695148,-126.75712638598758,-6.978148,18.127157,0.95044166,19.142666,-23.665737,-4.112563,-12.82113,-5.0447454,-20.404676,32.5368,-19.218067,15.000033,6.394309,-3.5268333,26.464153,-116.757286,49.10405,-50.826633,44.518837,26.947685,0.28869358,54.110012,-84.56764,-11.292651,42.155872,75.94989,-25.112925,-1.2113465,-73.14705
152,-4.403429985046387,-4.897523880004883,40.631370544433594,-39.98807445931388,66.40447470423646,-129.44583362304007,-7.029241,18.96651,1.6141713,19.390944,-23.43836,-4.0653405,-14.6356325,-5.563261,-21.51543,36.37727,-19.678461,15.000033,6.689735,-2.7701879,26.444714,-120.38728,49.78039,-52.95028,46.564552,24.727196,0.10794955,51.962925,-85.05545,-10.614169,42.35434,76.14745,-25.434175,-1.2863361,-73.17155
153,-4.232417583465576,-5.157749652862549,40.69065856933594,-43.013933591025186,65.89834413432885,-132.0528963346446,-7.025361,19.852152,2.3244357,19.635899,-23.232944,-4.035995,-16.398504,-6.1708527,-22.699991,40.24368,-20.101719,15.000033,6.99285,-1.923803,26.429249,-123.90998,50.435642,-55.167107,48.91797,22.343218,-0.40938127,49.88555,-85.52163,-9.888293,42.404488,76.34899,-25.89951,-1.3540672,-73.18421
154,-4.0337114334106445,-5.42655611038208,40.734596252441406,-46.04132918632127,65.3021653634608,-134.61131919286834,-6.9769115,20.797184,3.0953672,19.881096,-23.049839,-4.0210958,-18.15336,-6.825058,-23.899546,44.169804,-20.462984,15.000033,7.314254,-0.9793584,26.398113,-127.37769,51.067528,-57.48889,51.536526,19.733978,-1.1121306,47.736256,-85.97298,-9.113224,42.35249,76.5581,-26.47939,-1.4184452,-73.19615
155,-3.8330814838409424,-5.703317165374756,40.773860931396484,-48.95671122791952,64.64251793457187,-137.04143531250952,-6.896358,21.743778,3.8828654,20.127268,-22.8742,-3.9933596,-19.880312,-7.60529,-25.13872,48.117332,-20.796501,15.000033,7.6249037,0.010664285,26.355778,-130.69656,51.66736,-59.885723,54.31271,17.091303,-1.870391,45.423676,-86.415306,-8.29606,42.300484,76.782974,-27.097363,-1.4791687,-73.22384
156,-3.606767177581787,-5.990969181060791,40.794673919677734,-51.66573050671521,63.953547495045214,-139.27471977561763,-6.800383,22.640076,4.634721,20.38067,-22.695585,-3.9262269,-21.552608,-8.581841,-26.424644,52.051384,-21.144741,15.000033,7.9143214,1.0246656,26.298756,-133.89734,52.23748,-62.548172,57.185604,14.406512,-2.5608635,42.867954,-86.8434,-7.4588137,42.358803,77.0462,-27.675186,-1.5348368,-73.28454
157,-3.3666982650756836,-6.298943519592285,40.79494094848633,-54.113669172548065,63.2465151041623,-141.27301380583097,-6.670726,23.452875,5.3444924,20.626202,-22.509693,-3.8109598,-23.12773,-9.873813,-27.805447,56.054966,-21.556602,15.000033,8.126117,1.9892297,26.27521,-136.69382,52.74784,-64.93471,60.185684,12.20416,-3.2226558,40.049923,-87.26571,-6.60483,42.548717,77.28362,-28.184292,-1.5857835,-73.377785
158,-3.110450267791748,-6.606572151184082,40.77210235595703,-56.357023264215854,62.51667914775692,-143.070841699173,-6.5046263,24.213516,6.029159,20.873043,-22.324627,-3.6626775,-24.605574,-11.407342,-29.212711,60.123707,-22.003778,15.000033,8.327046,2.990383,26.248322,-139.32565,53.215126,-67.383995,63.39177,10.030967,-3.8738623,37.018837,-87.65369,-5.7545276,42.82882,77.5419,-28.666988,-1.6305871,-73.498856
159,-2.8279869556427,-6.922677040100098,40.727657318115234,-58.47137996374462,61.77249256641695,-144.72922061657817,-6.3335648,24.955885,6.6825194,21.143845,-22.14942,-3.4919767,-26.049185,-12.966548,-30.487274,64.099365,-22.409275,15.000033,8.53488,4.031751,26.179016,-141.75467,53.645767,-69.89802,66.58723,7.8865843,-4.396534,33.823006,-87.96038,-4.9165545,43.13352,77.78603,-29.15421,-1.6711801,-73.6369
160,-2.551771402359009,-7.240950107574463,40.66929244995117,-60.54589758894337,61.014565399970174,-146.32825990774595,-6.1935472,25.717566,7.307222,21.460485,-21.988596,-3.3114002,-27.556519,-14.333457,-31.505888,67.83049,-22.691763,15.000033,8.763425,5.103428,26.037628,-143.87006,54.041412,-72.30591,69.5567,5.9495363,-4.6954365,30.51113,-88.15916,-4.090305,43.39948,77.97901,-29.676449,-1.7093656,-73.78105
161,-2.2769651412963867,-7.570334434509277,40.593196868896484,-62.61133401020146,60.24869719910281,-147.8979208235144,-6.10863,26.509914,7.8904123,21.825113,-21.835215,-3.1301477,-29.19538,-15.461797,-32.249958,71.32697,-22.838308,15.000033,9.012272,6.2132382,25.817953,-145.67496,54.40863,-74.75524,72.405914,4.3142877,-4.7742505,26.862001,-88.2663,-3.277979,43.663113,78.134514,-30.20118,-1.7641224,-73.9365
162,-1.986152172088623,-7.907016754150391,40.50058364868164,-64.63669383777474,59.46809625648748,-149.41827779947286,-6.0540543,27.314445,8.445135,22.221024,-21.684324,-2.9431849,-30.939054,-16.455008,-32.808712,74.673935,-22.897198,15.000033,9.279019,7.3465905,25.538507,-147.23708,54.747013,-77.26738,75.23425,2.9181712,-4.6982603,22.928534,-88.29105,-2.4812238,43.939907,78.25099,-30.725574,-1.8282082,-74.10469
163,-1.6897525787353516,-8.246553421020508,40.3950080871582,-66.61645776266758,58.64938987273565,-150.8984640478846,-6.0011783,28.124485,9.016157,22.654432,-21.551216,-2.7423084,-32.760185,-17.32198,-33.24399,77.82998,-22.874949,15.000033,9.589896,8.469853,25.206491,-148.57219,55.052624,-79.58242,77.83107,1.6207162,-4.48895,19.166553,-88.21273,-1.7002492,44.134502,78.28679,-31.323605,-1.8624783,-74.27369
164,-1.3974286317825317,-8.597228050231934,40.27120590209961,-68.53684415217951,57.77061166439031,-152.3388174929205,-5.9106717,28.93117,9.652072,23.113934,-21.442232,-2.518223,-34.62538,-18.075834,-33.614895,80.75339,-22.780256,15.000033,9.9691305,9.549215,24.836723,-149.67096,55.327152,-81.424706,79.97562,0.2901526,-4.1768537,16.027527,-88.02126,-0.9392065,44.154503,78.20154,-32.069183,-1.8270555,-74.43155
165,-1.1050528287887573,-8.949434280395508,40.12751770019531,-70.403644518861,56.81426209643489,-153.74210448167122,-5.779889,29.747425,10.354071,23.622824,-21.368025,-2.2532382,-36.550106,-18.689238,-33.921482,83.4321,-22.601961,15.000033,10.422696,10.572645,24.450596,-150.53264,55.580574,-82.738785,81.62734,-1.2276336,-3.7336211,13.511356,-87.726166,-0.20236382,43.94036,77.95653,-32.999588,-1.701758,-74.56389
166,-0.8237749338150024,-9.308608055114746,39.960731506347656,-72.21097972812652,55.79365704101226,-155.1028257905105,-5.620885,30.569948,11.106629,24.17142,-21.31868,-1.9572335,-38.55426,-19.173399,-34.164593,85.90601,-22.352184,15.000033,10.932546,11.539844,24.058111,-151.18524,55.824333,-83.70547,82.909096,-2.8088133,-3.1852717,11.389469,-87.35175,0.50476503,43.549656,77.5613,-34.069088,-1.5085254,-74.67687
167,-0.5401291847229004,-9.67351245880127,39.768375396728516,-73.92748904482293,54.73601876866275,-156.40755456911558,-5.423561,31.365524,11.927877,24.717999,-21.28089,-1.6655941,-40.60573,-19.599693,-34.390617,88.20286,-22.07562,15.000033,11.482643,12.430865,23.660717,-151.65674,56.067696,-84.40702,83.82718,-4.177284,-2.6633012,9.762322,-86.9103,1.173979,43.06266,77.04565,-35.226143,-1.2743001,-74.79116
168,-0.24928048253059387,-10.046671867370605,39.54740905761719,-75.52795037938755,53.671574788698415,-157.64873042985127,-5.1807394,32.098743,12.833075,25.224743,-21.24321,-1.4129897,-42.67588,-20.038977,-34.630646,90.35412,-21.809944,15.000033,12.059527,13.230626,23.25749,-151.96684,56.319405,-84.90879,84.38242,-5.059218,-2.315785,8.727775,-86.402855,1.7930098,42.56164,76.429665,-36.419388,-1.0200266,-74.92482
169,0.031681306660175323,-10.423181533813477,39.293365478515625,-77.02750581083376,52.601530460633654,-158.83098416248563,-4.8818173,32.782215,13.850471,25.688156,-21.209925,-1.217693,-44.760548,-20.478415,-34.885487,92.346016,-21.574823,15.000033,12.673793,13.943981,22.855597,-152.09103,56.589443,-85.14729,84.46359,-5.576459,-2.371279,8.23046,-85.82422,2.3503418,42.044308,75.69536,-37.665604,-0.740424,-75.10572
170,0.28971609473228455,-10.803132057189941,39.015289306640625,-78.43375055603221,51.51696516777086,-159.95967543236293,-4.5314817,33.41985,14.962801,26.130331,-21.187998,-1.0570513,-46.87801,-20.8946,-35.136898,94.17748,-21.352556,15.000033,13.325915,14.569479,22.462591,-152.04028,56.8882,-85.12715,84.091484,-5.819168,-2.7152605,8.225218,-85.16181,2.8411305,41.483284,74.81083,-38.981354,-0.42563596,-75.30982
171,0.5437309145927429,-11.184181213378906,38.710506439208984,-79.7202599586412,50.43551599954688,-161.0368435501533,-4.1534066,33.96419,16.111717,26.555662,-21.170866,-0.9039151,-49.03431,-21.337143,-35.373837,95.88866,-21.122421,15.000033,13.984131,15.085225,22.075165,-151.8817,57.22141,-85.00581,83.46645,-5.459006,-2.9813707,8.83429,-84.40472,3.2668393,40.924725,73.78019,-40.31642,-0.090807125,-75.477425
172,0.7909271717071533,-11.563344955444336,38.37950134277344,-80.86341758111932,49.37603671095217,-162.0686657429447,-3.775753,34.36852,17.236206,26.968594,-21.150995,-0.73166084,-51.237133,-21.853832,-35.578884,97.51431,-20.858482,15.000033,14.613076,15.468521,21.691471,-151.68413,57.589016,-84.95678,82.795265,-4.182188,-2.7810638,10.181399,-83.5522,3.636808,40.40897,72.62649,-41.62053,0.23955342,-75.556
173,1.0335209369659424,-11.946845054626465,38.02210235595703,-81.86767095700954,48.38157433029812,-163.0709234896142,-3.439039,34.60722,18.291296,27.35921,-21.124727,-0.5332202,-53.50055,-22.494028,-35.736725,99.06751,-20.549507,15.000033,15.160164,15.733603,21.310587,-151.42009,57.982765,-85.3156,82.2074,-1.7058355,-1.8152934,12.748663,-82.607925,3.9617853,39.95728,71.375374,-42.887676,0.5539194,-75.52046
174,1.2700049877166748,-12.32108211517334,37.64472198486328,-82.75571468481158,47.43663656504534,-164.0493417344617,-3.1272018,34.707607,19.309082,27.729708,-21.097773,-0.32202086,-55.825317,-23.21591,-35.842606,100.52793,-20.204992,15.000033,15.636652,15.882826,20.941591,-151.06609,58.392788,-85.91466,81.58449,1.653685,-0.19788687,16.258127,-81.5785,4.257083,39.54617,70.01882,-44.143078,0.8610352,-75.40455
175,1.4793840646743774,-12.686352729797363,37.24409484863281,-83.53509621142027,46.47076572168099,-164.99286379542082,-2.7788084,34.70893,20.346233,28.09017,-21.080868,-0.10285122,-58.192142,-23.919306,-35.89312,101.88772,-19.84629,15.000033,16.11197,15.887883,20.593601,-150.69508,58.823616,-86.14776,80.75708,5.3566904,1.7789644,19.701702,-80.473274,4.534199,39.14857,68.5365,-45.385254,1.170551,-75.2426
176,1.6864955425262451,-13.03896427154541,36.825435638427734,-84.20053676569188,45.4175335363512,-165.8790832135433,-2.3273332,34.644024,21.456787,28.449657,-21.08404,0.12032078,-60.580837,-24.504442,-35.90234,103.144104,-19.49793,15.000033,16.667341,15.725378,20.27011,-150.3936,59.299297,-85.398285,79.53703,8.9810915,3.6689007,22.153027,-79.29284,4.790684,38.7397,66.90867,-46.612556,1.493547,-75.06824
177,1.87276029586792,-13.379441261291504,36.392391204833984,-84.74579439942389,44.255371914011505,-166.7074388565111,-1.7558306,34.515648,22.653505,28.81933,-21.109106,0.36118728,-63.020054,-24.918861,-35.840515,104.27585,-19.193224,15.000033,17.326805,15.337141,19.978128,-150.22456,59.85972,-82.94727,77.72066,12.898889,5.3063655,23.26995,-78.00509,5.02009,38.266624,65.049,-47.854897,1.8461949,-74.86828
178,2.055068016052246,-13.699713706970215,35.9526252746582,-85.17696461307287,43.02938489195893,-167.483370720253,-1.0989587,34.307514,23.895935,29.184566,-21.149704,0.6169012,-65.50316,-25.219564,-35.72185,105.29457,-18.903242,15.000033,18.073917,14.793091,19.70546,-150.15475,60.54377,-79.26768,75.39721,17.286667,6.8661513,23.610626,-76.61009,5.1978154,37.77181,63.008907,-49.105186,2.2157853,-74.627914
179,2.2232272624969482,-14.00894546508789,35.496673583984375,-85.49269182314848,41.771546744893364,-168.19486695078615,-0.36436015,34.00818,25.165377,29.516426,-21.203415,0.8582946,-67.95033,-25.471298,-35.608597,106.2438,-18.57482,15.000033,18.909248,14.220903,19.437912,-150.1286,61.37191,-75.59443,72.81807,21.459541,8.325525,23.663017,-75.14827,5.2949743,37.36485,60.94395,-50.30321,2.5711763,-74.37804
180,2.381312370300293,-14.299826622009277,35.011634826660156,-85.71116410339583,40.513113368251126,-168.83256206238613,0.43644965,33.62263,26.438244,29.787184,-21.26769,1.0546504,-70.28193,-25.745375,-35.576225,107.16999,-18.14525,15.000033,19.80767,13.745847,19.165709,-150.03944,62.33076,-73.14751,70.26278,24.667698,9.698369,23.899656,-73.67003,5.2979198,37.144764,59.001877,-51.385548,2.8839285,-74.15422
181,2.518141984939575,-14.571035385131836,34.499568939208984,-85.82390307297617,39.2272629977117,-169.40714921623655,1.3390427,33.12746,27.765442,29.965199,-21.337011,1.167985,-72.4944,-26.05605,-35.64094,108.072075,-17.56482,15.000033,20.773342,13.3588915,18.894686,-149.84917,63.38028,-72.46163,67.81237,26.539541,10.934098,24.502106,-72.18029,5.21489,37.134647,57.20585,-52.32986,3.138067,-73.966515
182,2.6414785385131836,-14.829678535461426,33.97904968261719,-85.83988058785165,37.9121367919155,-169.9256105236244,2.3312626,32.52831,29.127716,30.06614,-21.409903,1.222902,-74.61744,-26.366726,-35.767647,108.929474,-16.872816,15.000033,21.77051,12.982566,18.640162,-149.63837,64.47408,-72.90389,65.37511,27.48952,12.021823,25.234877,-70.65929,5.0775294,37.271786,55.46465,-53.16611,3.3545363,-73.80228
183,2.7486560344696045,-15.078423500061035,33.453739166259766,-85.78526643830403,36.63118112550688,-170.38043399537307,3.3346374,31.853218,30.412502,30.129572,-21.486145,1.2854851,-76.62473,-26.670444,-35.93127,109.74957,-16.139156,15.000033,22.729565,12.62741,18.406168,-149.42079,65.574905,-73.839714,62.978706,27.936903,13.058013,25.939175,-69.14086,4.909424,37.51978,53.78811,-53.91179,3.5637774,-73.66646
184,2.8463940620422363,-15.315534591674805,32.91340637207031,-85.68844091080804,35.44705088611011,-170.76688341766555,4.2702365,31.13635,31.512506,30.201643,-21.569675,1.4229814,-78.49216,-26.961937,-36.106766,110.53578,-15.434119,15.000033,23.589191,12.300316,18.190477,-149.22806,66.6598,-74.64205,60.643387,28.307232,14.144983,26.43946,-67.64875,4.726754,37.841522,52.17566,-54.58529,3.7952127,-73.56158
185,2.9374594688415527,-15.540738105773926,32.357059478759766,-85.55911658839184,34.36886040965803,-171.08595401037368,5.1221805,30.389454,32.391094,30.305899,-21.679518,1.6758823,-80.213196,-27.247322,-36.31184,111.28084,-14.759724,15.000033,24.377523,12.023153,17.977478,-149.05788,67.72151,-75.243965,58.385876,28.554312,15.313241,26.730814,-66.20199,4.5197444,38.245472,50.663033,-55.17807,4.0832567,-73.50405
186,3.018066644668579,-15.760896682739258,31.78666877746582,-85.39557475129662,33.36464921242006,-171.3481431750073,5.928891,29.605047,33.10968,30.415129,-21.807655,2.001645,-81.79821,-27.52842,-36.55698,111.985275,-14.082777,15.000033,25.132887,11.797785,17.76353,-148.87822,68.75815,-75.894905,56.198296,28.523848,16.499636,26.91067,-64.78909,4.2736363,38.728695,49.251125,-55.68782,4.4055853,-73.488335
187,3.09319806098938,-15.975049018859863,31.215740203857422,-85.21043176765457,32.435254577294266,-171.56543326191152,6.6921916,28.794226,33.7127,30.507677,-21.921282,2.3439157,-83.2475,-27.798618,-36.808857,112.66172,-13.421685,15.000033,25.80942,11.594521,17.559488,-148.69188,69.76673,-76.456215,54.058823,28.488197,17.674173,26.933323,-63.385143,3.9975972,39.248394,47.887257,-56.14223,4.7045665,-73.48454
188,3.1558573246002197,-16.188140869140625,30.634021759033203,-85.01579482585903,31.58074204210332,-171.74890056555196,7.4138713,27.968643,34.2455,30.562963,-21.987396,2.6459246,-84.563194,-28.04873,-37.031998,113.321915,-12.793797,15.000033,26.36845,11.3913355,17.37364,-148.47012,70.7546,-76.74638,51.93348,28.735882,18.808172,26.73925,-61.978573,3.7099993,39.75715,46.540524,-56.57179,4.9242253,-73.46617
189,3.222647190093994,-16.400087356567383,30.0487003326416,-84.80749077856858,30.810379650354545,-171.89218826159626,8.096748,27.124664,34.715942,30.575617,-21.989773,2.894452,-85.74024,-28.295862,-37.224957,113.969536,-12.218829,15.000033,26.783354,11.174454,17.21525,-148.17824,71.73457,-76.63004,49.772552,29.429129,19.892645,26.247257,-60.580803,3.426405,40.254707,45.231476,-56.96477,5.042295,-73.442566
190,3.2832305431365967,-16.601713180541992,29.461076736450195,-84.59101736245027,30.11892895076949,-171.99790598837103,8.739176,26.269918,35.105694,30.562113,-21.948732,3.1190047,-86.78103,-28.53251,-37.404213,114.59532,-11.685364,15.000033,27.082191,10.967155,17.07249,-147.8074,72.71899,-76.18505,47.585884,30.408878,20.935232,25.492846,-59.209896,3.1488147,40.762657,43.992756,-57.314377,5.093029,-73.426674
191,3.346891403198242,-16.797483444213867,28.879070281982422,-84.39215558225693,29.483786040533683,-172.09019974671253,9.335724,25.431952,35.42137,30.533348,-21.883953,3.3258457,-87.69609,-28.721897,-37.565037,115.191246,-11.156877,15.000033,27.30376,10.799653,16.923544,-147.376,73.71725,-75.56778,45.43451,31.474043,21.930742,24.59113,-57.862408,2.8762236,41.272556,42.809437,-57.655876,5.10229,-73.40037
192,3.4087328910827637,-16.986400604248047,28.305471420288086,-84.23440837717683,28.883101534019183,-172.19179848792092,9.880024,24.635874,35.67034,30.501543,-21.816227,3.5202558,-88.49654,-28.8241,-37.70139,115.74894,-10.60072,15.000033,27.487072,10.699104,16.746195,-146.91132,74.73407,-74.94913,43.38331,32.41586,22.8852,23.664433,-56.53137,2.6066942,41.772617,41.663303,-58.0258,5.0959806,-73.344536
193,3.468144655227661,-17.177093505859375,27.72709083557129,-84.13463499540545,28.307681550067784,-172.308733938063,10.377299,23.899067,35.877117,30.466362,-21.742273,3.67779,-89.1966,-28.80432,-37.796806,116.268326,-9.964168,15.000033,27.615782,10.672643,16.538519,-146.43913,75.768166,-74.34476,41.460743,33.20623,23.84341,22.722958,-55.20844,2.3455384,42.28422,40.531384,-58.431732,5.0698247,-73.23883
194,3.5180981159210205,-17.36404037475586,27.152257919311523,-84.07902976270624,27.769045316596046,-172.43008386555672,10.8270855,23.208183,36.035454,30.428146,-21.654854,3.8016467,-89.78693,-28.693972,-37.861687,116.750725,-9.277755,15.000033,27.670904,10.701336,16.310722,-145.94884,76.81733,-73.691,39.631683,33.941948,24.787638,21.711239,-53.901123,2.098385,42.80921,39.429123,-58.85488,5.013218,-73.09985
195,3.5701241493225098,-17.549327850341797,26.58924674987793,-84.04399380906041,27.275911913408457,-172.5530929969792,11.214312,22.542116,36.105885,30.396444,-21.564495,3.9383035,-90.24335,-28.552658,-37.929825,117.19662,-8.635191,15.000033,27.69061,10.774116,16.055923,-145.40997,77.883255,-73.04067,37.872593,34.595253,25.637104,20.664433,-52.62651,1.8592273,43.307903,38.398384,-59.287582,4.9424915,-72.96315
196,3.62766432762146,-17.729585647583008,26.0345516204834,-84.00562657251147,26.836916021493582,-172.6751381962621,11.526101,21.880035,36.050117,30.381325,-21.482908,4.1354094,-90.539,-28.441566,-38.036346,117.609634,-8.131338,15.000033,27.71386,10.878232,15.767369,-144.80449,78.96666,-72.46404,36.16365,35.128258,26.31399,19.62335,-51.393906,1.616209,43.740402,37.469685,-59.721333,4.8733344,-72.8621
197,3.6873438358306885,-17.903684616088867,25.49811553955078,-83.95782014680161,26.45380644951639,-172.79069287180377,11.756155,21.22205,35.854385,30.401075,-21.407564,4.419134,-90.69586,-28.31998,-38.13709,118.00187,-7.6948385,15.000033,27.756018,11.018092,15.436653,-144.13434,80.06669,-72.00907,34.513317,35.49763,26.77493,18.577868,-50.19444,1.3609558,44.087303,36.655815,-60.14719,4.8101835,-72.811356
198,3.7586376667022705,-18.074451446533203,24.9737491607666,-83.9137668007696,26.121164902164132,-172.9038182151828,11.917297,20.577702,35.546867,30.443151,-21.335108,4.7598357,-90.71904,-28.174109,-38.229305,118.37022,-7.308624,15.000033,27.799059,11.196464,15.067856,-143.4136,81.17674,-71.64103,32.9357,35.720566,27.075571,17.525599,-49.01658,1.0922644,44.3716,35.923996,-60.568954,4.7441287,-72.7905
199,3.8255653381347656,-18.241531372070312,24.465961456298828,-83.88019741460255,25.837822945356635,-173.0270529914541,12.017027,19.945978,35.147247,30.48748,-21.274015,5.1221204,-90.55468,-28.113497,-38.40908,118.68405,-7.1418514,15.000033,27.836874,11.400755,14.669487,-142.63312,82.284515,-71.294,31.420681,35.85037,27.286077,16.52106,-47.860043,0.80857575,44.61033,35.231094,-61.002327,4.6725154,-72.77767
200,3.893983840942383,-18.40255355834961,23.973257064819336,-83.8631104331543,25.602794167500313,-173.1724132536565,12.064268,19.323643,34.67546,30.50763,-21.231375,5.470831,-90.14595,-28.24212,-38.776894,118.91154,-7.3570857,15.000033,27.864374,11.61732,14.250408,-141.77817,83.37223,-70.89332,29.961771,35.944164,27.474958,15.616091,-46.724365,0.50756663,44.819084,34.534313,-61.46355,4.5918546,-72.751785
201,3.970641613006592,-18.562894821166992,23.48190689086914,-83.86581954495823,25.41147366813044,-173.3433223726845,12.060038,18.71033,34.142303,30.503902,-21.216179,5.8064637,-89.328865,-28.66074,-39.488533,119.04018,-8.115988,15.000033,27.89592,11.857792,13.796994,-140.82144,84.42324,-70.46022,28.586002,35.98177,27.64792,14.884152,-45.611656,0.18144009,44.995342,33.84636,-61.9658,4.4922037,-72.71901
202,4.056203842163086,-18.719839096069336,23.007869720458984,-83.88637855968503,25.26464705896729,-173.53510706387107,11.999683,18.108253,33.538406,30.489334,-21.22134,6.1445994,-88.18105,-29.276453,-40.45973,119.079346,-9.277049,15.000033,27.942173,12.12159,13.303765,-139.77084,85.417786,-70.00988,27.313185,35.94313,27.775846,14.283151,-44.50963,-0.17367552,45.12113,33.16919,-62.501137,4.37859,-72.685616
203,4.1407294273376465,-18.858882904052734,22.56001091003418,-83.92091171894829,25.16858923982917,-173.74643936475758,11.878543,17.520208,32.850487,30.473028,-21.240126,6.472722,-87.02101,-29.903751,-41.42084,119.05903,-10.606208,15.000033,27.99006,12.374712,12.792195,-138.66672,86.32775,-69.46085,26.12979,35.89034,27.870964,13.689124,-43.410873,-0.5555087,45.19734,32.455338,-63.03864,4.267846,-72.634415
204,4.220911979675293,-18.99319839477539,22.120922088623047,-83.96414753833052,25.129740061266876,-173.9750756480527,11.699125,16.943226,32.06733,30.449347,-21.258116,6.7792273,-86.180275,-30.36663,-42.077896,118.994225,-11.858493,15.000033,28.025316,12.585687,12.284015,-137.52959,87.126144,-68.71146,25.017002,35.891415,27.943954,12.975912,-42.318398,-0.961731,45.228897,31.668371,-63.53719,4.176706,-72.54909
205,4.297118186950684,-19.124191284179688,21.68718147277832,-84.02848289028884,25.17775383338037,-174.2275708444318,11.435185,16.388685,31.146456,30.427843,-21.281961,7.056449,-85.74182,-30.603106,-42.343567,118.849754,-13.097869,15.000033,28.039919,12.74729,11.775521,-136.36876,87.79551,-67.690674,23.946318,35.952747,27.974695,12.041357,-41.188625,-1.3856119,45.17066,30.765827,-64.03162,4.1092625,-72.41029
206,4.363493919372559,-19.24599838256836,21.272321701049805,-84.11298501922278,25.300245059009296,-174.50120886365903,11.104342,15.849716,30.109436,30.397018,-21.310957,7.3126726,-85.54722,-30.696064,-42.355457,118.623276,-14.425618,15.000033,28.04417,12.881142,11.253933,-135.13937,88.33809,-66.4377,22.941442,36.050537,27.962732,10.976321,-40.059814,-1.8348256,45.044193,29.799963,-64.4995,4.0552306,-72.23383
207,4.428586959838867,-19.348426818847656,20.87178611755371,-84.19103754729963,25.443534716457194,-174.77960802217333,10.751729,15.306108,29.033237,30.369379,-21.34472,7.561713,-85.55534,-30.77109,-42.18083,118.42005,-15.61883,15.000033,28.06863,12.997734,10.741869,-133.80609,88.76778,-65.02002,22.039103,36.197136,27.946068,9.939439,-38.958366,-2.310085,44.906414,28.812584,-64.93454,4.011801,-72.04756
208,4.494267463684082,-19.436145782470703,20.478870391845703,-84.23457837176403,25.551947024948095,-175.04779440536976,10.431212,14.733212,27.998455,30.33196,-21.371048,7.8162894,-85.717674,-30.921177,-41.88454,118.32802,-16.480785,15.000033,28.143515,13.1036415,10.262331,-132.34224,89.10503,-63.512943,21.27341,36.403435,27.963335,9.088709,-37.905296,-2.8036873,44.811386,27.845045,-65.3398,3.9773834,-71.880066
209,4.574865341186523,-19.51910972595215,20.101755142211914,-84.20558146640323,25.629393838303862,-175.28882496504164,10.163503,14.092871,27.00722,30.269941,-21.379473,8.069577,-86.072525,-31.212801,-41.414185,118.398346,-16.895147,15.000033,28.230627,13.182339,9.845017,-130.7292,89.36435,-61.935593,20.655016,36.725254,28.045303,8.473796,-36.982758,-3.3207314,44.83229,26.943857,-65.63563,3.9542553,-71.75603
210,4.663689136505127,-19.584186553955078,19.734996795654297,-84.12756028756353,25.700403998606635,-175.51678245058426,9.918383,13.406129,26.023186,30.18867,-21.375586,8.318841,-86.6242,-31.577961,-40.758648,118.57123,-16.996023,15.000033,28.322285,13.234391,9.478137,-129.01657,89.55803,-60.275803,20.142965,37.13215,28.163399,8.0051365,-36.13094,-3.8551886,44.91852,26.058271,-65.87748,3.9438474,-71.65294
211,4.734179973602295,-19.642309188842773,19.3799991607666,-84.06096851619193,25.73859991058373,-175.7642128608369,9.664745,12.735579,25.06797,30.116447,-21.377638,8.583328,-87.26548,-31.950506,-40.06745,118.785904,-16.924881,15.000033,28.462687,13.28718,9.108788,-127.272865,89.70911,-58.585056,19.709791,37.514606,28.26863,7.636782,-35.321636,-4.4019322,45.009853,25.193468,-66.0995,3.9401724,-71.53807
212,4.793628215789795,-19.689556121826172,19.05742073059082,-84.06704671599107,25.715963918838604,-176.06175229670703,9.372129,12.145915,24.16328,30.081648,-21.403975,8.88167,-87.88601,-32.271576,-39.492733,118.977104,-16.81147,15.000033,28.69641,13.366458,8.6883745,-125.59673,89.84361,-56.944405,19.330801,37.756767,28.313171,7.3236084,-34.504322,-4.9504175,45.03813,24.335457,-66.3554,3.937153,-71.37843
213,4.857687473297119,-19.717390060424805,18.765243530273438,-84.16004453418786,25.636619543970088,-176.4232575682461,9.005104,11.645767,23.268286,30.109842,-21.466372,9.25439,-88.507706,-32.551098,-39.0273,119.163216,-16.658585,15.000033,29.027035,13.468303,8.201403,-124.06349,89.98044,-55.430843,19.01139,37.772392,28.272604,7.0817137,-33.667217,-5.4914317,44.970455,23.482002,-66.67416,3.9333315,-71.149055
214,4.923659324645996,-19.76750946044922,18.46194076538086,-84.3056288203983,25.510286641717926,-176.8282780363793,8.58489,11.202665,22.385397,30.187843,-21.556683,9.679947,-89.16833,-32.83978,-38.616356,119.37966,-16.384594,15.000033,29.420704,13.575145,7.68118,-122.67165,90.11956,-54.05755,18.761389,37.63126,28.178316,6.926248,-32.838802,-6.0173244,44.853363,22.64125,-67.02643,3.9309537,-70.874016
215,4.983791351318359,-19.808887481689453,18.16324806213379,-84.4961924056532,25.316470065517304,-177.25471258599467,8.17832,10.822301,21.603418,30.257412,-21.6491,10.082052,-89.77792,-33.04466,-38.30732,119.54217,-16.08036,15.000033,29.866684,13.694892,7.14527,-121.38771,90.254295,-52.796417,18.567564,37.454777,28.066046,6.811687,-32.053986,-6.5227904,44.74682,21.841267,-67.359146,3.9291463,-70.59453
216,5.036216735839844,-19.854263305664062,17.89180564880371,-84.72294580459925,25.034598105567962,-177.6804829873166,7.8459516,10.513391,21.010626,30.272367,-21.728746,10.385132,-90.24165,-33.11394,-38.166588,119.58651,-15.809437,15.000033,30.359787,13.838386,6.6099796,-120.15638,90.37551,-51.59302,18.412914,37.36719,27.970888,6.692823,-31.339684,-7.003194,44.707485,21.106104,-67.6279,3.9282827,-70.351364
217,5.073427200317383,-19.89501953125,17.6530704498291,-85.01373298305488,24.619872137361234,-178.11157866896073,7.6086144,10.30905,20.637592,30.211994,-21.802969,10.548778,-90.5035,-32.996098,-38.268726,119.47192,-15.579394,15.000033,30.937849,14.034634,6.0544534,-118.92206,90.47988,-50.39246,18.305305,37.4187,27.898481,6.558839,-30.716066,-7.4556093,44.765987,20.463108,-67.8117,3.9310794,-70.15311
218,5.105884075164795,-19.94678497314453,17.418359756469727,-85.35907722704562,24.09511358100512,-178.55174217398184,7.4318867,10.195089,20.433784,30.099434,-21.877954,10.618658,-90.624374,-32.738445,-38.55953,119.24243,-15.359264,15.000033,31.596706,14.271097,5.4713435,-117.67246,90.573204,-49.179916,18.242836,37.54393,27.830841,6.433935,-30.168743,-7.8778944,44.886974,19.90758,-67.94108,3.937873,-69.9794
219,5.133821487426758,-19.996389389038086,17.202585220336914,-85.69615289899063,23.544013478829747,-178.97661718839004,7.2925687,10.113973,20.363335,29.963543,-21.94215,10.647249,-90.67883,-32.428917,-38.917786,118.95897,-15.159689,15.000033,32.263985,14.498664,4.899757,-116.42572,90.66069,-47.97126,18.195925,37.694603,27.767527,6.325402,-29.683481,-8.269802,45.03281,19.421364,-68.03704,3.945092,-69.827286
220,5.156945705413818,-20.0352840423584,17.013690948486328,-85.9663049821496,23.050094936147346,-179.36537778333638,7.1660643,10.010543,20.391306,29.837025,-21.985653,10.689411,-90.73787,-32.155964,-39.225655,118.682655,-14.993317,15.000033,32.865494,14.670915,4.382909,-115.221855,90.746216,-46.806015,18.138023,37.820217,27.708342,6.2403474,-29.24336,-8.632118,45.165367,18.980537,-68.119095,3.9486802,-69.69339
221,5.177120685577393,-20.065410614013672,16.837778091430664,-86.1722394638449,22.608177060913295,-179.72664843579147,7.055835,9.895113,20.573833,29.719252,-22.00873,10.741542,-90.80687,-31.901745,-39.4804,118.40034,-14.856544,15.000033,33.398743,14.781157,3.91522,-114.08923,90.83323,-45.727024,18.06931,37.91895,27.657942,6.1847606,-28.846376,-8.962249,45.291145,18.59043,-68.17638,3.9369128,-69.59131
222,5.172861099243164,-20.0781307220459,16.678068161010742,-86.34060830836006,22.184451971464068,179.93181644776558,6.970874,9.7902775,20.90669,29.596434,-22.015526,10.781354,-90.85286,-31.630861,-39.733227,118.0916,-14.748973,15.000033,33.891838,14.851993,3.4841506,-113.04275,90.92054,-44.748127,18.007635,38.01012,27.615213,6.1533895,-28.500732,-9.2582,45.428288,18.258635,-68.20369,3.915272,-69.51791
223,5.1805572509765625,-20.095720291137695,16.5191707611084,-86.4539968973643,21.819197019526985,179.62853980959105,6.8925185,9.662103,21.264278,29.486765,-22.005404,10.83692,-90.88747,-31.40394,-39.947796,117.7959,-14.689025,15.000033,34.31916,14.885416,3.1217253,-112.10108,91.00293,-43.86363,17.954182,38.075108,27.57152,6.137276,-28.199184,-9.524031,45.551617,17.95677,-68.22811,3.9060326,-69.44579
224,5.199188709259033,-20.112226486206055,16.37167739868164,-86.49622578277999,21.552076192862575,179.38090946653358,6.8013034,9.476978,21.522552,29.408789,-21.977398,10.935409,-90.92068,-31.282623,-40.091797,117.554405,-14.691864,15.000033,34.66041,14.884757,2.8583665,-111.27439,91.07338,-43.05694,17.907557,38.095715,27.518269,6.1270475,-27.928225,-9.768896,45.633305,17.64967,-68.27995,3.9314747,-69.346596
225,5.24392032623291,-20.114015579223633,16.219791412353516,-86.44120762870087,21.424151947236705,179.20077216965828,6.6908674,9.203312,21.654861,29.365406,-21.925035,11.089331,-90.96349,-31.309538,-40.12828,117.3775,-14.768412,15.000033,34.888832,14.838223,2.7228878,-110.57381,91.12873,-42.324234,17.867205,38.050835,27.447208,6.124398,-27.681498,-10.003247,45.64652,17.305193,-68.37483,4.00114,-69.195656
226,5.28143310546875,-20.1147403717041,16.10450553894043,-86.30888367299752,21.404708699297153,179.0740922811855,6.56989,8.86855,21.725536,29.34886,-21.85095,11.281869,-91.005035,-31.439594,-40.087128,117.24298,-14.908849,15.000033,35.028255,14.751567,2.6910694,-109.99149,91.17001,-41.671906,17.833368,37.956703,27.364681,6.132411,-27.456478,-10.232589,45.609364,16.932686,-68.49416,4.1015434,-69.012405
227,5.3156232833862305,-20.13187026977539,16.008073806762695,-86.15168335708654,21.42499024122374,178.9792863771105,6.446352,8.52699,21.747843,29.357374,-21.767498,11.495875,-91.02291,-31.609219,-40.037262,117.14054,-15.090889,15.000033,35.134323,14.654319,2.711867,-109.50298,91.1976,-41.093082,17.806002,37.85135,27.284058,6.1443353,-27.251064,-10.45924,45.561584,16.564571,-68.61168,4.220226,-68.835976
228,5.338634014129639,-20.14137077331543,15.931856155395508,-86.02027090651983,21.41542667816555,178.89534624371163,6.3290687,8.231335,21.735832,29.388683,-21.686228,11.714301,-90.99345,-31.758024,-40.049946,117.059326,-15.286549,15.000033,35.26226,14.576207,2.7356377,-109.07205,91.21197,-40.56949,17.783354,37.774113,27.218275,6.153302,-27.06607,-10.682454,45.542694,16.236376,-68.69968,4.34525,-68.70576
229,5.3638014793396,-20.149436950683594,15.854714393615723,-85.91703314111699,21.369905811286806,178.82813269866193,6.217049,7.9917297,21.680466,29.46083,-21.60532,11.954243,-90.89671,-31.886412,-40.148666,117.00708,-15.515546,15.000033,35.417717,14.527011,2.7675102,-108.67984,91.21178,-40.079674,17.764261,37.741505,27.173897,6.1627865,-26.905031,-10.901239,45.560722,15.960631,-68.753,4.4845486,-68.63798
230,5.388585090637207,-20.157270431518555,15.78641414642334,-85.81753488629434,21.32104014265387,178.78531328011655,6.1080537,7.7802467,21.579073,29.568615,-21.520359,12.217517,-90.74941,-32.024445,-40.295593,116.984375,-15.777929,15.000033,35.563324,14.48585,2.8263156,-108.405106,91.198975,-39.70397,17.761978,37.728306,27.143574,6.1761813,-26.793732,-11.074256,45.60108,15.764467,-68.78813,4.640257,-68.612114
231,5.408757209777832,-20.167579650878906,15.729310035705566,-85.73177832318048,21.257902298863264,178.7512908611587,6.010386,7.594522,21.452387,29.677406,-21.43981,12.463096,-90.57928,-32.153423,-40.473053,116.97511,-16.022692,15.000033,35.68578,14.431945,2.8910942,-108.408,91.19164,-39.623905,17.790524,37.69778,27.119925,6.184551,-26.785034,-11.112485,45.642242,15.736253,-68.82705,4.7709885,-68.60918
232,5.4316864013671875,-20.181798934936523,15.68303108215332,-85.67012104389805,21.16503490291337,178.70366994301975,5.9284306,7.4286766,21.32792,29.748594,-21.371279,12.651165,-90.42456,-32.24953,-40.657322,116.95443,-16.194216,15.000033,35.82741,14.376158,2.923622,-108.39833,91.18259,-39.552467,17.806932,37.659912,27.091621,6.1772585,-26.783201,-11.145078,45.701298,15.724372,-68.85151,4.8895574,-68.60785
233,5.448800086975098,-20.193912506103516,15.637853622436523,-85.63720219259638,21.02784846724112,178.63645540250405,5.8684893,7.282079,21.211351,29.768541,-21.321646,12.76522,-90.293,-32.303288,-40.850834,116.92741,-16.278364,15.000033,36.004414,14.314476,2.9192157,-108.39516,91.17444,-39.501564,17.80373,37.60403,27.057087,6.1424026,-26.800615,-11.170686,45.763668,15.746816,-68.86949,4.9701743,-68.6063
234,5.4627766609191895,-20.20769500732422,15.595793724060059,-85.6223700822046,20.863522764473323,178.56438652658278,5.8292427,7.1511154,21.0838,29.753853,-21.282701,12.8302765,-90.158226,-32.34886,-41.06692,116.90685,-16.30058,15.000033,36.186478,14.271839,2.896054,-108.31472,91.154785,-39.37799,17.804253,37.56732,27.015314,6.0859904,-26.82737,-11.235407,45.92055,15.7677555,-68.836815,5.0857363,-68.63074
235,5.47178840637207,-20.22547721862793,15.560340881347656,-85.62907441784873,20.687095043845066,178.49137841787018,5.7939806,7.050813,20.947906,29.7358,-21.25163,12.8629055,-90.02758,-32.35759,-41.28643,116.86886,-16.282011,15.000033,36.387135,14.227147,2.863051,-108.27667,91.14341,-39.302235,17.777924,37.50462,26.976725,6.03038,-26.860601,-11.276636,46.019596,15.813262,-68.82052,5.1521006,-68.645905
236,5.481845378875732,-20.24547004699707,15.531754493713379,-85.64977606808804,20.5143645016473,178.41654292432779,5.7475843,6.975065,20.809368,29.725546,-21.214266,12.885557,-89.90892,-32.332314,-41.49211,116.78736,-16.209146,15.000033,36.61637,14.24118,2.8190064,-107.834625,91.10405,-38.796425,17.71734,37.476696,26.938004,5.995078,-26.747211,-11.566347,46.194813,15.608649,-68.741714,5.285742,-68.66457
237,5.4923248291015625,-20.268035888671875,15.50844955444336,-85.69354474529052,20.351539435081747,178.34497609681736,5.682009,6.939545,20.646782,29.747765,-21.186451,12.903038,-89.794754,-32.27084,-41.689857,116.68412,-16.125711,15.000033,36.85987,14.255961,2.7848172,-107.42969,91.094154,-38.306984,17.605263,37.399323,26.89998,5.9807687,-26.62214,-11.85019,46.247166,15.384867,-68.69384,5.346724,-68.64792
238,5.506795883178711,-20.29491424560547,15.494625091552734,-85.75851972294335,20.187819414601872,178.27247705628463,5.608015,6.9352164,20.467861,29.77781,-21.16231,12.905652,-89.693306,-32.16815,-41.876835,116.53757,-15.977551,15.000033,37.08805,14.281232,2.7425268,-107.062126,91.09715,-37.864388,17.488424,37.298492,26.86331,5.983465,-26.514452,-12.101768,46.294323,15.195535,-68.64278,5.3930755,-68.62423
239,5.517887115478516,-20.3221435546875,15.501925468444824,-85.82642888426491,20.027147570440782,178.20081313855283,5.5333176,6.944252,20.301537,29.805458,-21.127441,12.885481,-89.60152,-32.042233,-42.050762,116.37557,-15.818892,15.000033,37.306393,14.306216,2.7043924,-106.72992,91.10741,-37.461185,17.370346,37.19632,26.831165,5.992347,-26.421072,-12.323649,46.332485,15.037991,-68.599556,5.434341,-68.60604
240,5.524556636810303,-20.349103927612305,15.518917083740234,-85.8798243883517,19.87377728177012,178.1316058283241,5.466881,6.9494467,20.176226,29.818836,-21.065802,12.834516,-89.524956,-31.900097,-42.2005,116.209435,-15.687892,15.000033,37.516956,14.319759,2.684622,-106.438065,91.12301,-37.097202,17.253963,37.11282,26.80711,5.9960856,-26.337442,-12.519356,46.359127,14.906708,-68.57734,5.479416,-68.60497
