project-unveil/project-unveil.github.io/assets/demos/g1_csv/standing_idle.csv
Frame,root_translateX,root_translateY,root_translateZ,root_rotateX,root_rotateY,root_rotateZ,left_hip_pitch_joint_dof,left_hip_roll_joint_dof,left_hip_yaw_joint_dof,left_knee_joint_dof,left_ankle_pitch_joint_dof,left_ankle_roll_joint_dof,right_hip_pitch_joint_dof,right_hip_roll_joint_dof,right_hip_yaw_joint_dof,right_knee_joint_dof,right_ankle_pitch_joint_dof,right_ankle_roll_joint_dof,waist_yaw_joint_dof,waist_roll_joint_dof,waist_pitch_joint_dof,left_shoulder_pitch_joint_dof,left_shoulder_roll_joint_dof,left_shoulder_yaw_joint_dof,left_elbow_joint_dof,left_wrist_roll_joint_dof,left_wrist_pitch_joint_dof,left_wrist_yaw_joint_dof,right_shoulder_pitch_joint_dof,right_shoulder_roll_joint_dof,right_shoulder_yaw_joint_dof,right_elbow_joint_dof,right_wrist_roll_joint_dof,right_wrist_pitch_joint_dof,right_wrist_yaw_joint_dof
0,-0.06286277621984482,-2.3218941688537598,77.86447143554688,0.05013132509046669,-1.4775252140500774,89.58806697505251,4.0348234,7.654982,6.111713,8.19214,-9.201294,-7.9532094,5.4617968,-10.219095,-22.00501,9.498898,-12.023291,10.539342,-4.3613214,0.867564,8.493684,-4.042122,19.151436,-40.50019,50.00958,0.6916007,-3.0549386,-1.2571399,-6.429618,-10.254206,25.669294,58.934196,-12.756744,-3.6114943,-0.36770043
1,-0.06523291766643524,-2.3272645473480225,77.86133575439453,0.056093050448513496,-1.5075870673407987,89.56259166404108,4.061918,7.650813,6.1428323,8.21826,-9.232831,-7.942259,5.4479785,-10.242509,-21.97166,9.579259,-12.072359,10.538076,-4.34183,0.85946995,8.54882,-4.096842,19.173763,-40.61166,49.889297,0.8729024,-2.764927,-0.98865753,-6.442194,-10.259094,25.721996,58.916615,-12.71308,-3.6357489,-0.40510464
2,-0.06875535100698471,-2.335399866104126,77.85964965820312,0.062399799690289706,-1.5368148747248922,89.53707989497144,4.090235,7.6462717,6.174859,8.240264,-9.2630825,-7.9309087,5.4329424,-10.266607,-21.937984,9.660852,-12.123031,10.536813,-4.3128715,0.8533662,8.6019535,-4.1687117,19.189072,-40.748775,49.78139,1.0596061,-2.4731157,-0.7130755,-6.4427686,-10.271002,25.767387,58.886166,-12.670363,-3.6574714,-0.4434731
3,-0.07656464725732803,-2.3429551124572754,77.85618591308594,0.06914976849508328,-1.5675031261828236,89.51132098021218,4.1187444,7.642124,6.2057133,8.264648,-9.292799,-7.9203115,5.419533,-10.289769,-21.904564,9.74166,-12.171487,10.535782,-4.2721148,0.84886605,8.657485,-4.2405,19.199207,-40.879463,49.67758,1.216779,-2.1829946,-0.44851214,-6.427647,-10.291928,25.8009,58.840622,-12.624974,-3.6828966,-0.47672787
4,-0.0794338509440422,-2.3463172912597656,77.85381317138672,0.0737576624624465,-1.6018033541937389,89.4849334287145,4.143972,7.6403065,6.2330174,8.30301,-9.325064,-7.9117994,5.4094563,-10.310961,-21.871473,9.822444,-12.21499,10.535354,-4.2278504,0.8469903,8.719877,-4.291434,19.198849,-40.95366,49.573242,1.3170091,-1.8982015,-0.21433526,-6.399688,-10.320545,25.828568,58.782818,-12.572971,-3.7168458,-0.49951044
5,-0.08097612857818604,-2.3493597507476807,77.8504638671875,0.07712012760858036,-1.6418798560877792,89.4568464320655,4.170106,7.640677,6.2571125,8.351143,-9.354913,-7.9054866,5.405663,-10.329404,-21.838762,9.902386,-12.250969,10.53587,-4.1871624,0.84596467,8.790919,-4.313216,19.186687,-40.94809,49.462563,1.3197254,-1.609736,-0.018785283,-6.3691487,-10.347179,25.856346,58.72502,-12.504543,-3.7729373,-0.5089214
6,-0.08779733628034592,-2.357759952545166,77.8467788696289,0.07977567529617376,-1.6859844532166455,89.42757573071057,4.1962876,7.6428294,6.2787952,8.408227,-9.384682,-7.9006534,5.405028,-10.346303,-21.805939,9.98416,-12.282654,10.537262,-4.152751,0.84949464,8.867984,-4.3150077,19.15781,-40.879562,49.353706,1.2563012,-1.3203484,0.14951904,-6.3324914,-10.380516,25.891087,58.660038,-12.421209,-3.8436046,-0.50813705
7,-0.09228644520044327,-2.3678925037384033,77.84059143066406,0.08086500470432595,-1.7307051049252986,89.39906961403585,4.2188196,7.646251,6.297561,8.472349,-9.416658,-7.8976097,5.405472,-10.361643,-21.773952,10.063834,-12.3122015,10.538382,-4.1241765,0.8595256,8.943262,-4.308444,19.099937,-40.76644,49.27657,1.2045949,-1.0514796,0.30227378,-6.2890005,-10.423438,25.936724,58.592213,-12.339911,-3.9032035,-0.5062537
8,-0.09244503080844879,-2.371173143386841,77.8377685546875,0.08184617900646256,-1.772486564112885,89.37334843764687,4.234437,7.6503134,6.3128095,8.542183,-9.454339,-7.896615,5.4027853,-10.376451,-21.743284,10.143223,-12.345643,10.537825,-4.0880685,0.86437607,9.009801,-4.295465,19.038145,-40.647186,49.231266,1.2299584,-0.8210482,0.45090547,-6.2443666,-10.453963,25.976713,58.539703,-12.287528,-3.9277275,-0.5149528
9,-0.09621553122997284,-2.3794705867767334,77.83325958251953,0.08131054737919523,-1.8106709293040897,89.34874467396556,4.243527,7.655746,6.3246617,8.616766,-9.499713,-7.8993864,5.394363,-10.390352,-21.711832,10.224644,-12.386344,10.533747,-4.04167,0.8635973,9.068179,-4.270864,18.978884,-40.515438,49.218018,1.3662152,-0.6486352,0.60025305,-6.1947236,-10.473819,26.018099,58.49722,-12.2701435,-3.897736,-0.5416941
10,-0.09932873398065567,-2.387664556503296,77.82987976074219,0.07964366933393108,-1.846894859655632,89.32490945208947,4.2460785,7.66288,6.333151,8.69959,-9.55186,-7.905216,5.3836017,-10.402675,-21.680124,10.305337,-12.430105,10.527254,-4.0105124,0.87342775,9.114546,-4.250923,18.85968,-40.331482,49.28647,1.5884048,-0.523378,0.74351764,-6.1474643,-10.501527,26.09252,58.46929,-12.26517,-3.8286977,-0.5804398
11,-0.10290645062923431,-2.397949457168579,77.82771301269531,0.07717874586603943,-1.8816525158231245,89.3058085533286,4.2423315,7.6698484,6.3382187,8.788199,-9.606096,-7.9106812,5.3734446,-10.414521,-21.652468,10.382215,-12.471883,10.521989,-3.9708064,0.88118076,9.154077,-4.232173,18.728394,-40.153305,49.380882,1.8340901,-0.40651307,0.874005,-6.0929656,-10.521435,26.146774,58.448868,-12.278848,-3.7532942,-0.6170369
12,-0.10500018298625946,-2.4102351665496826,77.82190704345703,0.07653388559411091,-1.9148785869395573,89.29542266830659,4.2334576,7.674793,6.3398747,8.877641,-9.656396,-7.912294,5.368573,-10.426505,-21.63362,10.449669,-12.50575,10.521626,-3.940383,0.8888636,9.188579,-4.2065825,18.587051,-39.98165,49.477882,2.064822,-0.26393476,0.98177594,-6.037904,-10.533911,26.182537,58.43734,-12.300715,-3.7012775,-0.6390302
13,-0.10868924111127853,-2.42340350151062,77.81803894042969,0.07846482204076528,-1.947805987664417,89.29668310294294,4.2131977,7.676363,6.338024,8.981709,-9.709112,-7.9064507,5.367996,-10.441337,-21.624693,10.513333,-12.532923,10.529809,-3.922646,0.8942585,9.219702,-4.1708302,18.436739,-39.8143,49.57448,2.2576697,-0.09529411,1.0670581,-5.986493,-10.540058,26.202608,58.439224,-12.33765,-3.6832938,-0.63861936
14,-0.11086811870336533,-2.435551404953003,77.81682586669922,0.0808388106934409,-1.9798197735776784,89.30690574493643,4.1876817,7.6754613,6.333336,9.087659,-9.758852,-7.895914,5.372068,-10.45691,-21.623545,10.56937,-12.553493,10.5435295,-3.9135227,0.8983954,9.247125,-4.124996,18.277538,-39.644985,49.67719,2.4392629,0.08390166,1.1333265,-5.9354563,-10.539718,26.211184,58.450947,-12.390326,-3.6822875,-0.6239721
15,-0.11315354704856873,-2.447319269180298,77.8140640258789,0.0833414255401696,-2.009098516647659,89.32144074805454,4.1545253,7.6758676,6.3237433,9.1997795,-9.809659,-7.886826,5.3777914,-10.470329,-21.628433,10.618412,-12.569798,10.55707,-3.9097776,0.9040175,9.267711,-4.072079,18.11132,-39.481434,49.781693,2.641672,0.28426364,1.1766987,-5.879895,-10.532811,26.201025,58.466736,-12.441694,-3.6871805,-0.6062923
16,-0.11274472624063492,-2.4581539630889893,77.81315612792969,0.0816067835014501,-2.0338734264889076,89.3356961351466,4.1276813,7.679697,6.3095417,9.2877,-9.845928,-7.8853855,5.3884416,-10.475718,-21.638552,10.647465,-12.577007,10.564536,-3.9072278,0.9147153,9.279077,-4.01449,17.940863,-39.33211,49.88243,2.8969843,0.5163568,1.1929176,-5.813115,-10.518384,26.163965,58.478268,-12.47464,-3.6870077,-0.5964779
17,-0.11235123872756958,-2.46700382232666,77.81292724609375,0.07312675419060262,-2.054142605563315,89.34956001168318,4.109171,7.689319,6.2877207,9.347045,-9.864454,-7.8970804,5.407689,-10.469356,-21.656713,10.649834,-12.57191,10.563279,-3.904904,0.9321218,9.281555,-3.949204,17.76686,-39.188248,49.97526,3.2384367,0.7966662,1.1795456,-5.733318,-10.495188,26.110176,58.486954,-12.481513,-3.6782022,-0.6042391
18,-0.11390791833400726,-2.4756109714508057,77.8121337890625,0.06082284403833961,-2.0706501958299945,89.365131301626,4.093463,7.702965,6.2593336,9.389437,-9.8711,-7.9173474,5.433696,-10.454538,-21.6825,10.631813,-12.556701,10.556841,-3.9055686,0.95412207,9.276461,-3.8746057,17.589586,-39.048424,50.061253,3.6408603,1.1148238,1.1379027,-5.6441016,-10.462276,26.040253,58.49586,-12.472526,-3.6668777,-0.62155133
19,-0.11545746773481369,-2.4889700412750244,77.81165313720703,0.04765226567193621,-2.082970649769878,89.38108155827413,4.078434,7.7163906,6.230162,9.420443,-9.872004,-7.937176,5.458489,-10.438172,-21.709661,10.606543,-12.539149,10.548249,-3.9094229,0.9760078,9.262152,-3.7952905,17.412655,-38.933163,50.14363,4.0486984,1.4410042,1.0702206,-5.5499706,-10.421652,25.93078,58.502815,-12.457569,-3.6564507,-0.63296
20,-0.11151809245347977,-2.4944114685058594,77.81111907958984,0.0387586699505661,-2.0903744448060686,89.3962050720935,4.060677,7.725285,6.205849,9.447759,-9.874216,-7.947566,5.474818,-10.426905,-21.73203,10.586339,-12.526495,10.540666,-3.9145076,0.99455166,9.238505,-3.715412,17.241467,-38.865093,50.22119,4.405502,1.746197,0.9795509,-5.449557,-10.375052,25.756084,58.497875,-12.44575,-3.6503406,-0.6219795
21,-0.11157110333442688,-2.50449538230896,77.81207275390625,0.037300897650532364,-2.090528096628252,89.41132703081831,4.038404,7.727051,6.187324,9.469365,-9.877922,-7.9440203,5.4778047,-10.424797,-21.748783,10.576241,-12.522574,10.534572,-3.9197323,1.005995,9.203425,-3.6349056,17.080088,-38.852806,50.290714,4.6805506,2.0322318,0.87025183,-5.342051,-10.32574,25.52841,58.477043,-12.436473,-3.651281,-0.5859072
22,-0.10984645038843155,-2.512481451034546,77.81228637695312,0.039195323973667644,-2.084345838089469,89.42681565205372,4.0131173,7.724392,6.1716704,9.4835205,-9.880301,-7.9320316,5.473172,-10.426926,-21.763306,10.567046,-12.521743,10.528389,-3.9252062,1.0132496,9.159436,-3.548772,16.929848,-38.884144,50.346382,4.908586,2.3117533,0.7397854,-5.224556,-10.274442,25.25339,58.439606,-12.426205,-3.6568894,-0.53204924
23,-0.11015074700117111,-2.5172770023345947,77.81295013427734,0.0413178573225616,-2.076772933296719,89.4403059232973,3.9885528,7.7215166,6.1590605,9.493911,-9.881976,-7.9176097,5.466547,-10.428751,-21.774395,10.556898,-12.521504,10.522192,-3.930722,1.0215286,9.112227,-3.455421,16.792301,-38.951733,50.38585,5.130232,2.5714204,0.58119386,-5.0963182,-10.218629,24.895737,58.386345,-12.41874,-3.6628852,-0.45941052
24,-0.10679937899112701,-2.526808738708496,77.8127212524414,0.041572890686150867,-2.072558672714463,89.44947636024689,3.9710283,7.722003,6.1499,9.499811,-9.881323,-7.9065943,5.464704,-10.424874,-21.781187,10.539923,-12.516811,10.516086,-3.934791,1.0352013,9.067019,-3.35419,16.669058,-39.049786,50.408375,5.3855968,2.7976522,0.38766906,-4.957949,-10.154158,24.41832,58.320625,-12.41884,-3.6652048,-0.3674641
25,-0.10222963988780975,-2.5398221015930176,77.81477355957031,0.037740577316600715,-2.072268482279869,89.45247314235513,3.9572155,7.729358,6.1442475,9.50915,-9.882275,-7.901163,5.467989,-10.411179,-21.781055,10.514587,-12.506464,10.509969,-3.9355865,1.0568419,9.026426,-3.2462077,16.561293,-39.17877,50.414326,5.6874533,2.9847078,0.14035147,-4.803634,-10.075672,23.785633,58.23308,-12.457316,-3.6598487,-0.22817758
26,-0.09828100353479385,-2.5496292114257812,77.81562042236328,0.03186879545861405,-2.0738049943023475,89.45089774472437,3.9494448,7.7400494,6.1425786,9.5115595,-9.879871,-7.8978934,5.474796,-10.391364,-21.775545,10.480276,-12.490907,10.503776,-3.9330318,1.0819328,8.986716,-3.1314373,16.469534,-39.343266,50.404137,6.0129175,3.1399777,-0.15117557,-4.6371546,-9.981211,23.023966,58.129604,-12.522832,-3.6504529,-0.051593382
27,-0.09614607691764832,-2.5564966201782227,77.81684112548828,0.02620891284152512,-2.0770930591256764,89.44783035924308,3.947277,7.7505164,6.1432633,9.50886,-9.87526,-7.8947763,5.4842033,-10.371361,-21.769337,10.445654,-12.475672,10.497793,-3.930366,1.1062607,8.943543,-3.0068378,16.394552,-39.5408,50.375824,6.3494735,3.2696488,-0.45140067,-4.473719,-9.87347,22.190775,58.035915,-12.557814,-3.6437457,0.10566361
28,-0.09133539348840714,-2.5647661685943604,77.81648254394531,0.02335762820617323,-2.082130485174391,89.44630098645591,3.945537,7.7570915,6.144351,9.512096,-9.874453,-7.889642,5.4926934,-10.359539,-21.766857,10.423203,-12.467772,10.4923725,-3.9317033,1.1258978,8.893492,-2.8682852,16.337225,-39.767735,50.32556,6.6847343,3.380255,-0.72513884,-4.3261304,-9.757508,21.34487,57.97365,-12.503334,-3.6459885,0.18733005
29,-0.08453301340341568,-2.567654848098755,77.81607818603516,0.025557531000849256,-2.0896644984993826,89.44840342888335,3.9541943,7.756475,6.146587,9.502633,-9.867118,-7.8827243,5.506163,-10.357737,-21.772385,10.407464,-12.46542,10.488405,-3.9439936,1.1429329,8.8351,-2.7146566,16.299368,-40.040764,50.24948,7.0263314,3.473041,-0.96099114,-4.1910152,-9.633483,20.467215,57.946476,-12.329554,-3.6583474,0.17325522
30,-0.08101491630077362,-2.5774013996124268,77.8156509399414,0.031343112248037236,-2.099691562401654,89.45204274514315,3.969725,7.7515507,6.1503673,9.487561,-9.857499,-7.8748164,5.5227723,-10.362397,-21.782272,10.397367,-12.467462,10.485241,-3.9634178,1.1587608,8.771182,-2.546866,16.281557,-40.355297,50.147324,7.377077,3.5449758,-1.1785553,-4.062215,-9.500188,19.539087,57.939953,-12.071433,-3.6778014,0.09578547
31,-0.07705727964639664,-2.5838820934295654,77.814208984375,0.03709517256208765,-2.110115236498571,89.45408745951866,3.985673,7.746669,6.155268,9.475056,-9.849592,-7.8650403,5.537369,-10.368483,-21.790688,10.392954,-12.4721155,10.481521,-3.9805064,1.1694001,8.704787,-2.3633046,16.282413,-40.67258,50.02185,7.717459,3.5964482,-1.388895,-3.9478061,-9.364592,18.62098,57.948368,-11.768094,-3.7040195,-0.02264814
32,-0.07782737165689468,-2.5767951011657715,77.81360626220703,0.04017179152651378,-2.119444454358404,89.45133126634562,3.9945564,7.7461557,6.1609287,9.475817,-9.849166,-7.852434,5.543616,-10.3713,-21.791922,10.396824,-12.478659,10.475807,-3.9891534,1.1725559,8.639531,-2.1593673,16.299538,-40.948975,49.872932,8.029608,3.62756,-1.6036711,-3.854015,-9.238556,17.778051,57.961433,-11.456685,-3.7362096,-0.15940739
33,-0.06759239733219147,-2.579960823059082,77.811767578125,0.039967544590743115,-2.126235911072477,89.4432602318091,3.995181,7.750647,6.1663585,9.490973,-9.857969,-7.832503,5.5408707,-10.369376,-21.78487,10.40637,-12.485801,10.468997,-3.9912353,1.1709943,8.573606,-1.9326519,16.332287,-41.177883,49.686237,8.340445,3.6531336,-1.8539034,-3.777091,-9.130037,17.005995,57.968884,-11.099068,-3.7802482,-0.314489
34,-0.06372824311256409,-2.587975263595581,77.81133270263672,0.03818642849568791,-2.1316017086884353,89.43147060585068,3.9906147,7.757964,6.1720943,9.515986,-9.872949,-7.8071733,5.5309725,-10.365863,-21.772253,10.423445,-12.494974,10.461521,-3.9909139,1.1681852,8.507628,-1.6843647,16.380644,-41.377834,49.463306,8.649679,3.6676688,-2.1244755,-3.7095852,-9.039969,16.280499,57.96952,-10.688509,-3.8352232,-0.4960831
35,-0.06267517805099487,-2.593538761138916,77.81182861328125,0.03491448095628579,-2.137640006296087,89.41589732847675,3.9817803,7.769079,6.17969,9.55181,-9.892996,-7.785147,5.5169196,-10.359542,-21.754824,10.446218,-12.50553,10.450761,-3.986106,1.162636,8.448469,-1.4151083,16.442337,-41.54133,49.228714,8.8997555,3.641971,-2.3571515,-3.6547256,-8.971988,15.637676,57.96952,-10.310421,-3.8885481,-0.69458807
36,-0.06575147062540054,-2.5980007648468018,77.80970001220703,0.02751162977175729,-2.1464285024562724,89.39652661287612,3.9681895,7.785147,6.190701,9.601902,-9.917825,-7.7751455,5.500317,-10.3505,-21.732786,10.474581,-12.516717,10.434272,-3.9796636,1.1547053,8.40324,-1.1247278,16.51124,-41.655178,49.008877,9.033803,3.5471716,-2.4938104,-3.6164026,-8.931002,15.1206665,57.974487,-10.0466795,-3.9268515,-0.9006265
37,-0.06083903834223747,-2.6135168075561523,77.80819702148438,0.01682203981937029,-2.159441311708273,89.37291849662827,3.948518,7.808597,6.2050586,9.670692,-9.947786,-7.783839,5.4813027,-10.336379,-21.705334,10.510327,-12.530187,10.406126,-3.966434,1.1460413,8.374472,-0.8126325,16.588205,-41.72364,48.803226,9.085073,3.3768284,-2.5502338,-3.5962036,-8.916129,14.742881,57.987244,-9.931971,-3.9474823,-1.1374708
38,-0.06129949912428856,-2.6228439807891846,77.80866241455078,0.0013884716127675477,-2.175407727709052,89.34523341029798,3.9236763,7.8380055,6.2222652,9.754809,-9.982641,-7.8051076,5.4586444,-10.318549,-21.672594,10.554032,-12.545974,10.369426,-3.9608533,1.1389256,8.352356,-0.48527434,16.648693,-41.734444,48.629513,9.075392,3.1447847,-2.5457516,-3.602459,-8.92607,14.500651,58.01897,-9.913,-3.955449,-1.405663
39,-0.061888888478279114,-2.6301071643829346,77.80775451660156,-0.015788176309383953,-2.191764326955074,89.31440719163098,3.890697,7.8700705,6.241747,9.857242,-10.025435,-7.8285847,5.4342628,-10.2995615,-21.636568,10.59832,-12.5593405,10.334998,-3.9335566,1.1277318,8.348885,-0.13559832,16.746933,-41.72154,48.43302,8.901173,2.8595612,-2.4331777,-3.60347,-8.969348,14.3247385,58.026127,-9.960419,-3.952591,-1.6438969
40,-0.05894053727388382,-2.6474521160125732,77.80731201171875,-0.03005213495361971,-2.2066458229675248,89.28102220337055,3.8614037,7.8993053,6.265456,9.95113,-10.0685,-7.8439417,5.409714,-10.282667,-21.598896,10.637918,-12.566499,10.313518,-3.9171798,1.1113604,8.351849,0.22961697,16.843317,-41.646694,48.26404,8.490018,2.5217865,-2.1615052,-3.616038,-9.039037,14.232632,58.032192,-10.0262375,-3.9367077,-1.8106747
41,-0.061605941504240036,-2.6585958003997803,77.80508422851562,-0.042335487319251464,-2.2195263322631056,89.24490141091613,3.830672,7.9261694,6.2933984,10.046424,-10.117146,-7.8463707,5.386426,-10.267773,-21.560247,10.668705,-12.563302,10.310707,-3.901645,1.0873257,8.361927,0.6050231,16.935291,-41.530796,48.13669,7.7149963,2.107848,-1.6594687,-3.6356091,-9.137313,14.220061,58.02912,-10.138398,-3.8966508,-1.883543
42,-0.057912297546863556,-2.670727014541626,77.80375671386719,-0.052755984499290774,-2.2313326144667154,89.20583355717753,3.7963057,7.9526715,6.3248954,10.149753,-10.173185,-7.842118,5.362399,-10.253709,-21.51947,10.695962,-12.5536,10.319692,-3.884144,1.0583819,8.37907,0.9905522,17.021803,-41.374733,48.04686,6.659333,1.6142298,-0.97849125,-3.6641219,-9.265803,14.29301,58.02087,-10.306291,-3.836366,-1.8912681
43,-0.0624953992664814,-2.6848561763763428,77.80014038085938,-0.06437820329007428,-2.2426197641370536,89.16460741552163,3.7623932,7.977743,6.358993,10.25117,-10.227975,-7.8371696,5.338887,-10.239963,-21.476698,10.718543,-12.540558,10.33336,-3.8627868,1.0311522,8.4022665,1.3791904,17.101196,-41.16273,47.97975,5.5492105,1.0785582,-0.2508799,-3.6940064,-9.418897,14.421961,58.00937,-10.468228,-3.7796023,-1.8577234
44,-0.06546804308891296,-2.702085018157959,77.79882049560547,-0.07456531498359859,-2.2533684954695152,89.1219442544658,3.7308173,8.000757,6.39422,10.346722,-10.276766,-7.8376307,5.314554,-10.227399,-21.431875,10.73977,-12.52938,10.344287,-3.8357546,1.0094751,8.429268,1.7618977,17.171457,-40.879623,47.924397,4.6067924,0.5484437,0.3969851,-3.7218652,-9.589652,14.576916,58.001793,-10.564371,-3.7498841,-1.8084043
45,-0.07163459062576294,-2.7164089679718018,77.79724884033203,-0.08478675672365198,-2.2666600985122343,89.07614962772844,3.707869,8.020789,6.432435,10.430411,-10.3151245,-7.8498764,5.2923365,-10.215956,-21.382954,10.759263,-12.521108,10.353322,-3.8001938,0.9910193,8.463344,2.1487396,17.229574,-40.4923,47.87715,3.8941276,0.010153883,0.9428186,-3.7515483,-9.7750635,14.765096,58.00424,-10.55893,-3.7645607,-1.7353537
46,-0.07730626314878464,-2.722938299179077,77.79472351074219,-0.09377288725880428,-2.281456194253298,89.02741077214777,3.690053,8.038534,6.4735303,10.507464,-10.347552,-7.8690743,5.2712426,-10.205582,-21.330593,10.777014,-12.51377,10.36353,-3.7591832,0.97314835,8.503063,2.5391188,17.27421,-40.017548,47.848667,3.2916703,-0.5488775,1.4524987,-3.7876163,-9.975267,14.9993725,58.017097,-10.490615,-3.8073227,-1.6313707
47,-0.08688980340957642,-2.7380146980285645,77.79341888427734,-0.10268115706754871,-2.2916669056141887,88.97958192212448,3.6682353,8.054827,6.514194,10.582155,-10.3778,-7.884383,5.24826,-10.195311,-21.279339,10.7882805,-12.503993,10.370674,-3.717124,0.9598104,8.540482,2.908195,17.30602,-39.518234,47.848373,2.7448716,-1.0733104,1.9366022,-3.8218389,-10.185403,15.251625,58.03359,-10.414925,-3.8510973,-1.5224174
48,-0.09631048887968063,-2.759343385696411,77.79281616210938,-0.11208188676911143,-2.2917511352504163,88.93643240677343,3.6331315,8.070289,6.5514617,10.659577,-10.4097395,-7.8839445,5.217516,-10.185825,-21.233068,10.795168,-12.491987,10.370859,-3.675456,0.9532808,8.567395,3.2269585,17.327473,-39.061134,47.8884,2.1971593,-1.508863,2.4060428,-3.8466892,-10.398987,15.490705,58.04899,-10.388319,-3.8693647,-1.4350516
49,-0.09993989765644073,-2.7757973670959473,77.79237365722656,-0.12008561689079768,-2.2767155169592015,88.89818880327917,3.5776641,8.086607,6.585437,10.74431,-10.446366,-7.861403,5.1739893,-10.176059,-21.192612,10.796856,-12.476769,10.358848,-3.630056,0.95283055,8.577963,3.4902658,17.339582,-38.655415,47.96815,1.6122547,-1.8387681,2.890835,-3.860438,-10.612986,15.718271,58.063286,-10.43714,-3.8495317,-1.3780746
50,-0.10891246050596237,-2.7848823070526123,77.79449462890625,-0.1288861973910966,-2.2507304648534845,88.86323357923473,3.5099733,8.102485,6.6179013,10.828882,-10.4827585,-7.822874,5.1230807,-10.165711,-21.156406,10.7906475,-12.457413,10.3381605,-3.5789912,0.95624,8.577509,3.7098389,17.34252,-38.271923,48.084347,1.0244769,-2.0926368,3.3787146,-3.867334,-10.827043,15.944264,58.080223,-10.528999,-3.8078537,-1.3373326
51,-0.1189519390463829,-2.7940566539764404,77.79613494873047,-0.1358830682235375,-2.221473017988873,88.83211058550125,3.4372902,8.116065,6.645346,10.913911,-10.51935,-7.782376,5.0712714,-10.156747,-21.123629,10.781281,-12.437445,10.31783,-3.5272167,0.9635913,8.574151,3.884054,17.338943,-37.91886,48.243523,0.4840644,-2.2848396,3.8174586,-3.8682723,-11.038981,16.14755,58.10111,-10.634865,-3.7611253,-1.3051995
52,-0.12867671251296997,-2.8022892475128174,77.79769897460938,-0.14181756087971195,-2.196666961322653,88.80552880553945,3.3782375,8.124333,6.665876,10.976342,-10.543937,-7.753685,5.0334225,-10.147941,-21.09561,10.756606,-12.411371,10.3064995,-3.4772058,0.9755503,8.576606,4.0093307,17.332945,-37.608227,48.45164,0.039509397,-2.4281423,4.1548033,-3.8609657,-11.243918,16.303844,58.124306,-10.726461,-3.7262871,-1.273645
53,-0.13776950538158417,-2.811929702758789,77.80067443847656,-0.14527698511278256,-2.1788809564338885,88.7829388603733,3.3369198,8.125945,6.6778784,11.013301,-10.555413,-7.742203,5.0146513,-10.138953,-21.07118,10.711354,-12.377421,10.30922,-3.4267185,0.99038166,8.587506,4.082479,17.328287,-37.344986,48.71627,-0.29451218,-2.5172288,4.3813424,-3.8438237,-11.439525,16.401575,58.1518,-10.803894,-3.7086914,-1.2400608
54,-0.14745047688484192,-2.824631929397583,77.801513671875,-0.14627829694241168,-2.163661080268845,88.76428969032808,3.3048496,8.122666,6.6828175,11.033423,-10.558168,-7.74004,5.0075974,-10.130019,-21.050398,10.651045,-12.338012,10.320368,-3.3745372,1.0069758,8.602537,4.10729,17.32675,-37.123077,49.028687,-0.5465646,-2.5452971,4.524947,-3.8188982,-11.625746,16.453478,58.18493,-10.880874,-3.6991317,-1.2092764
55,-0.15599805116653442,-2.835036277770996,77.8042221069336,-0.14768879943846489,-2.1488650968202285,88.7507546019717,3.2761333,8.116026,6.6830297,11.043282,-10.55471,-7.7409716,5.0036993,-10.122981,-21.035042,10.588734,-12.297765,10.3332,-3.3252168,1.0251098,8.619364,4.09145,17.329826,-36.93626,49.371082,-0.7320968,-2.5221844,4.589112,-3.7917452,-11.801962,16.47341,58.223713,-10.948783,-3.692685,-1.1852379
56,-0.16716910898685455,-2.8462178707122803,77.80384063720703,-0.14698458939102316,-2.1318333036131327,88.74343820094523,3.2469263,8.1073065,6.6810775,11.045753,-10.545806,-7.738744,4.99277,-10.121167,-21.026436,10.540749,-12.262911,10.341466,-3.2833252,1.0439019,8.635561,4.043192,17.338745,-36.777645,49.72597,-0.8654733,-2.4580452,4.5770574,-3.7693374,-11.967697,16.475763,58.269966,-10.998266,-3.6845026,-1.1720725
57,-0.17728449404239655,-2.8580660820007324,77.80615997314453,-0.14685111033941592,-2.1113734776090296,88.74112867679779,3.215516,8.098148,6.679234,11.041087,-10.530426,-7.7335963,4.972753,-10.12305,-21.024368,10.506919,-12.232051,10.342088,-3.2502418,1.0656652,8.6507435,3.9588947,17.354555,-36.649403,50.097176,-0.93610746,-2.3461375,4.4732637,-3.7552497,-12.121682,16.458609,58.32784,-11.022371,-3.6715257,-1.1763498
58,-0.18617074191570282,-2.867910146713257,77.810302734375,-0.14722715267470882,-2.0889437320615443,88.74374895327682,3.184088,8.087467,6.6755686,11.028394,-10.509081,-7.7282066,4.948042,-10.128212,-21.028128,10.481406,-12.203159,10.338962,-3.22422,1.08925,8.666148,3.837734,17.378078,-36.55242,50.4895,-0.9405423,-2.183858,4.281473,-3.7462,-12.263535,16.416643,58.396366,-11.027876,-3.6570206,-1.1943631
59,-0.1944812834262848,-2.8775453567504883,77.81400299072266,-0.14558586047708005,-2.0665657720116144,88.75420677297778,3.1558886,8.072412,6.666532,11.004716,-10.481207,-7.7201657,4.9239225,-10.138111,-21.03965,10.461444,-12.177797,10.3357115,-3.205305,1.1097639,8.682379,3.6911335,17.409971,-36.47942,50.886257,-0.9046983,-1.9875121,4.033505,-3.7387383,-12.394344,16.36119,58.46859,-11.0244255,-3.6450024,-1.2145615
60,-0.20476263761520386,-2.8904852867126465,77.8155288696289,-0.1393845730435695,-2.046465548462576,88.77534413716374,3.1242344,8.051585,6.6470494,10.987131,-10.456992,-7.707085,4.9006295,-10.156271,-21.060192,10.455026,-12.162831,10.335968,-3.194405,1.1229881,8.700266,3.53198,17.450644,-36.42137,51.269634,-0.8539278,-1.7736949,3.7610204,-3.7286658,-12.515125,16.304495,58.535805,-11.02107,-3.6395676,-1.2250845
61,-0.21125437319278717,-2.900731086730957,77.81853485107422,-0.12708300671282496,-2.0286514913987745,88.8095511217796,3.0927315,8.022122,6.614561,10.967017,-10.431798,-7.683769,4.8794518,-10.184737,-21.091995,10.461313,-12.158186,10.34102,-3.1937842,1.1267419,8.720458,3.3576596,17.500776,-36.375965,51.643764,-0.78459704,-1.5383329,3.4577744,-3.715311,-12.626753,16.243448,58.59824,-11.016969,-3.6444278,-1.2205606
62,-0.21742595732212067,-2.9100422859191895,77.81861114501953,-0.11112152651267787,-2.0122471950517844,88.85477040520442,3.0618327,7.9858446,6.57195,10.942519,-10.404208,-7.652979,4.8601027,-10.221157,-21.133825,10.476574,-12.160375,10.348839,-3.2026832,1.1241715,8.742867,3.1644723,17.560684,-36.3472,52.012936,-0.68562853,-1.2759024,3.1111436,-3.699977,-12.728855,16.174435,58.658085,-11.007657,-3.6564531,-1.207697
63,-0.22342842817306519,-2.921889543533325,77.82024383544922,-0.09240767494382508,-1.9977670572090724,88.90727514774659,3.0328543,7.946629,6.5242586,10.914598,-10.375131,-7.624379,4.84352,-10.261272,-21.182068,10.497086,-12.167747,10.357958,-3.2197402,1.1148608,8.763049,2.957816,17.62341,-36.33522,52.375378,-0.5714595,-1.000566,2.7452772,-3.6917922,-12.81397,16.11092,58.72617,-10.9998665,-3.6695855,-1.1966846
64,-0.2305273711681366,-2.9336588382720947,77.82039642333984,-0.07461073743889107,-1.9856310677965308,88.9633999496237,3.0076597,7.9079757,6.476648,10.882512,-10.344681,-7.607559,4.831871,-10.300511,-21.233246,10.516212,-12.176904,10.367021,-3.2382839,1.1073394,8.788233,2.7592144,17.704409,-36.343285,52.68568,-0.46151352,-0.72481614,2.3796642,-3.674524,-12.9040365,16.060768,58.770367,-10.99192,-3.6782308,-1.1871018
65,-0.2350151091814041,-2.942796468734741,77.82121276855469,-0.05703243932112871,-1.9773206010059887,89.02292897469123,2.991998,7.870097,6.432493,10.837815,-10.310367,-7.6108932,4.8277,-10.338019,-21.286976,10.5317135,-12.18806,10.376042,-3.2636979,1.0959424,8.810949,2.556212,17.78831,-36.375248,52.977425,-0.39119205,-0.4570565,2.0218275,-3.6666481,-12.980975,16.034489,58.82102,-10.985686,-3.679779,-1.1891551
66,-0.23874349892139435,-2.9495723247528076,77.82240295410156,-0.039188846695028416,-1.9719846951497915,89.08757162236216,2.9822505,7.831339,6.3882813,10.784534,-10.273243,-7.6274056,4.8283086,-10.376634,-21.344769,10.549002,-12.203716,10.385754,-3.2934802,1.0831736,8.837735,2.3539186,17.889322,-36.430943,53.231033,-0.34350473,-0.18763085,1.6577384,-3.653917,-13.057227,16.020718,58.85671,-10.976698,-3.677923,-1.1933101
67,-0.2449948638677597,-2.9565529823303223,77.82229614257812,-0.02179271058675188,-1.967295540736593,89.15651766889171,2.9686651,7.793271,6.33885,10.739452,-10.238884,-7.643427,4.830512,-10.415159,-21.406643,10.568798,-12.221394,10.39531,-3.3283806,1.0688293,8.864049,2.1557462,17.99716,-36.493042,53.44654,-0.24265572,0.09296948,1.2873005,-3.6425726,-13.125388,16.017197,58.885242,-10.97446,-3.6748068,-1.198688
68,-0.24632903933525085,-2.967190980911255,77.82205200195312,-0.006462086057341237,-1.9610935586620013,89.22888142055257,2.9398818,7.7573256,6.2788715,10.72182,-10.214105,-7.6454554,4.8304234,-10.452932,-21.472351,10.592962,-12.239452,10.403767,-3.3667207,1.0555065,8.88887,1.9691554,18.109118,-36.54586,53.610607,-0.014755462,0.3938821,0.9082511,-3.6306236,-13.186868,16.019402,58.900845,-10.985682,-3.6726716,-1.2009571
69,-0.25028812885284424,-2.976259708404541,77.82196044921875,0.006969979414467207,-1.95197995555625,89.30657832964904,2.8872952,7.724006,6.203614,10.746146,-10.203271,-7.626372,4.823872,-10.490687,-21.543385,10.628357,-12.259777,10.411151,-3.4107323,1.0453526,8.912566,1.7956383,18.222658,-36.57897,53.716534,0.39244488,0.72657627,0.507044,-3.6182063,-13.242826,16.029324,58.899845,-11.021104,-3.6716197,-1.1980429
70,-0.24915635585784912,-2.9817421436309814,77.82200622558594,0.016883713756502938,-1.9416547854635449,89.38942804097093,2.821003,7.692132,6.117323,10.794336,-10.199295,-7.594655,4.8146563,-10.528495,-21.619442,10.67076,-12.281532,10.418037,-3.4608514,1.037148,8.934768,1.6300329,18.337328,-36.602406,53.776093,0.9298499,1.080366,0.08722938,-3.6064994,-13.294756,16.048767,58.88654,-11.074329,-3.6705916,-1.1925043
71,-0.2549348473548889,-2.9877710342407227,77.82069396972656,0.026914304066857374,-1.9313056011115293,89.47318991734043,2.7497647,7.6615157,6.027316,10.854206,-10.201215,-7.559904,4.8073735,-10.564963,-21.697065,10.712049,-12.304215,10.4238825,-3.51199,1.029982,8.954668,1.4716494,18.45297,-36.63241,53.799248,1.5192109,1.4318699,-0.32766175,-3.5915937,-13.340562,16.073711,58.86351,-11.12338,-3.669992,-1.1863784
72,-0.26168227195739746,-2.994783401489258,77.81970977783203,0.03720016878245811,-1.9227790271209118,89.55364413317726,2.6873755,7.6316466,5.941666,10.903454,-10.202784,-7.5317893,4.8077173,-10.598563,-21.772978,10.741753,-12.324964,10.428639,-3.5590332,1.0205468,8.970668,1.3195634,18.569923,-36.68449,53.79877,2.0825586,1.7591851,-0.71243984,-3.5728216,-13.379284,16.098742,58.837704,-11.14884,-3.6702123,-1.1826556
73,-0.2562789022922516,-3.005305767059326,77.81964874267578,0.04883198356853885,-1.916210099294636,89.63205690017165,2.639846,7.6016645,5.8598437,10.9277725,-10.195768,-7.5134597,4.822078,-10.626975,-21.849787,10.748343,-12.339519,10.430699,-3.600961,1.0086483,8.9819,1.1691899,18.688875,-36.7692,53.776684,2.6401315,2.0706186,-1.07142,-3.5479388,-13.408612,16.121716,58.809242,-11.13912,-3.6713955,-1.183437
74,-0.2595098316669464,-3.0073559284210205,77.81997680664062,0.05989411890641411,-1.910851931604213,89.70989985032666,2.5968044,7.5724587,5.7781034,10.947308,-10.188934,-7.4995403,4.8445954,-10.65219,-21.928095,10.742769,-12.351572,10.430776,-3.6394649,0.9945757,8.988842,1.0218427,18.80982,-36.877136,53.72765,3.2195816,2.3734226,-1.4141889,-3.5183814,-13.428305,16.1439,58.776478,-11.10846,-3.6733062,-1.1870925
75,-0.26070958375930786,-3.000671148300171,77.82067108154297,0.07089944992559159,-1.9067679852120387,89.78320802774503,2.5636396,7.5439725,5.7019506,10.954836,-10.180399,-7.486788,4.8711634,-10.675287,-22.002151,10.7312975,-12.362873,10.431399,-3.6738348,0.9789705,8.993378,0.8848988,18.931736,-36.995094,53.65093,3.7510457,2.6463566,-1.7220913,-3.4867532,-13.439524,16.167723,58.739704,-11.072052,-3.6759222,-1.1903452
76,-0.2578902840614319,-3.003936529159546,77.82003021240234,0.082099480539835,-1.9043546218202196,89.84797228326703,2.5471387,7.515729,5.6370826,10.941593,-10.167795,-7.4718857,4.897007,-10.697792,-22.066198,10.721758,-12.375591,10.43536,-3.7033744,0.96278363,8.997095,0.76477087,19.052992,-37.109642,53.546917,4.164432,2.8689857,-1.9753882,-3.4556117,-13.444004,16.196434,58.698685,-11.044603,-3.679073,-1.1895353
77,-0.25790756940841675,-3.000413656234741,77.81896209716797,0.09213974979350674,-1.9043259149168446,89.90389537827512,2.5392785,7.4920044,5.5831795,10.926781,-10.163085,-7.453242,4.9225817,-10.717237,-22.119461,10.714968,-12.39178,10.442963,-3.7302315,0.9489683,8.999722,0.6581355,19.169188,-37.226444,53.423363,4.40654,3.02956,-2.15639,-3.4238968,-13.442528,16.230858,58.650635,-11.027993,-3.680399,-1.181915
78,-0.2594161927700043,-2.9975013732910156,77.81826782226562,0.10127938236043818,-1.906382855908997,89.95288554816423,2.5446734,7.4707026,5.5385227,10.897985,-10.1582,-7.4328136,4.9520354,-10.733035,-22.1652,10.702769,-12.407391,10.452931,-3.7535477,0.935186,9.002275,0.5672834,19.289894,-37.34968,53.268295,4.5240273,3.1434968,-2.278873,-3.389035,-13.434871,16.267784,58.592747,-11.015671,-3.6808121,-1.1692079
79,-0.25755876302719116,-2.990689754486084,77.81655883789062,0.1136061010257037,-1.9087639173019464,89.99410794932092,2.565687,7.4461727,5.5032988,10.845374,-10.144804,-7.4127426,4.9776626,-10.752237,-22.202206,10.696926,-12.425356,10.465256,-3.7708013,0.9196531,9.0035515,0.493014,19.40702,-37.46128,53.084,4.601355,3.2297351,-2.367565,-3.3554428,-13.421993,16.310648,58.53467,-11.006594,-3.6847806,-1.156524
80,-0.2606216073036194,-2.984266996383667,77.81527709960938,0.1303603428063952,-1.909931504374756,90.02683810695147,2.6041012,7.412448,5.4776406,10.7601795,-10.115079,-7.395311,4.992067,-10.782176,-22.229513,10.708073,-12.447952,10.479988,-3.7791884,0.9003066,9.003667,0.4375089,19.516829,-37.54452,52.867367,4.72136,3.3068461,-2.4479368,-3.3253124,-13.404701,16.361195,58.48202,-11.000838,-3.6966095,-1.1483026
81,-0.2725297212600708,-2.9729115962982178,77.8140869140625,0.15490243506043244,-1.9097508425915917,90.04677469826377,2.672462,7.364547,5.4663076,10.61869,-10.057211,-7.3825746,4.990368,-10.827746,-22.242256,10.744084,-12.477756,10.49861,-3.7749639,0.8758031,9.001537,0.40449515,19.616146,-37.591637,52.613037,4.8965583,3.3753858,-2.5277338,-3.2993534,-13.384553,16.420027,58.43657,-10.996717,-3.7237933,-1.145376
82,-0.27686190605163574,-2.9657814502716064,77.81610107421875,0.184913076838576,-1.9088883481357302,90.05573372949299,2.7649908,7.3068705,5.467445,10.434251,-9.97952,-7.3729773,4.9785585,-10.8835335,-22.242817,10.795399,-12.512031,10.520559,-3.7612138,0.84844935,8.997073,0.38937038,19.704094,-37.612545,52.32876,5.0859485,3.4266777,-2.5925996,-3.2765832,-13.362663,16.486769,58.39558,-10.99481,-3.7618704,-1.145485
83,-0.2876589298248291,-2.958251714706421,77.81649780273438,0.21545354454644677,-1.9071815368160232,90.06191819380997,2.8593354,7.2468433,5.472017,10.247665,-9.901151,-7.3633437,4.9623137,-10.942603,-22.239935,10.853312,-12.547596,10.542963,-3.741107,0.8268602,8.98939,0.3706412,19.762722,-37.621593,52.049686,5.295255,3.4642773,-2.6337595,-3.2505178,-13.342616,16.55836,58.354893,-10.997052,-3.7969565,-1.1473253
84,-0.2973349392414093,-2.946401596069336,77.81527709960938,0.24297817880921777,-1.904375972415822,90.07363365948235,2.932861,7.192089,5.470748,10.099195,-9.84068,-7.350117,4.949617,-10.997358,-22.243227,10.904898,-12.5796795,10.563149,-3.730852,0.8027941,8.983149,0.36928836,19.828548,-37.613945,51.74818,5.526565,3.4952047,-2.647658,-3.2347963,-13.311967,16.646471,58.323837,-11.0049305,-3.815661,-1.1535635
85,-0.30709999799728394,-2.93626070022583,77.81533813476562,0.26545407992960757,-1.8995835126740686,90.09495946402355,2.9766197,7.144934,5.459466,10.002641,-9.804205,-7.3327327,4.941006,-11.046155,-22.256306,10.948738,-12.607239,10.579239,-3.724479,0.78453255,8.974604,0.36315212,19.875944,-37.596745,51.45029,5.8192754,3.5211556,-2.6304426,-3.2165153,-13.278923,16.738966,58.29424,-11.022332,-3.816049,-1.1641235
86,-0.31791532039642334,-2.9244327545166016,77.8142318725586,0.2855174493951288,-1.893208203998421,90.12086664633632,3.0035,7.10149,5.4432855,9.935804,-9.781617,-7.3135467,4.934188,-11.092082,-22.274023,10.9879875,-12.631277,10.593058,-3.7107916,0.775058,8.965051,0.3474639,19.899166,-37.576714,51.15662,6.157122,3.539013,-2.5851288,-3.1863987,-13.252533,16.82723,58.255054,-11.046993,-3.80493,-1.1753008
87,-0.33404985070228577,-2.9149861335754395,77.81239318847656,0.30432828529952904,-1.8869796881353182,90.14593648087119,3.0238008,7.0594416,5.428241,9.884691,-9.767028,-7.291774,4.9269114,-11.13822,-22.291359,11.0292635,-12.655971,10.607345,-3.7217875,0.7520733,8.953601,0.3659465,19.934774,-37.52256,50.84245,6.470439,3.5463989,-2.5152347,-3.19572,-13.194144,16.957846,58.258118,-11.074164,-3.7808275,-1.196219
88,-0.35013818740844727,-2.9025933742523193,77.81195068359375,0.3232766760588125,-1.8825856515961947,90.16462972181893,3.0434244,7.018154,5.4187236,9.843681,-9.758789,-7.269407,4.9198365,-11.185282,-22.303572,11.071279,-12.680718,10.624809,-3.7100818,0.73838437,8.948964,0.3659699,19.949821,-37.500805,50.5577,6.6753473,3.537292,-2.4177477,-3.18687,-13.149864,17.075844,58.240288,-11.105788,-3.7443461,-1.2059864
89,-0.3660122752189636,-2.8911828994750977,77.8104476928711,0.34214388824634734,-1.8787049831513973,90.1747890223387,3.0636396,6.976188,5.4173307,9.808051,-9.755004,-7.24514,4.908807,-11.235536,-22.309172,11.118564,-12.70752,10.646192,-3.6919873,0.7271489,8.948042,0.36556578,19.95356,-37.494816,50.29201,6.726469,3.5029314,-2.271965,-3.1823552,-13.106069,17.201614,58.22318,-11.140527,-3.6787102,-1.2084248
90,-0.3834141790866852,-2.8802943229675293,77.81051635742188,0.3619527302626563,-1.8749315594425766,90.17952386075193,3.0798142,6.93478,5.4211893,9.784883,-9.758418,-7.2180614,4.89537,-11.287604,-22.310764,11.169649,-12.735826,10.669993,-3.665574,0.7197131,8.951476,0.3636491,19.94786,-37.501934,50.036503,6.672062,3.4479547,-2.0854468,-3.1757638,-13.065907,17.329142,58.200428,-11.180458,-3.5899084,-1.2043997
91,-0.4030098617076874,-2.869286298751831,77.80850219726562,0.3803347437632972,-1.8746072244072758,90.18147033728324,3.096714,6.894635,5.426744,9.771709,-9.767564,-7.1928225,4.8865824,-11.338253,-22.309795,11.217765,-12.762955,10.695816,-3.6536064,0.70425075,8.951322,0.3699443,19.925138,-37.49357,49.80938,6.593557,3.3886747,-1.8994808,-3.200518,-12.997463,17.495544,58.22003,-11.218983,-3.5088048,-1.2083093
92,-0.42461952567100525,-2.8538999557495117,77.8070068359375,0.39711021531243074,-1.880980303937945,90.18304824679305,3.1193137,6.856533,5.4315834,9.764834,-9.779838,-7.171388,4.8892407,-11.385123,-22.307772,11.257617,-12.787107,10.723585,-3.6357653,0.6900926,8.960009,0.3722667,19.887333,-37.483917,49.60317,6.5618634,3.3419342,-1.7595854,-3.2235987,-12.927721,17.674505,58.241463,-11.255,-3.468769,-1.210443
93,-0.4427742660045624,-2.842698097229004,77.80381774902344,0.41032111181269576,-1.8983094758494417,90.186194580836,3.1494017,6.8214903,5.432947,9.770648,-9.798879,-7.1561995,4.91124,-11.425359,-22.306143,11.283276,-12.805551,10.754378,-3.618797,0.6802145,8.983905,0.37994945,19.836302,-37.463932,49.411884,6.607165,3.3100097,-1.6841104,-3.2398844,-12.86199,17.87512,58.259148,-11.28311,-3.4895608,-1.2149423
94,-0.46293431520462036,-2.8334357738494873,77.7999267578125,0.42160476522328855,-1.923477980237376,90.18910384284827,3.1841426,6.7886615,5.433117,9.788628,-9.824569,-7.144634,4.9463186,-11.461648,-22.303593,11.300393,-12.820468,10.788128,-3.6037266,0.67330045,9.018599,0.3927266,19.771782,-37.43509,49.23614,6.686839,3.2846704,-1.6478505,-3.256924,-12.79916,18.098059,58.27979,-11.304812,-3.5501473,-1.2205335
95,-0.4844408929347992,-2.815955400466919,77.79580688476562,0.43229325202557606,-1.949608851581845,90.18898120496459,3.2195745,6.756815,5.4360566,9.809057,-9.8514,-7.1336274,4.983123,-11.496491,-22.298178,11.313998,-12.8344345,10.822044,-3.5880263,0.66827154,9.054541,0.40467635,19.691595,-37.402527,49.07455,6.766154,3.2671847,-1.6285664,-3.277021,-12.735133,18.342777,58.300823,-11.321819,-3.6208265,-1.2188987
96,-0.5058326721191406,-2.793898582458496,77.7924575805664,0.4442200686564381,-1.96950846688378,90.18295355121667,3.2525356,6.7242618,5.4459276,9.821513,-9.873879,-7.11987,5.00947,-11.533208,-22.287853,11.331076,-12.850641,10.853303,-3.565982,0.6631047,9.082788,0.41127962,19.597193,-37.373203,48.921112,6.8106103,3.2592869,-1.6046013,-3.3029513,-12.670478,18.606176,58.319088,-11.33452,-3.6719103,-1.2007533
97,-0.5269735455513,-2.7788310050964355,77.78997802734375,0.45765022105370773,-1.9847369219948043,90.1656109276592,3.2888978,6.69329,5.4690647,9.8201,-9.89049,-7.1046286,5.026006,-11.569427,-22.266838,11.348475,-12.86773,10.878523,-3.530103,0.6582127,9.106883,0.41447082,19.496033,-37.348312,48.76799,6.775749,3.2643504,-1.569506,-3.3252664,-12.609217,18.874891,58.31093,-11.340119,-3.6940768,-1.1416441
98,-0.5483797788619995,-2.7659239768981934,77.78868865966797,0.4716054454428665,-1.9978918946054642,90.14001838379704,3.3284492,6.6637325,5.5014973,9.810322,-9.903348,-7.089015,5.0377145,-11.604376,-22.237991,11.36515,-12.885543,10.899967,-3.4882874,0.6532794,9.1270075,0.41437635,19.379576,-37.321026,48.62792,6.6939616,3.2802222,-1.5345474,-3.3525248,-12.546224,19.158916,58.294876,-11.339033,-3.703464,-1.0555872
99,-0.5737228989601135,-2.748896360397339,77.78601837158203,0.48810499120989653,-2.0035500514686078,90.11597958470138,3.358784,6.6304436,5.5322266,9.800454,-9.914157,-7.069213,5.0400066,-11.644274,-22.211975,11.385844,-12.90495,10.923976,-3.4451528,0.64897233,9.141475,0.41228348,19.254894,-37.301025,48.486504,6.6347384,3.3016038,-1.5076076,-3.3860025,-12.482071,19.471834,58.29023,-11.33706,-3.7094214,-0.98296845
100,-0.590802788734436,-2.734016180038452,77.78479766845703,0.509190035967096,-1.9963222999910513,90.10335429082063,3.3660333,6.5886126,5.550023,9.800929,-9.924995,-7.041506,5.0278354,-11.694562,-22.199455,11.4166355,-12.928355,10.9567995,-3.4104702,0.6444501,9.146287,0.41141757,19.125542,-37.291702,48.33408,6.6699553,3.322908,-1.4963086,-3.434693,-12.413599,19.833141,58.326786,-11.340388,-3.7213166,-0.96620864
101,-0.613775908946991,-2.716245412826538,77.78305053710938,0.5374922574088472,-1.9749861208176187,90.10241037344134,3.3547828,6.5351768,5.555927,9.801671,-9.932756,-7.0022464,4.9998302,-11.759058,-22.200827,11.460821,-12.957131,11.000359,-3.3943436,0.63873494,9.138239,0.4215829,18.994137,-37.290592,48.16078,6.8405786,3.345573,-1.5083011,-3.4953346,-12.336554,20.2464,58.41064,-11.369071,-3.755881,-1.045321
102,-0.6314414739608765,-2.704536199569702,77.7816390991211,0.5705158526587762,-1.9423323623902795,90.10875148532874,3.3290346,6.4734564,5.55449,9.802817,-9.938265,-6.9543657,4.9582577,-11.834118,-22.211052,11.515449,-12.990306,11.051264,-3.3908465,0.6301698,9.119616,0.4412107,18.86206,-37.29473,47.971344,7.100788,3.3717105,-1.5378946,-3.569176,-12.250378,20.70361,58.532005,-11.414379,-3.8033478,-1.1890576
103,-0.6532674431800842,-2.6890814304351807,77.77896881103516,0.6066310912414239,-1.8989906106927805,90.12487370381226,3.2799647,6.4067707,5.540706,9.818644,-9.943989,-6.9037294,4.905804,-11.914594,-22.233162,11.573549,-13.024384,11.107712,-3.3839953,0.6185534,9.096623,0.4561514,18.730936,-37.308826,47.774544,7.393279,3.3969674,-1.5733572,-3.6657782,-12.156058,21.20526,58.687714,-11.438008,-3.8331873,-1.3321873
104,-0.6720587015151978,-2.673060178756714,77.77831268310547,0.6411124491245105,-1.8453580781407357,90.15336645392057,3.1977184,6.3386245,5.5093966,9.865702,-9.9538,-6.856304,4.846283,-11.9948,-22.270136,11.625762,-13.054548,11.167717,-3.3575068,0.60415965,9.076211,0.45256826,18.60241,-37.337112,47.57829,7.660821,3.4170191,-1.602866,-3.7936785,-12.054843,21.752048,58.873024,-11.400259,-3.8151236,-1.4088695
105,-0.6918042898178101,-2.65818190574646,77.77652740478516,0.6724177055936064,-1.7703434415853616,90.18902630748465,3.068597,6.2711945,5.4635754,9.949172,-9.968479,-6.8144016,4.765152,-12.071758,-22.317333,11.671434,-13.077821,11.23331,-3.3105946,0.5920239,9.047505,0.4329394,18.4772,-37.37823,47.380493,7.9158454,3.4328833,-1.6326607,-3.9526865,-11.946796,22.359083,59.108856,-11.235613,-3.7359169,-1.4318329
106,-0.7130101323127747,-2.649679183959961,77.7747802734375,0.703603495292315,-1.6775739179183669,90.23241083745016,2.90075,6.2023306,5.404541,10.061866,-9.9867115,-6.774498,4.666263,-12.149074,-22.374823,11.714149,-13.097266,11.304594,-3.2511182,0.5807371,9.012142,0.4035959,18.355635,-37.430386,47.176083,8.179148,3.446106,-1.6660689,-4.1380124,-11.830739,23.021154,59.388042,-10.982916,-3.6133885,-1.4262724
107,-0.7362996339797974,-2.6527087688446045,77.77362823486328,0.73724401126252,-1.589562448036737,90.29458015287977,2.7232754,6.127415,5.325413,10.189944,-10.004286,-6.733229,4.5780725,-12.232807,-22.452705,11.756723,-13.119756,11.3777275,-3.1749394,0.55886185,8.99349,0.35578322,18.239077,-37.49756,46.969944,8.406328,3.4537845,-1.686879,-4.353618,-11.708526,23.707405,59.667915,-10.760821,-3.463684,-1.3445863
108,-0.7548478245735168,-2.6411564350128174,77.77203369140625,0.7769641999825868,-1.5287481356097095,90.3866250864758,2.5621421,6.042383,5.2188973,10.324256,-10.018475,-6.6875677,4.530114,-12.327856,-22.561413,11.799663,-13.1511345,11.448182,-3.0764706,0.5159464,9.015961,0.28046253,18.129341,-37.585335,46.76629,8.552837,3.4529262,-1.6786883,-4.600192,-11.583529,24.384933,59.902027,-10.688331,-3.303112,-1.1379502
109,-0.7697534561157227,-2.6374850273132324,77.77399444580078,0.8235807609467806,-1.5092462151976436,90.52357886074265,2.4267457,5.9443274,5.070703,10.472918,-10.032461,-6.6325483,4.5484557,-12.437084,-22.718887,11.836822,-13.195288,11.512397,-2.9640095,0.4482391,9.091096,0.17438358,18.027645,-37.705658,46.570034,8.569447,3.4374177,-1.6299009,-4.850779,-11.451904,25.028805,60.0965,-10.813276,-3.1051288,-0.7265837
110,-0.7820537090301514,-2.637368679046631,77.77104949951172,0.8757630107755393,-1.5165461300313687,90.69551663665555,2.3019505,5.8356886,4.8888273,10.638202,-10.046589,-6.571134,4.611835,-12.556811,-22.914919,11.869364,-13.247687,11.57321,-2.8346283,0.361077,9.204469,0.04220725,17.934196,-37.854866,46.377,8.49172,3.4107344,-1.5515192,-5.111735,-11.312461,25.658571,60.26883,-11.069118,-2.8736458,-0.15743904
111,-0.8011523485183716,-2.641547203063965,77.76863861083984,0.9301068898748871,-1.5295276376139713,90.87597983008592,2.1813562,5.721474,4.6996837,10.795174,-10.051502,-6.5121202,4.677861,-12.682792,-23.117384,11.910438,-13.303089,11.6368,-2.6675007,0.2617034,9.342429,-0.111966565,17.849018,-38.014297,46.174255,8.400394,3.3846583,-1.4619905,-5.426518,-11.1730795,26.31035,60.379436,-11.401209,-2.6699734,0.43007955
112,-0.8230422735214233,-2.6513452529907227,77.76748657226562,0.9842036847816412,-1.52717230364339,91.0385891718529,2.0518947,5.6065807,4.5290504,10.9319105,-10.044704,-6.464338,4.7010207,-12.812183,-23.293444,11.979143,-13.359338,11.709219,-2.4427676,0.15898833,9.492773,-0.28366822,17.771929,-38.163826,45.94691,8.376373,3.3710923,-1.3798743,-5.83556,-11.046969,27.021965,60.384277,-11.7518015,-2.5528712,0.89680636
113,-0.8424232602119446,-2.671074867248535,77.76661682128906,1.037153619151132,-1.5099646496455505,91.16789533964626,1.9250008,5.49137,4.391591,11.031793,-10.020104,-6.433174,4.6730204,-12.944445,-23.425428,12.079168,-13.415987,11.796926,-2.145074,0.06424128,9.664855,-0.4767021,17.701931,-38.310867,45.685326,8.472551,3.379825,-1.3036096,-6.3216,-10.939238,27.837389,60.287415,-12.167062,-2.5375369,1.2123151
114,-0.8653808236122131,-2.703341245651245,77.7650146484375,1.091685119753219,-1.4870504183761915,91.28068880807811,1.8016025,5.3737187,4.2708073,11.107849,-9.982145,-6.4128633,4.615618,-13.081294,-23.533363,12.202771,-13.475228,11.894869,-1.7900403,-0.025841406,9.863,-0.6902105,17.63831,-38.459522,45.395935,8.635936,3.4022536,-1.2262278,-6.8627806,-10.847559,28.730001,60.095047,-12.65313,-2.5921125,1.4501551
115,-0.8967840075492859,-2.73577880859375,77.7619857788086,1.14561107569232,-1.4504115419800878,91.39922823705882,1.6627527,5.253803,4.1471205,11.172932,-9.932911,-6.395576,4.5361185,-13.221419,-23.64292,12.335533,-13.529623,11.993039,-1.4026642,-0.12362255,10.067138,-0.9123273,17.58155,-38.585712,45.08576,8.7891,3.422835,-1.1581221,-7.492335,-10.773984,29.63144,59.763317,-13.089795,-2.7022212,1.6275759
116,-0.9259136319160461,-2.756527900695801,77.7601318359375,1.1973864426306797,-1.3919220877685967,91.54561944897932,1.4918013,5.1313033,4.0012794,11.234708,-9.871514,-6.373665,4.4418454,-13.363332,-23.77971,12.462245,-13.57144,12.081659,-1.0015638,-0.24237198,10.258556,-1.1335489,17.53678,-38.67397,44.758907,8.850885,3.4263003,-1.1093686,-8.239783,-10.728961,30.46566,59.241245,-13.359236,-2.8528337,1.7639699
117,-0.9505574703216553,-2.779853105545044,77.76103210449219,1.249984149049398,-1.3086845876655238,91.71709528169494,1.2868361,5.003084,3.836231,11.291474,-9.796186,-6.344515,4.32073,-13.51536,-23.940392,12.601192,-13.605016,12.161214,-0.59534764,-0.38540003,10.429626,-1.3450598,17.498407,-38.69887,44.405106,8.807774,3.4171805,-1.1077881,-9.115353,-10.709064,31.271288,58.526978,-13.411542,-3.0580363,1.9118708
118,-0.9801042079925537,-2.812134027481079,77.76496124267578,1.30240516591099,-1.205337445622947,91.90477690354213,1.0562351,4.8700285,3.6598456,11.339664,-9.7074375,-6.3127794,4.1728187,-13.675957,-24.11403,12.754097,-13.632926,12.236251,-0.16381048,-0.5456514,10.591748,-1.557812,17.469482,-38.6871,44.02454,8.696987,3.4012392,-1.1392616,-10.091182,-10.717587,32.061077,57.630394,-13.317979,-3.3183165,2.0494385
119,-1.0142030715942383,-2.8511953353881836,77.76760864257812,1.3507396789614372,-1.085392386417592,92.1215198353514,0.7990403,4.7386074,3.4600315,11.383534,-9.608026,-6.28211,4.027125,-13.827516,-24.316536,12.87794,-13.643141,12.301869,0.2780422,-0.7213826,10.746639,-1.7716677,17.453373,-38.6548,43.64456,8.526564,3.3626587,-1.152669,-11.177762,-10.751836,32.771183,56.56106,-13.130703,-3.5968833,2.0775177
120,-1.0472679138183594,-2.8962109088897705,77.77552795410156,1.3860737631623876,-0.9520151478014015,92.38023083698653,0.5136072,4.614868,3.2247052,11.42908,-9.501817,-6.2560105,3.9116077,-13.952118,-24.563303,12.930629,-13.623984,12.353052,0.6761506,-0.9050376,10.896962,-1.9582405,17.447924,-38.56781,43.275234,8.319103,3.2835312,-1.1018181,-12.397744,-10.818809,33.389805,55.324596,-12.886861,-3.855317,1.8937582
121,-1.0708128213882446,-2.9322726726531982,77.78523254394531,1.4092195055907348,-0.8018623191620186,92.68171024147115,0.19925919,4.5019827,2.953523,11.4684515,-9.383885,-6.2373033,3.8282278,-14.042876,-24.854475,12.897478,-13.569419,12.383327,1.0598736,-1.1024351,11.038889,-2.1410716,17.458834,-38.469833,42.93176,8.038603,3.1481,-0.95356125,-13.7376,-10.912672,33.856724,53.87032,-12.608103,-4.041564,1.5070425
122,-1.0864331722259521,-2.985909938812256,77.79574584960938,1.422222016997147,-0.6345658755582411,93.01990757486922,-0.14686412,4.3965797,2.651545,11.510045,-9.258969,-6.2240095,3.761217,-14.110461,-25.182568,12.80704,-13.489014,12.396848,1.4337186,-1.3164803,11.168555,-2.31591,17.486801,-38.351948,42.60195,7.6887503,2.9683197,-0.7411233,-15.197702,-11.031009,34.21244,52.217762,-12.26896,-4.191375,0.96049917
123,-1.1119964122772217,-3.0220820903778076,77.80801391601562,1.4268299521724317,-0.45834332862628036,93.39724057163446,-0.51267785,4.2931166,2.3163505,11.548358,-9.124949,-6.212606,3.7208307,-14.160478,-25.554174,12.66564,-13.386614,12.404737,1.7827948,-1.5438651,11.289825,-2.4661953,17.530567,-38.196213,42.28309,7.3263507,2.7715888,-0.5088556,-16.791634,-11.185354,34.495033,50.46605,-11.868592,-4.4048343,0.21082048
124,-1.128378987312317,-3.064718723297119,77.82413482666016,1.4270033974816734,-0.28129348197836196,93.8161168826059,-0.89274913,4.186858,1.9448849,11.591267,-8.987205,-6.199732,3.7149649,-14.19907,-25.975498,12.4838295,-13.2684355,12.417867,2.0965118,-1.7783394,11.4089155,-2.5804546,17.587461,-37.98926,41.973473,7.0065393,2.5861478,-0.30012262,-18.525694,-11.392841,34.739628,48.70253,-11.408354,-4.7840037,-0.782673
125,-1.1429895162582397,-3.099975109100342,77.84011840820312,1.4193666968522856,-0.09998701281952424,94.29232860702213,-1.2976793,4.0783653,1.5236148,11.645588,-8.84719,-6.1854596,3.7564714,-14.2217455,-26.465939,12.24146,-13.12802,12.440851,2.3609774,-2.0174317,11.520796,-2.654923,17.655022,-37.723785,41.674286,6.733818,2.409488,-0.12673622,-20.395033,-11.665465,34.97724,46.88652,-10.855809,-5.4328194,-2.1176004
126,-1.1539839506149292,-3.135279655456543,77.85228729248047,1.405639813546674,0.08812899795863174,94.81932807973914,-1.7251387,3.9699986,1.0582654,11.70382,-8.7011,-6.1724854,3.837603,-14.226299,-27.016148,11.939531,-12.9638815,12.467693,2.5827916,-2.261201,11.624712,-2.6941829,17.732048,-37.404617,41.383774,6.4825807,2.2297952,0.034125,-22.390173,-12.006413,35.195732,44.97529,-10.231968,-6.281313,-3.735737
127,-1.1661763191223145,-3.1846323013305664,77.86517333984375,1.3886102505727451,0.27395230252506064,95.36632380109408,-2.1530042,3.8598826,0.5745122,11.758104,-8.549243,-6.161179,3.9355261,-14.222462,-27.589357,11.620606,-12.790486,12.493386,2.78489,-2.5060086,11.734374,-2.7010953,17.816986,-37.039764,41.095486,6.2618647,2.0623903,0.19207312,-24.512821,-12.418479,35.367348,43.051987,-9.611398,-7.167315,-5.4465003
128,-1.1804614067077637,-3.226156234741211,77.8799057006836,1.3729093657472993,0.44823812969474003,95.90261316851081,-2.556968,3.7462454,0.098289594,11.795274,-8.389222,-6.1509247,4.0253086,-14.221953,-28.14805,11.332343,-12.624762,12.512745,2.990911,-2.747517,11.863478,-2.6791239,17.907866,-36.63853,40.803864,6.0799427,1.9224864,0.3569054,-26.767626,-12.904075,35.464397,41.202507,-9.057707,-7.9209657,-7.063999
129,-1.193023681640625,-3.2717936038970947,77.89443969726562,1.3592556737081944,0.6033162193156018,96.42537945262902,-2.9225974,3.6254945,-0.3663804,11.804364,-8.215899,-6.1410336,4.1085224,-14.229622,-28.689415,11.087001,-12.470522,12.524201,3.2088687,-2.9874651,12.0214615,-2.6352417,18.002275,-36.204845,40.514107,5.948395,1.8108307,0.5384448,-29.16702,-13.461948,35.4838,39.37151,-8.531602,-8.49126,-8.621105
130,-1.2068153619766235,-3.313873052597046,77.90736389160156,1.3450870742036443,0.7458471842799337,96.94939083753289,-3.266758,3.4997857,-0.8324967,11.797462,-8.033367,-6.131432,4.196034,-14.238208,-29.231081,10.859294,-12.319167,12.530234,3.4259672,-3.2245717,12.197061,-2.5659945,18.098394,-35.73473,40.229565,5.8583508,1.7204666,0.72950625,-31.711002,-14.091765,35.456154,37.54175,-8.008649,-8.969764,-10.19241
131,-1.2223800420761108,-3.36578369140625,77.9227066040039,1.3286290106339542,0.8881906269810791,97.4698963362901,-3.6102138,3.3744464,-1.2992116,11.791612,-7.8507624,-6.1215744,4.2773952,-14.241858,-29.767086,10.638298,-12.167277,12.532355,3.6363695,-3.4492066,12.375191,-2.459301,18.195448,-35.224705,39.939518,5.7894597,1.655123,0.91432214,-34.38626,-14.796998,35.40494,35.856327,-7.5694056,-9.391348,-11.657981
132,-1.2342796325683594,-3.4198999404907227,77.93628692626953,1.308119390087551,1.042600318382976,97.98219094716053,-3.9734807,3.2543125,-1.765537,11.802623,-7.6762033,-6.1109514,4.3440776,-14.233274,-30.29188,10.408634,-12.008822,12.53189,3.8363988,-3.652006,12.543414,-2.3058178,18.293528,-34.674038,39.63204,5.7203846,1.6185446,1.0771741,-37.184246,-15.583313,35.354637,34.457855,-7.2916903,-9.786271,-12.897346
133,-1.2477238178253174,-3.4757449626922607,77.9481430053711,1.2812832378066004,1.214984239517549,98.48609300477094,-4.3690386,3.1412675,-2.2347353,11.84203,-7.5161242,-6.0990953,4.392943,-14.206405,-30.804739,10.160826,-11.838651,12.529346,4.0276,-3.8300092,12.700748,-2.1039271,18.392056,-34.07321,39.299294,5.686044,1.6263391,1.2029088,-40.154934,-16.45361,35.295387,33.357998,-7.2000136,-10.144254,-13.81253
134,-1.2528373003005981,-3.524639368057251,77.96147155761719,1.2502099332625949,1.3979381474779988,98.98383292505612,-4.783994,3.0307226,-2.7057886,11.89985,-7.365129,-6.0856237,4.4296727,-14.16579,-31.30855,9.901925,-11.659513,12.523891,4.22237,-3.9856153,12.85953,-1.8664771,18.489683,-33.435295,38.94768,5.68337,1.6719136,1.3030046,-43.274303,-17.400139,35.223633,32.47075,-7.266387,-10.447358,-14.492419
135,-1.262956976890564,-3.574491024017334,77.97632598876953,1.2189693717608654,1.5842794465087102,99.47375724843656,-5.19923,2.9187667,-3.1711986,11.956947,-7.213255,-6.070496,4.455823,-14.123038,-31.802185,9.650142,-11.482628,12.515212,4.4117856,-4.1215672,13.020876,-1.5880451,18.586887,-32.77336,38.581375,5.634679,1.7250648,1.4029342,-46.518673,-18.428757,35.2445,31.856117,-7.396678,-10.719833,-15.098033
136,-1.2813868522644043,-3.6243081092834473,77.98848724365234,1.1915919552140621,1.7666196247231707,99.95440161042262,-5.5989366,2.8024883,-3.6240187,12.001124,-7.053401,-6.054018,4.477138,-14.086614,-32.286095,9.414529,-11.315114,12.502542,4.630117,-4.2356963,13.202676,-1.2985616,18.683462,-32.13682,38.214054,5.464057,1.7559304,1.5268391,-49.715656,-19.517477,35.336224,31.470098,-7.6473203,-10.97709,-15.788497
137,-1.2948542833328247,-3.6752517223358154,78.00054931640625,1.16921411988314,1.939644732778398,100.42091431569774,-5.9755664,2.68162,-4.058797,12.033412,-6.8869243,-6.033849,4.4941497,-14.061143,-32.754616,9.204253,-11.162623,12.483465,4.8148665,-4.3357396,13.387556,-0.939043,18.78089,-31.465805,37.8247,5.1199737,1.7541391,1.6987934,-53.092857,-20.706347,35.69721,31.456408,-7.830752,-11.235575,-16.605713
138,-1.3134900331497192,-3.71581768989563,78.01648712158203,1.149002301896421,2.1084403472048936,100.87551953005845,-6.340605,2.5581973,-4.4807286,12.061772,-6.7174273,-6.0104494,4.5062466,-14.039404,-33.21012,9.007542,-11.018063,12.458952,5.0412197,-4.414845,13.600415,-0.57427746,18.876688,-30.816853,37.432255,4.655531,1.7360047,1.8981088,-56.485657,-21.963453,36.13631,31.65792,-8.160503,-11.472366,-17.464632
139,-1.3322207927703857,-3.7658982276916504,78.03327178955078,1.1301863554327016,2.281563023351946,101.32793719615982,-6.699264,2.4328666,-4.898112,12.071101,-6.536883,-5.988963,4.510378,-14.018458,-33.663216,8.816301,-10.8751955,12.433753,5.2822437,-4.4765797,13.823553,-0.19856615,18.97276,-30.186583,37.0446,4.1450224,1.7090921,2.0903394,-59.889095,-23.283358,36.70798,32.058674,-8.495816,-11.682619,-18.33913
140,-1.3400628566741943,-3.821521282196045,78.0455322265625,1.1123285295076948,2.467472220126625,101.78771581371352,-7.0586243,2.3056061,-5.319097,12.049246,-6.337806,-5.9744954,4.50571,-13.993934,-34.12487,8.616847,-10.725036,12.412559,5.5433426,-4.5223513,14.052299,0.16766264,19.071665,-29.596739,36.67582,3.6655736,1.6826553,2.2395968,-63.213936,-24.648212,37.375565,32.601128,-8.798532,-11.859083,-19.202667
141,-1.3525909185409546,-3.86801815032959,78.05998992919922,1.0927542711023654,2.668675224819507,102.25575609004505,-7.422098,2.1808891,-5.7447257,11.994843,-6.1193123,-5.971755,4.4901175,-13.960884,-34.595222,8.404932,-10.564309,12.393901,5.812454,-4.549343,14.280399,0.53300524,19.178164,-29.044216,36.31929,3.2391968,1.6632949,2.3225732,-66.49727,-26.053648,38.15432,33.315765,-9.067837,-11.990548,-20.099714
142,-1.3652747869491577,-3.9243438243865967,78.07329559326172,1.0728657032010505,2.8805425737562937,102.72741806908554,-7.785362,2.057403,-6.171016,11.913931,-5.885219,-5.976899,4.465595,-13.922225,-35.069405,8.186104,-10.397495,12.376113,6.0952554,-4.562203,14.513977,0.90168184,19.294891,-28.522959,35.970585,2.824863,1.6460079,2.3633814,-69.78833,-27.49535,39.05628,34.22797,-9.324707,-12.082832,-21.02738
143,-1.3756412267684937,-3.957288980484009,78.09200286865234,1.0580751432279476,3.1004773352189257,103.20402626894047,-8.138563,1.9283123,-6.5987515,11.795006,-5.630072,-5.9823604,4.4351096,-13.887168,-35.550133,7.966255,-10.228345,12.363584,6.37507,-4.573413,14.744718,1.2899963,19.41812,-28.009972,35.635494,2.402296,1.622071,2.3967807,-72.972015,-28.970488,40.053722,35.22484,-9.5481205,-12.162272,-21.89173
144,-1.3777689933776855,-4.010448455810547,78.10858154296875,1.0537385748294605,3.3261616041227438,103.68709371214408,-8.475865,1.7872818,-7.02903,11.633513,-5.351937,-5.9806366,4.403363,-13.863448,-36.04035,7.7464466,-10.058402,12.360829,6.687111,-4.5953393,14.98841,1.6608976,19.544758,-27.526892,35.341007,1.9534316,1.5827101,2.4604619,-76.04733,-30.457005,41.105167,36.326187,-9.700719,-12.251306,-22.592873
145,-1.389750599861145,-4.048245906829834,78.1255874633789,1.0648928890754144,3.556817644003589,104.18105142710004,-8.79101,1.6269865,-7.464096,11.418344,-5.044673,-5.9663343,4.371542,-13.861496,-36.546696,7.5343127,-9.891966,12.372443,7.0011272,-4.630414,15.234767,2.043979,19.67067,-27.048775,35.068623,1.4703609,1.5263538,2.5585551,-79.01998,-31.95065,42.21314,37.55202,-9.769611,-12.385551,-23.135544
146,-1.4063317775726318,-4.081587314605713,78.14207458496094,1.0886238965832216,3.7934638939706,104.68387094841822,-9.08976,1.4538051,-7.9025226,11.157156,-4.7120123,-5.9445815,4.2787967,-13.918666,-37.050735,7.4769444,-9.805228,12.395795,7.3130736,-4.6724615,15.480717,2.4414985,19.795273,-26.575926,34.81833,0.9650586,1.4568493,2.6733005,-81.926125,-33.45013,43.391113,38.924763,-9.77497,-12.543059,-23.5629
147,-1.4208682775497437,-4.1156721115112305,78.16206359863281,1.1131138990080685,4.03589245655928,105.18710352683195,-9.375283,1.2830328,-8.340661,10.857882,-4.359076,-5.9238772,4.1671586,-13.986301,-37.551285,7.4549847,-9.735746,12.422616,7.638584,-4.7200527,15.726357,2.8325024,19.918179,-26.117188,34.62457,0.44781098,1.3716801,2.807615,-84.71386,-34.944187,44.614456,40.37607,-9.75342,-12.666582,-23.838675
148,-1.4264250993728638,-4.155543804168701,78.18168640136719,1.1294157518226027,4.284118424611581,105.6821247595679,-9.652528,1.129212,-8.774519,10.531568,-3.99258,-5.912492,4.047339,-14.036769,-38.03863,7.427353,-9.663006,12.44407,7.991192,-4.772122,15.972605,3.1978214,20.039976,-25.679127,34.51891,-0.07075533,1.2685841,2.9645905,-87.33973,-36.416115,45.854397,41.848167,-9.735641,-12.695724,-23.92694
149,-1.4306765794754028,-4.194055557250977,78.19807434082031,1.133059807680904,4.539826697392881,106.16615458171256,-9.918542,0.9990563,-9.205928,10.168718,-3.6091743,-5.9168677,3.9171624,-14.062525,-38.509716,7.391422,-9.585681,12.461054,8.362169,-4.825536,16.218243,3.5467672,20.162188,-25.25314,34.500114,-0.610852,1.1347122,3.147257,-89.81045,-37.85435,47.096474,43.374176,-9.697779,-12.630559,-23.843285
150,-1.4408320188522339,-4.222325325012207,78.21533203125,1.1299728023906375,4.802307906171281,106.64366880516643,-10.170606,0.8850517,-9.636228,9.764395,-3.2055976,-5.9310365,3.779566,-14.072717,-38.971123,7.348588,-9.504472,12.476926,8.735739,-4.881685,16.461147,3.898364,20.28483,-24.82701,34.545197,-1.1706483,0.974592,3.3520784,-92.164696,-39.25548,48.348633,44.995598,-9.637655,-12.496243,-23.600288
151,-1.439583659172058,-4.254374980926514,78.23759460449219,1.1269313618494499,5.068646916566541,107.11755947037604,-10.415385,0.77845734,-10.060484,9.338804,-2.7892497,-5.944697,3.6362162,-14.078902,-39.426334,7.304753,-9.420831,12.488911,9.113528,-4.9458175,16.700615,4.2471366,20.405077,-24.400953,34.653034,-1.7061855,0.8116107,3.5730293,-94.394005,-40.61517,49.603527,46.669724,-9.628464,-12.274156,-23.159155
152,-1.4349884986877441,-4.290048122406006,78.25824737548828,1.1284201432043144,5.335812643811788,107.59089748064916,-10.659675,0.6703434,-10.473906,8.912232,-2.3680527,-5.9477496,3.4906204,-14.090265,-39.878998,7.262973,-9.336211,12.493598,9.497779,-5.0220904,16.936205,4.5854807,20.518349,-23.975864,34.82461,-2.1733367,0.6697464,3.8050678,-96.490036,-41.929703,50.858047,48.356033,-9.74298,-11.947709,-22.479662
153,-1.4419025182724,-4.318973064422607,78.27687072753906,1.1371677607168813,5.606878303254213,108.0665475606764,-10.908582,0.5563642,-10.877352,8.486307,-1.9406588,-5.935366,3.3392248,-14.111369,-40.331863,7.2259827,-9.25212,12.486135,9.884197,-5.112956,17.165724,4.917447,20.620205,-23.549334,35.065025,-2.5826113,0.53754646,4.075215,-98.45572,-43.198994,52.122288,50.09529,-10.0389,-11.504959,-21.54192
154,-1.4401438236236572,-4.345007419586182,78.29548645019531,1.1498364905037997,5.881982729163753,108.54238586425478,-11.155587,0.44186312,-11.272647,8.047993,-1.5022938,-5.913709,3.1819692,-14.135765,-40.78232,7.1902833,-9.166783,12.469483,10.266942,-5.2111163,17.389082,5.2483954,20.707783,-23.116705,35.37131,-2.9490147,0.40782765,4.3768916,-100.30132,-44.423916,53.39008,51.909084,-10.472073,-10.963406,-20.369465
155,-1.4325182437896729,-4.384011745452881,78.3174057006836,1.1624354835501238,6.1536239708314415,109.01379636585243,-11.39458,0.33092538,-11.655149,7.604413,-1.0594761,-5.8884873,3.0260696,-14.158283,-41.22638,7.1558247,-9.080305,12.452125,10.6469555,-5.3077354,17.60909,5.569968,20.779991,-22.677124,35.73505,-3.2373633,0.31181982,4.65553,-102.03243,-45.60256,54.6417,53.73013,-10.961638,-10.352129,-18.98506
156,-1.426167607307434,-4.424304008483887,78.33820343017578,1.1716712686747757,6.414659195781469,109.47665326914915,-11.618153,0.22810794,-12.020403,7.158925,-0.61646396,-5.8654714,2.8782973,-14.174888,-41.659325,7.12121,-8.991089,12.442987,11.025308,-5.394953,17.829336,5.8748984,20.836843,-22.229239,36.14609,-3.412213,0.28162864,4.856832,-103.64859,-46.730904,55.849995,55.491806,-11.429039,-9.696694,-17.412827
157,-1.4219269752502441,-4.4632086753845215,78.35309600830078,1.1774622121974283,6.6622857015869625,109.93314816034507,-11.819294,0.13559991,-12.376834,6.701197,-0.16743623,-5.845085,2.742856,-14.185534,-42.084423,7.0866127,-8.899463,12.445391,11.394525,-5.4709706,18.054876,6.1729503,20.875973,-21.759857,36.598698,-3.4551663,0.3356511,4.956305,-105.157295,-47.80634,56.992657,57.19628,-11.877151,-8.988094,-15.55971
158,-1.422041654586792,-4.490829944610596,78.3685073852539,1.1799767695140133,6.900896165082337,110.38482361570694,-12.1880045,0.006961744,-12.723025,6.6335397,0.076316394,-5.82211,2.6152425,-14.192634,-42.50258,7.0513015,-8.8047,12.454233,11.751364,-5.5385823,18.282307,6.4687595,20.896175,-21.269524,37.095455,-3.3880978,0.45459163,4.985619,-106.55683,-48.829613,58.082962,58.88708,-12.352313,-8.223716,-13.444437
159,-1.4183404445648193,-4.52529764175415,78.38792419433594,1.1802063570950563,7.133977349659307,110.82523686263445,-12.562189,-0.119315155,-13.04144,6.59875,0.30248386,-5.8002715,2.4887156,-14.196246,-42.90618,7.0173025,-8.707861,12.466019,12.105041,-5.596265,18.502684,6.7469354,20.901257,-20.778788,37.63757,-3.2383072,0.6140733,4.9755654,-107.83781,-49.80214,59.15488,60.561165,-12.832034,-7.432276,-11.259366
160,-1.4152281284332275,-4.568045139312744,78.40438842773438,1.1763685244112863,7.365035913075583,111.24801471781895,-12.929308,-0.23784818,-13.314834,6.5644364,0.5274828,-5.781443,2.3555443,-14.197641,-43.28737,6.9898605,-8.611794,12.47691,12.465585,-5.643021,18.70778,6.9922543,20.897945,-20.30922,38.22524,-3.0338633,0.7897308,4.9567156,-108.99233,-50.7261,60.243065,62.214893,-13.288389,-6.6376195,-9.196293
161,-1.4080978631973267,-4.599170684814453,78.42261505126953,1.1624903581924615,7.597200903929474,111.65597360789788,-13.295884,-0.34084746,-13.538919,6.535318,0.7446508,-5.773928,2.214614,-14.188047,-43.648117,6.9645233,-8.511202,12.485259,12.831708,-5.675486,18.896097,7.2006,20.89319,-19.858402,38.87114,-2.8042,0.96578765,4.926972,-110.011505,-51.60657,61.432686,63.874916,-13.652524,-5.857381,-7.284474
162,-1.405451774597168,-4.6397013664245605,78.43849182128906,1.1399234970909267,7.828047255926255,112.05082225106402,-13.658839,-0.4302704,-13.723463,6.508902,0.957209,-5.774731,2.06891,-14.171037,-43.99103,6.9422455,-8.407499,12.493274,13.199801,-5.694369,19.072462,7.3824472,20.88576,-19.419575,39.566097,-2.529983,1.1582708,4.872367,-110.91469,-52.446217,62.692116,65.54406,-13.953784,-5.069252,-5.4282775
163,-1.4096003770828247,-4.676957607269287,78.45486450195312,1.1227635108661602,8.052940321803845,112.42574762085377,-14.0104885,-0.5184611,-13.872265,6.4833302,1.1733159,-5.768272,1.92073,-14.161742,-44.31065,6.9234705,-8.305925,12.50344,13.576547,-5.704413,19.238935,7.5453377,20.868914,-19.003902,40.274483,-2.1638515,1.3911426,4.8053913,-111.71682,-53.243053,63.855194,67.17801,-14.322351,-4.2400393,-3.6278539
164,-1.411564588546753,-4.710617542266846,78.47073364257812,1.1240019439839097,8.267114060662982,112.77377489275318,-14.343905,-0.61963105,-13.988279,6.45848,1.4011866,-5.7385964,1.7703367,-14.177079,-44.600994,6.914258,-8.215207,12.517861,13.966833,-5.713245,19.398232,7.6961617,20.836481,-18.62072,40.962387,-1.657401,1.6881888,4.738234,-112.42399,-53.99431,64.75819,68.72953,-14.88099,-3.344953,-1.8779442
165,-1.4122756719589233,-4.748505592346191,78.48928833007812,1.1511900389487384,8.474521851554785,113.0833094531595,-14.660981,-0.7407931,-14.045586,6.433936,1.6507696,-5.6683702,1.6079813,-14.226668,-44.850067,6.914457,-8.134595,12.536461,14.3811865,-5.736375,19.55353,7.837533,20.78523,-18.254606,41.634808,-0.9765503,2.0561702,4.6863394,-112.99051,-54.700546,65.36937,70.193054,-15.709094,-2.3191733,-0.1269492
166,-1.41173255443573,-4.781285285949707,78.50361633300781,1.1960256779433436,8.676086250234835,113.36153588178595,-14.96492,-0.87394947,-14.050672,6.40957,1.9159553,-5.5701766,1.4357888,-14.301045,-45.064327,6.9234066,-8.061355,12.558486,14.811177,-5.76705,19.704899,7.965669,20.718113,-17.90188,42.304417,-0.15156515,2.4818978,4.635539,-113.41099,-55.365643,65.76253,71.59751,-16.729128,-1.2121795,1.6197572
167,-1.4064263105392456,-4.817151069641113,78.52179718017578,1.2447703344874403,8.862712747813182,113.62986488676229,-15.251649,-1.0103396,-14.056154,6.3880367,2.1781964,-5.473239,1.2759371,-14.382431,-45.266575,6.9349184,-7.995309,12.584494,15.235303,-5.774172,19.849218,8.077229,20.63834,-17.593142,42.948307,0.7678829,2.9586964,4.552356,-113.72859,-55.99137,65.90128,72.93539,-17.843224,-0.16197315,3.2820194
168,-1.4102040529251099,-4.87401819229126,78.53805541992188,1.285270222382413,9.02496914215417,113.90916401789005,-15.514721,-1.1422354,-14.114606,6.368202,2.4211493,-5.4067097,1.1520652,-14.452049,-45.479336,6.9394813,-7.934697,12.615018,15.631539,-5.730548,19.983334,8.171302,20.552538,-17.356035,43.54165,1.7332215,3.4793088,4.404118,-113.984375,-56.579773,65.74895,74.200035,-18.938408,0.69955015,4.7686787
169,-1.4157980680465698,-4.915900230407715,78.55280303955078,1.3148935749627537,9.159276804043463,114.19834068767608,-15.75006,-1.2691079,-14.239743,6.350395,2.6431856,-5.383862,1.0675457,-14.509732,-45.70416,6.9402823,-7.8814282,12.651882,16.013088,-5.6247697,20.114641,8.233194,20.461931,-17.206717,44.077232,2.798612,4.08547,4.1746492,-114.18627,-57.128654,65.16607,75.413826,-19.9831,1.3501531,6.043572
170,-1.4219192266464233,-4.9468536376953125,78.5662841796875,1.3395807205594201,9.271191815942702,114.48825861065067,-15.961709,-1.3953736,-14.404103,6.3357353,2.8514016,-5.387219,1.0133477,-14.560236,-45.9313,6.9324164,-7.8311324,12.69417,16.378077,-5.4827204,20.242043,8.280167,20.372805,-17.114647,44.558113,3.971711,4.7635407,3.877791,-114.30608,-57.64385,64.28318,76.56627,-20.94372,1.865589,7.1533103
171,-1.421634316444397,-4.997841835021973,78.57307434082031,1.3588064990640953,9.364903774684118,114.7883142248139,-16.155846,-1.5214251,-14.598558,6.323398,3.043513,-5.399881,0.982345,-14.6067,-46.163506,6.9295483,-7.7919674,12.738296,16.721432,-5.2952967,20.356955,8.313628,20.285044,-17.096733,44.999275,5.1235046,5.422362,3.5302541,-114.27004,-58.124702,63.061516,77.62721,-22.110056,2.2536626,8.125975
172,-1.4228405952453613,-5.039207458496094,78.57530212402344,1.3708613221266723,9.445374622517068,115.10727608906048,-16.338844,-1.6473954,-14.813525,6.313483,3.2160263,-5.4049196,0.9741799,-14.645169,-46.405373,6.923915,-7.7603292,12.780572,16.976088,-5.1185555,20.43773,8.404945,20.224485,-17.08024,45.380875,6.1355987,5.974714,3.1578825,-114.14483,-58.60187,62.203617,78.53406,-23.047842,2.5380266,8.981128
173,-1.424139142036438,-5.087940216064453,78.57490539550781,1.3742602321796176,9.512022622483327,115.45362496939195,-16.513897,-1.7724894,-15.057144,6.309916,3.3634925,-5.3982363,0.99055517,-14.672977,-46.659,6.9198227,-7.739249,12.823797,17.169813,-4.909197,20.483543,8.514091,20.183867,-17.14446,45.728672,6.9543605,6.4025335,2.7800884,-113.942856,-59.080635,61.537018,79.3458,-23.667606,2.6817844,9.849654
174,-1.4308677911758423,-5.134024620056152,78.5711441040039,1.3687556884589016,9.563181069945893,115.82047750683559,-16.6763,-1.8971746,-15.330808,6.310386,3.4896054,-5.3885818,1.0329034,-14.690879,-46.922474,6.9135184,-7.726014,12.868736,17.317547,-4.668194,20.502283,8.627988,20.159515,-17.286594,46.042007,7.650446,6.7521024,2.3860679,-113.664894,-59.565563,60.96518,80.05874,-24.040041,2.6999576,10.671697
175,-1.4394323825836182,-5.18405818939209,78.56266784667969,1.3611903844608215,9.601617530137839,116.19457508405895,-16.824907,-2.0236876,-15.616028,6.3121195,3.6024916,-5.378796,1.0917612,-14.707745,-47.191452,6.9110208,-7.7231154,12.908658,17.41993,-4.4250784,20.497635,8.764935,20.151981,-17.442493,46.30742,8.26511,7.0321164,1.9531575,-113.26866,-60.0649,60.600685,80.57099,-24.717865,2.6645384,11.203152
176,-1.45120370388031,-5.23435115814209,78.5511245727539,1.3565351392111666,9.629626960541785,116.56244151834277,-16.957336,-2.1539478,-15.894204,6.3119597,3.7097325,-5.371517,1.1610092,-14.72915,-47.462208,6.9088564,-7.727824,12.936868,17.47956,-4.2066984,20.472944,8.942012,20.16092,-17.55161,46.512756,8.838621,7.250181,1.4579293,-112.727936,-60.586357,60.604435,80.78619,-26.222729,2.6450353,11.203885
177,-1.4636789560317993,-5.288701057434082,78.53820037841797,1.3544599334409844,9.64798798266994,116.92804014909319,-17.074522,-2.2905447,-16.169817,6.3092117,3.8128166,-5.3710413,1.240313,-14.757496,-47.73942,6.9121304,-7.747939,12.949327,17.487139,-4.0122414,20.426102,9.171276,20.18459,-17.598663,46.649136,9.409329,7.4012794,0.86037797,-111.982155,-61.13743,61.085056,80.64139,-29.25251,2.67633,10.401706
178,-1.4743138551712036,-5.340580940246582,78.5230484008789,1.3525626765740757,9.655287528418016,117.29592438530553,-17.177702,-2.4317696,-16.44989,6.30696,3.9068778,-5.3746905,1.333266,-14.788773,-48.023582,6.9180655,-7.7802014,12.950411,17.45356,-3.8273847,20.35793,9.430328,20.221218,-17.624968,46.73351,9.946173,7.4828763,0.1880554,-111.08628,-61.717957,61.97656,80.21064,-33.327103,2.7971108,8.99244
179,-1.490216612815857,-5.394761085510254,78.51304626464844,1.3526844883651203,9.650796945284709,117.65385563293945,-17.264076,-2.57304,-16.718622,6.303143,3.9936686,-5.3742476,1.4359729,-14.822744,-48.303585,6.925065,-7.8148227,12.946117,17.41677,-3.6494517,20.278526,9.677112,20.267153,-17.665113,46.79443,10.381745,7.507355,-0.48267514,-110.176506,-62.31436,63.05343,79.60721,-37.316456,3.0357487,7.447484
180,-1.5105246305465698,-5.4422760009765625,78.502685546875,1.3524845388612965,9.634027814493738,117.98985563674954,-17.332916,-2.709377,-16.96086,6.298497,4.0738573,-5.36179,1.5440962,-14.859238,-48.568527,6.9327626,-7.8422804,12.941971,17.401484,-3.4780517,20.195812,9.884023,20.318342,-17.738422,46.850323,10.650265,7.4894004,-1.0775899,-109.36867,-62.90764,64.07404,78.93196,-40.090084,3.309334,6.2329783
181,-1.5290158987045288,-5.50060510635376,78.49142456054688,1.3560955021291887,9.60684312951768,118.30945492066026,-17.387123,-2.8446174,-17.177914,6.293113,4.145154,-5.3321953,1.6599561,-14.900021,-48.82735,6.9388556,-7.862828,12.94176,17.390974,-3.3306708,20.103485,10.07493,20.381687,-17.817316,46.879276,10.708279,7.4184155,-1.5839336,-108.672966,-63.492252,65.1148,78.14002,-41.122555,3.5254447,5.412878
182,-1.5463247299194336,-5.556498050689697,78.48094177246094,1.3604796371342636,9.568870434269018,118.61620797788265,-17.427692,-2.9792316,-17.376375,6.2892385,4.2069297,-5.2905827,1.7889673,-14.939093,-49.0832,6.930003,-7.872358,12.941448,17.372692,-3.2033653,20.000683,10.264139,20.459616,-17.89331,46.87043,10.598036,7.295895,-2.0404918,-108.02915,-64.06587,66.24827,77.203415,-41.098198,3.697567,4.747956
183,-1.5686442852020264,-5.618215084075928,78.47222900390625,1.3636680091519868,9.51633574016958,118.89483658111443,-17.445261,-3.1048198,-17.54773,6.2800064,4.2674813,-5.243999,1.9110457,-14.990835,-49.311104,6.9556284,-7.8928294,12.936029,17.367485,-3.070737,19.901075,10.417822,20.539024,-18.00263,46.85758,10.385615,7.1539545,-2.4505463,-107.437355,-64.61244,67.21369,76.23622,-40.720177,3.8486474,4.2401323
184,-1.590874433517456,-5.679112434387207,78.46653747558594,1.3629067361056992,9.445564293681786,119.13032018733142,-17.438086,-3.2141151,-17.68392,6.274821,4.3268266,-5.2000256,2.0364778,-15.034035,-49.49453,6.9717703,-7.8961806,12.919544,17.384214,-2.9167264,19.816484,10.513755,20.605755,-18.162632,46.8706,10.144355,7.0237174,-2.8155806,-106.8742,-65.113686,67.73056,75.34517,-40.682785,4.0217566,3.8931534
185,-1.6080245971679688,-5.742565155029297,78.46453857421875,1.355512094635401,9.353429364849404,119.32453211379128,-17.40186,-3.3066864,-17.785103,6.2695646,4.392442,-5.161726,2.163308,-15.073021,-49.634125,6.993242,-7.892786,12.885807,17.421589,-2.7329178,19.753044,10.540417,20.653753,-18.374363,46.914364,9.8598175,6.908216,-3.148466,-106.35036,-65.55032,67.5914,74.58383,-41.193096,4.2326035,3.8000844
186,-1.6262099742889404,-5.815887928009033,78.46280670166016,1.3452593478285633,9.242770878804048,119.48387507165151,-17.340284,-3.3860714,-17.855022,6.2644243,4.4599915,-5.124777,2.2912524,-15.111967,-49.738262,7.0227027,-7.8853207,12.839112,17.458818,-2.5434263,19.700867,10.527301,20.692432,-18.605043,46.96805,9.510403,6.7931323,-3.4434257,-105.8476,-65.91792,66.96293,73.88566,-41.872044,4.457267,3.927198
187,-1.6486555337905884,-5.886467456817627,78.46617126464844,1.331154015562138,9.1184355196412,119.59860349438114,-17.25719,-3.45032,-17.89031,6.2617197,4.5192113,-5.0852537,2.4147925,-15.1514435,-49.79558,7.054686,-7.866028,12.789434,17.489557,-2.3667943,19.649563,10.500289,20.726679,-18.843397,47.02869,9.152033,6.6823764,-3.674914,-105.31154,-66.22186,66.09705,73.18745,-42.582325,4.683544,4.09486
188,-1.6786803007125854,-5.956730842590332,78.47154235839844,1.3133332058771452,8.985405264728277,119.65933032622024,-17.154722,-3.4967031,-17.8881,6.2596197,4.561913,-5.0393724,2.5264099,-15.193014,-49.79481,7.0898485,-7.8296623,12.746985,17.510689,-2.2158644,19.58893,10.477279,20.756413,-19.084866,47.099884,8.840785,6.5788245,-3.8162715,-104.691246,-66.4754,65.246666,72.42286,-43.191406,4.9045286,4.1226397
189,-1.7088632583618164,-6.027173042297363,78.4764175415039,1.2919231658562749,8.84513757330655,119.66215865975376,-17.034075,-3.5241468,-17.849615,6.258606,4.5863667,-4.9862256,2.6217542,-15.236415,-49.729107,7.1277657,-7.770594,12.709889,17.53255,-2.0764222,19.512768,10.441834,20.77407,-19.359772,47.19989,8.556673,6.475267,-3.8475294,-103.98777,-66.68194,64.41088,71.58822,-43.697567,5.106117,3.9981287
190,-1.7410229444503784,-6.097188472747803,78.48209381103516,1.2681878034409018,8.694888954446899,119.61252003677671,-16.893967,-3.5347772,-17.775623,6.259361,4.597158,-4.927808,2.7053359,-15.282124,-49.605682,7.1694384,-7.693103,12.674276,17.559877,-1.9385722,19.427172,10.380481,20.774092,-19.6721,47.33098,8.281304,6.3713,-3.7862303,-103.24308,-66.83835,63.511,70.7196,-44.147255,5.293903,3.8060246
191,-1.774903416633606,-6.1601715087890625,78.48960876464844,1.2424504961305822,8.532805272997924,119.5152258954425,-16.732077,-3.5296452,-17.66263,6.2618823,4.5931144,-4.8642483,2.7848892,-15.329594,-49.434513,7.2112885,-7.6043615,12.64672,17.580465,-1.8209435,19.339758,10.314669,20.758888,-19.97838,47.474136,8.071584,6.279917,-3.661337,-102.47119,-66.95458,62.68481,69.79734,-44.482853,5.5003433,3.5154793
192,-1.8139362335205078,-6.230050563812256,78.49627685546875,1.2169267561186923,8.357013203167481,119.37485879976035,-16.547667,-3.5110908,-17.506847,6.268822,4.57258,-4.7957773,2.8678432,-15.379522,-49.22498,7.2520146,-7.5122705,12.634741,17.583933,-1.7220128,19.261719,10.275329,20.73138,-20.242191,47.589954,7.9799075,6.213598,-3.5105991,-101.757225,-67.01872,62.14693,68.84659,-44.63405,5.747395,3.0990098
193,-1.851264238357544,-6.2912678718566895,78.50128173828125,1.192854645354801,8.161431571084417,119.18889078701702,-16.332563,-3.478962,-17.30208,6.2801647,4.5324793,-4.7177935,2.96325,-15.432518,-48.982906,7.28929,-7.4158707,12.646914,17.570927,-1.6774068,19.195673,10.251447,20.69437,-20.453003,47.71553,8.049602,6.1782765,-3.3023658,-100.99556,-67.07336,61.914597,67.81795,-44.540516,6.06509,2.4707081
194,-1.8916122913360596,-6.35768461227417,78.5073013305664,1.170983214338735,7.948502114948065,118.9559800301101,-16.089975,-3.433136,-17.051626,6.2959375,4.474055,-4.631646,3.0639732,-15.488896,-48.701485,7.3286476,-7.3139925,12.678057,17.565369,-1.6587684,19.135818,10.206542,20.634462,-20.660936,47.877327,8.239179,6.1670237,-3.028422,-100.19994,-67.143394,61.92081,66.7061,-44.24366,6.425433,1.6751332
195,-1.9291645288467407,-6.419397830963135,78.51336669921875,1.1481736500830437,7.7295211640169095,118.68242361391528,-15.832458,-3.3739915,-16.76668,6.3124247,4.4043245,-4.5468745,3.156751,-15.544803,-48.373295,7.367938,-7.207386,12.714564,17.55046,-1.6482189,19.080042,10.186085,20.571312,-20.838398,47.991043,8.489104,6.1763244,-2.7529063,-99.43559,-67.190735,62.01626,65.5232,-43.85638,6.7909365,0.85854083
196,-1.9684474468231201,-6.467334270477295,78.5201644897461,1.1234905039153564,7.516011529539397,118.37479003729669,-15.5737915,-3.3020396,-16.458181,6.329687,4.3277087,-4.4726357,3.2283058,-15.595867,-47.991005,7.404258,-7.0964026,12.742413,17.549154,-1.6077995,19.003311,10.120332,20.460308,-21.042593,48.115356,8.731065,6.2021775,-2.5067,-98.67873,-67.233734,61.95559,64.23801,-43.560852,7.135099,0.1694869
197,-2.0111887454986572,-6.51926851272583,78.52449035644531,1.0962293478848932,7.311144104905581,118.03540362600177,-15.318816,-3.2169056,-16.132685,6.3474293,4.251202,-4.417262,3.273898,-15.640525,-47.541317,7.436609,-6.9787235,12.756161,17.52342,-1.5685788,18.906765,10.068015,20.324717,-21.197256,48.18743,9.00835,6.2595572,-2.3086462,-97.92718,-67.248856,61.679802,62.796387,-43.386936,7.485267,-0.33365682
198,-2.05322527885437,-6.579278469085693,78.52960205078125,1.0670364862839055,7.1088093810542805,117.6606808542034,-15.060319,-3.1191375,-15.7827425,6.3675756,4.1693907,-4.373806,3.3010504,-15.680923,-47.031708,7.466186,-6.854713,12.763936,17.481443,-1.5375892,18.794584,10.008542,20.154522,-21.315393,48.24696,9.339996,6.3455124,-2.1279507,-97.10736,-67.23086,61.168842,61.21308,-43.34145,7.849171,-0.73606044
199,-2.097564220428467,-6.630320072174072,78.53206634521484,1.0390014870091338,6.906727574780809,117.24746247982222,-14.792771,-3.009854,-15.398338,6.3867116,4.073052,-4.3293977,3.3131313,-15.720897,-46.48574,7.49622,-6.7297387,12.7715225,17.413715,-1.532574,18.66927,9.94024,19.955101,-21.39683,48.318504,9.649939,6.4291677,-1.9529277,-96.25414,-67.17757,60.566357,59.558193,-43.25622,8.192872,-1.1175054
200,-2.1437909603118896,-6.677290916442871,78.5367431640625,1.015318768015369,6.702922825543658,116.79312647655107,-14.513722,-2.8908157,-14.96958,6.407101,3.950555,-4.2711873,3.239066,-15.839698,-45.905666,7.749328,-6.7242923,12.786471,17.352926,-1.5278995,18.5448,9.868835,19.762682,-21.49956,48.371445,9.836825,6.478554,-1.7921644,-95.36563,-67.08088,59.848763,57.93495,-43.13675,8.464013,-1.5465934
201,-2.183103322982788,-6.7159504890441895,78.53874969482422,0.997271134202092,6.497340720052345,116.28876137634423,-14.220936,-2.758849,-14.484221,6.427183,3.7945848,-4.1905017,3.114056,-15.995353,-45.300163,8.108392,-6.7773094,12.813148,17.3063,-1.5308169,18.419468,9.78929,19.573277,-21.620853,48.415234,9.875752,6.490421,-1.640975,-94.3869,-66.931046,58.916588,56.349026,-42.981693,8.643218,-2.0806687
202,-2.224116563796997,-6.7638983726501465,78.53681182861328,0.9838769276063029,6.290922441404819,115.73840712290875,-13.916064,-2.615168,-13.950478,6.447324,3.612221,-4.0962796,2.9688783,-16.153372,-44.66798,8.478887,-6.838208,12.84683,17.25753,-1.5539737,18.288828,9.716395,19.388746,-21.734299,48.438194,9.8152075,6.4797525,-1.5014366,-93.36368,-66.72897,57.84321,54.759975,-42.77269,8.759031,-2.6708634
203,-2.276263475418091,-6.799680709838867,78.5328369140625,0.9733610469706776,6.082865096741287,115.15844234394967,-13.690286,-2.4886332,-13.384992,6.6638923,3.3118203,-4.0011587,2.8102813,-16.31312,-44.020336,8.859684,-6.9067206,12.879495,17.190172,-1.5985153,18.155157,9.647707,19.215654,-21.846401,48.449265,9.680926,6.441621,-1.3722094,-92.3464,-66.482414,56.75539,53.16131,-42.528374,8.839759,-3.2328742
204,-2.327660083770752,-6.830837726593018,78.53028106689453,0.9666577260424656,5.872345611594714,114.56567220481557,-13.475019,-2.3666534,-12.812761,6.923414,2.9864972,-3.9195883,2.6453815,-16.473785,-43.36883,9.251337,-6.984711,12.903078,17.093937,-1.6583699,18.021729,9.576462,19.058998,-21.973078,48.4572,9.496578,6.3709455,-1.2532806,-91.35722,-66.20088,55.7349,51.545433,-42.301758,8.912422,-3.6803968
205,-2.3773880004882812,-6.858716011047363,78.52494812011719,0.9635265398229024,5.660521363152836,113.96083692458,-13.230659,-2.2412808,-12.237263,7.138182,2.6856983,-3.8588996,2.4676273,-16.64301,-42.71675,9.67067,-7.080056,12.914981,16.96126,-1.7367221,17.88553,9.51379,18.919674,-22.111822,48.454285,9.231202,6.2558627,-1.1465969,-90.41197,-65.894485,54.81914,49.895844,-42.072216,8.969455,-3.977901
206,-2.429786205291748,-6.888858795166016,78.51921081542969,0.9641846574826375,5.447385542291871,113.33623498567262,-12.962163,-2.1111362,-11.6480255,7.321041,2.39635,-3.8110306,2.277813,-16.81639,-42.058342,10.107254,-7.187143,12.920213,16.805048,-1.8288027,17.746872,9.454488,18.794024,-22.265463,48.439358,8.882533,6.1020956,-1.0535271,-89.49098,-65.56449,53.950222,48.21824,-41.83652,9.000913,-4.1734767
207,-2.484768867492676,-6.9110894203186035,78.5124282836914,0.9686356036850607,5.230902724779378,112.69558774060032,-12.686312,-1.978114,-11.048208,7.510534,2.0955899,-3.7669652,2.0882971,-16.980465,-41.389954,10.533288,-7.2922997,12.922465,16.633938,-1.9306931,17.612064,9.37904,18.684446,-22.441038,48.427197,8.52064,5.9317656,-0.9707155,-88.59928,-65.21587,53.14781,46.53711,-41.603363,9.033555,-4.3100066
208,-2.540147066116333,-6.932518005371094,78.50359344482422,0.9708470208239693,5.008535576252607,112.04251149949478,-12.410803,-1.8408887,-10.441404,7.7250595,1.7722814,-3.7177503,1.9079217,-17.12603,-40.706493,10.932526,-7.388654,12.924928,16.457539,-2.0351012,17.487902,9.268045,18.594358,-22.648787,48.43076,8.212826,5.7669463,-0.89539796,-87.74871,-64.85442,52.442673,44.881336,-41.37556,9.093391,-4.43048
209,-2.593268394470215,-6.9397501945495605,78.49671173095703,0.9709701824402834,4.775626613163707,111.3718432907972,-12.149317,-1.6971502,-9.82582,8.006868,1.3997211,-3.6598244,1.7451745,-17.244684,-40.004364,11.29074,-7.467833,12.924731,16.282568,-2.1376495,17.382807,9.113358,18.527586,-22.907661,48.45621,7.9476147,5.593831,-0.819821,-86.938286,-64.482574,51.846302,43.25904,-41.13648,9.180993,-4.557193
210,-2.646808624267578,-6.957505702972412,78.48793029785156,0.9696243232322204,4.53448819065009,110.68363783812919,-11.890493,-1.5455804,-9.200929,8.327342,0.99526393,-3.5985985,1.5927298,-17.344122,-39.28681,11.6241255,-7.5380635,12.920789,16.104479,-2.2410738,17.291546,8.927651,18.482882,-23.209644,48.49246,7.697278,5.407312,-0.74888533,-86.15751,-64.10254,51.33969,41.65304,-40.88931,9.2844515,-4.6637216
211,-2.7034950256347656,-6.9778642654418945,78.47734832763672,0.9687978199626308,4.293220934549199,109.98963407961031,-11.630553,-1.3915253,-8.572536,8.652622,0.58366454,-3.538811,1.445033,-17.430643,-38.562927,11.9356365,-7.603046,12.919692,15.915991,-2.350322,17.20029,8.719721,18.45486,-23.523554,48.528625,7.5064936,5.242987,-0.696655,-85.409164,-63.722145,50.91318,40.051266,-40.666397,9.410455,-4.7197204
212,-2.7541351318359375,-6.995999813079834,78.46514892578125,0.9727332581158944,4.0603387537706235,109.30189688633936,-11.359844,-1.240809,-7.945985,8.93801,0.1948169,-3.4848475,1.2924334,-17.513496,-37.840244,12.236828,-7.671021,12.927699,15.710536,-2.470043,17.095285,8.495253,18.43623,-23.81923,48.55773,7.420449,5.1364207,-0.6759287,-84.69905,-63.353054,50.560677,38.438698,-40.498566,9.5662775,-4.693732
213,-2.817039966583252,-7.008950233459473,78.4492416381836,0.9798606403140799,3.8391773671375393,108.6162994511935,-11.08098,-1.0925432,-7.317467,9.184787,-0.17586741,-3.4410033,1.1349485,-17.588804,-37.116253,12.51643,-7.7396693,12.949353,15.495436,-2.600689,16.970636,8.240871,18.424356,-24.110687,48.592705,7.472327,5.1061087,-0.6958222,-84.02909,-63.00774,50.30834,36.793884,-40.417625,9.773283,-4.5693617
214,-2.871527910232544,-7.021752834320068,78.4306411743164,0.9890332874807976,3.625104620681539,107.92921003043148,-10.796968,-0.9440943,-6.6860228,9.411697,-0.53993046,-3.4041,0.97535205,-17.65499,-36.388332,12.777185,-7.8082438,12.980638,15.275275,-2.7372239,16.834675,7.950048,18.418705,-24.41222,48.640625,7.631685,5.129964,-0.7461045,-83.38812,-62.693333,50.14922,35.119503,-40.394302,10.021234,-4.363561
215,-2.927537441253662,-7.0247015953063965,78.41368103027344,1.0016268082223396,3.414552200505132,107.25232180583268,-10.511998,-0.8015194,-6.061602,9.627147,-0.8912139,-3.3675466,0.81853807,-17.717527,-35.6666,13.027507,-7.8749695,13.012972,15.042171,-2.8758233,16.69537,7.6372433,18.415146,-24.694122,48.685955,7.8505645,5.1827,-0.8104228,-82.74157,-62.410133,49.998184,33.429775,-40.39054,10.268362,-4.0947647
216,-2.98317551612854,-7.031091213226318,78.3980941772461,1.0198309013740716,3.203830189591461,106.59747729109438,-10.230107,-0.6711494,-5.454154,9.839003,-1.2239172,-3.3243232,0.6700114,-17.781437,-34.963123,13.274569,-7.9369364,13.039525,14.785083,-3.015945,16.560652,7.317265,18.410547,-24.92246,48.714127,8.081219,5.23916,-0.8715853,-82.051445,-62.155197,49.763794,31.7372,-40.367146,10.473498,-3.7823634
217,-3.0400383472442627,-7.054624080657959,78.38054656982422,1.0472156312907777,2.9891497698019,105.96305216543712,-9.949052,-0.558699,-4.8582993,10.051294,-1.5365164,-3.2684882,0.5259625,-17.855556,-34.27,13.533185,-8.001566,13.057384,14.503641,-3.1637664,16.435051,6.9900007,18.405275,-25.084116,48.716427,8.351565,5.309898,-0.93758994,-81.30169,-61.928223,49.413853,30.016907,-40.317722,10.6264925,-3.4029598
218,-3.096555709838867,-7.0596418380737305,78.36500549316406,1.0815732577580177,2.7736179312605915,105.34420791503226,-9.6684065,-0.46032003,-4.2714076,10.2592945,-1.8322351,-3.204671,0.38545197,-17.934923,-33.58496,13.794208,-8.065331,13.070424,14.2018385,-3.322189,16.313345,6.6483397,18.40354,-25.195154,48.70351,8.675008,5.4023933,-1.012833,-80.509796,-61.734333,48.99353,28.26418,-40.257362,10.74867,-2.9553964
219,-3.15775465965271,-7.059895992279053,78.35372924804688,1.1154209177961838,2.5643089865057425,104.74797800706465,-9.393619,-0.36819315,-3.706755,10.456759,-2.1118624,-3.1411462,0.25235972,-18.008158,-32.924603,14.0410185,-8.121548,13.081399,13.879967,-3.4821258,16.190062,6.294331,18.406843,-25.269983,48.688633,8.981461,5.487688,-1.074982,-79.65956,-61.57286,48.494507,26.514896,-40.20879,10.846501,-2.4917998
220,-3.212874412536621,-7.064357280731201,78.34072875976562,1.1408450380658715,2.3682670475273313,104.18152530389065,-9.129273,-0.27429748,-3.1776476,10.634694,-2.3745408,-3.0864756,0.13091855,-18.063646,-32.306114,14.257242,-8.158274,13.0928755,13.533515,-3.638886,16.058624,5.9331965,18.417824,-25.317425,48.684696,9.201682,5.5373564,-1.100164,-78.76211,-61.44459,47.936035,24.812347,-40.170532,10.926002,-2.0650618
221,-3.273249864578247,-7.066387176513672,78.3314437866211,1.1533457552984443,2.1860102569502855,103.65240591937668,-8.887199,-0.17652982,-2.6949792,10.814098,-2.6286287,-3.0441282,0.027447298,-18.097784,-31.743576,14.43984,-8.174399,13.105113,13.158605,-3.7865956,15.91623,5.561154,18.437904,-25.345715,48.696453,9.327191,5.5392184,-1.0819086,-77.79442,-61.34552,47.28956,23.154778,-40.15798,10.977484,-1.6878399
222,-3.3333373069763184,-7.067800998687744,78.32478332519531,1.156916444134772,2.0142849221984154,103.15505256312996,-8.662413,-0.079355605,-2.2491193,10.9925375,-2.8717115,-3.0088649,-0.061490837,-18.117323,-31.225216,14.596474,-8.174254,13.11692,12.758763,-3.930777,15.766768,5.1767907,18.468185,-25.349007,48.715946,9.390368,5.5102897,-1.0323527,-76.75585,-61.274178,46.55071,21.519814,-40.166363,11.002089,-1.332218
223,-3.3916234970092773,-7.072012901306152,78.31700134277344,1.1579789220093988,1.8541404998213649,102.67700678823334,-8.435551,0.015126065,-1.8220764,11.129725,-3.089011,-2.9760811,-0.15217027,-18.130249,-30.726912,14.742132,-8.1647415,13.128569,12.343764,-4.079235,15.615194,4.789449,18.508514,-25.315872,48.73354,9.385614,5.466144,-0.9571419,-75.68371,-61.234425,45.76742,19.928291,-40.169937,11.017594,-0.9932706
224,-3.446087598800659,-7.087937831878662,78.30964660644531,1.1627062075235577,1.7068939928329165,102.20576826397657,-8.1874895,0.10438331,-1.3958124,11.186176,-3.2660995,-2.9414072,-0.2602034,-18.143934,-30.224514,14.888664,-8.150661,13.14075,11.922185,-4.239187,15.465743,4.407758,18.55734,-25.235115,48.742092,9.306593,5.421836,-0.86169666,-74.6323,-61.234184,45.007824,18.406815,-40.136444,11.042246,-0.66585034
225,-3.508596897125244,-7.097958087921143,78.30479431152344,1.1701488237976916,1.57728812673843,101.74235653148578,-7.9192767,0.18812199,-0.971117,11.152089,-3.3982122,-2.9042556,-0.39067933,-18.156372,-29.714527,15.034615,-8.130629,13.154685,11.480344,-4.4127893,15.310468,4.041294,18.611675,-25.08602,48.740265,9.116386,5.3775177,-0.74157095,-73.67181,-61.288273,44.34045,16.969952,-40.019688,11.07382,-0.33981615
226,-3.5658888816833496,-7.110325336456299,78.30043029785156,1.1774966848102602,1.463131549244873,101.29223734614692,-7.640193,0.26640788,-0.5556571,11.05038,-3.4943857,-2.8666754,-0.5351008,-18.164331,-29.20891,15.174645,-8.102561,13.170018,11.055696,-4.57311,15.162775,3.6486545,18.661514,-24.917698,48.74442,8.830058,5.325112,-0.5981244,-72.55618,-61.365242,43.53727,15.546044,-39.99787,11.109896,-0.02193016
227,-3.6252784729003906,-7.123405456542969,78.29700469970703,1.188606970689964,1.3556167114995454,100.84886947695117,-7.3404126,0.3370663,-0.14157465,10.884211,-3.5576694,-2.8289309,-0.6875998,-18.176191,-28.70656,15.316118,-8.070931,13.183876,10.618051,-4.7502913,15.015854,3.2576609,18.719578,-24.710096,48.752094,8.521485,5.2695084,-0.4363753,-71.50731,-61.48885,42.800495,14.215012,-39.8835,11.151995,0.27067834
228,-3.6818795204162598,-7.13353967666626,78.2957992553711,1.2077245139313877,1.2454981243983596,100.40611204210121,-7.0150075,0.39785057,0.27871165,10.66763,-3.5966258,-2.7914035,-0.8451947,-18.198574,-28.205946,15.471556,-8.042848,13.193508,10.1984215,-4.9304867,14.888316,2.855049,18.788101,-24.505318,48.75531,8.260007,5.2146707,-0.26999593,-70.43673,-61.64665,42.05717,12.9688835,-39.73031,11.214898,0.5150982
229,-3.74454402923584,-7.142283916473389,78.2957534790039,1.2376427894572148,1.1317740838637058,99.96359278570522,-6.653415,0.44583702,0.7073206,10.383907,-3.6069446,-2.753734,-1.0046039,-18.235573,-27.708292,15.6379,-8.018117,13.196631,9.794816,-5.124318,14.780216,2.4438863,18.8721,-24.299217,48.756573,8.063474,5.157888,-0.08766752,-69.3548,-61.839176,41.33906,11.820391,-39.540382,11.310623,0.6751532
230,-3.802974224090576,-7.161716461181641,78.29324340820312,1.275503415108817,1.0190797861926322,99.52412959406226,-6.2611322,0.4821608,1.1401353,10.032198,-3.5862114,-2.7168145,-1.1699951,-18.28267,-27.21345,15.813444,-7.9949365,13.195079,9.402269,-5.328303,14.687245,2.0264616,18.97139,-24.083982,48.752354,7.892494,5.098189,0.11061525,-68.257675,-62.063755,40.632023,10.761479,-39.321144,11.430491,0.7706299
231,-3.8592708110809326,-7.180324077606201,78.29170989990234,1.3167432647819823,0.9066983341881741,99.08620432396236,-5.8550806,0.5104047,1.5754396,9.645009,-3.5438678,-2.6824634,-1.3414172,-18.332617,-26.719736,15.995385,-7.969518,13.192466,9.023523,-5.530823,14.610896,1.6047505,19.083488,-23.867743,48.730145,7.736483,5.0437145,0.2992794,-67.12907,-62.30842,39.866844,9.780788,-39.05483,11.550609,0.8669901
232,-3.909140110015869,-7.206502437591553,78.2921142578125,1.3564856561744465,0.7938167436988233,98.64812124609709,-5.4517508,0.53578997,2.0109026,9.254261,-3.4892616,-2.6540473,-1.5177953,-18.37976,-26.2256,16.180353,-7.937218,13.192633,8.657877,-5.7224455,14.5508585,1.1819346,19.206575,-23.65583,48.679607,7.5842824,5.0025697,0.45369092,-65.960335,-62.55874,38.98009,8.868513,-38.71772,11.6472025,1.0312152
233,-3.974731922149658,-7.232698917388916,78.29231262207031,1.3997601688436518,0.676073008640946,98.21072892245549,-5.039649,0.5513156,2.4492795,8.8440075,-3.4131763,-2.6285293,-1.6997563,-18.430609,-25.729591,16.380415,-7.903742,13.195118,8.301511,-5.9094367,14.511601,0.76199967,19.341276,-23.443151,48.591843,7.446579,4.9850655,0.56012344,-64.747444,-62.803608,37.954975,8.026522,-38.275074,11.698738,1.2948364
234,-4.027221202850342,-7.2586989402771,78.29055786132812,1.4468355996715598,0.5553716689840883,97.77444148021371,-4.615178,0.55690044,2.8901882,8.405339,-3.3148763,-2.6064355,-1.8858879,-18.485432,-25.233206,16.589943,-7.8675246,13.198895,7.9530964,-6.096621,14.490508,0.344304,19.489552,-23.226116,48.473927,7.324446,4.984541,0.6346138,-63.496693,-63.038033,36.822815,7.2652802,-37.75325,11.723763,1.618197
235,-4.083048343658447,-7.291168212890625,78.29335021972656,1.486889234354736,0.44020783327896845,97.3371815104178,-4.2080665,0.5674428,3.3294644,7.982412,-3.2153623,-2.5891395,-2.0779588,-18.524792,-24.739017,16.78908,-7.818974,13.2062,7.6175523,-6.2714634,14.478581,-0.074927345,19.65022,-23.014042,48.338276,7.192367,4.9836407,0.69645804,-62.213287,-63.254158,35.590572,6.5905614,-37.22469,11.757293,1.9589647
236,-4.132917404174805,-7.332832336425781,78.29490661621094,1.5084728962410703,0.33882496056595834,96.89702302635382,-3.8488693,0.59870476,3.76311,7.6219997,-3.1372833,-2.5777688,-2.2732193,-18.531105,-24.250801,16.949938,-7.7440553,13.219631,7.303,-6.4201317,14.468127,-0.50293565,19.820354,-22.81862,48.199944,7.025774,4.9647136,0.76529646,-60.88777,-63.440666,34.253067,6.0042067,-36.772102,11.8328495,2.2748754
237,-4.18291711807251,-7.375740051269531,78.29492950439453,1.505947370190592,0.2559054080434618,96.45590537890507,-3.5384586,0.6570483,4.1899137,7.314421,-3.0753353,-2.581265,-2.469957,-18.494526,-23.77354,17.059374,-7.638115,13.245325,7.0050044,-6.5355725,14.451006,-0.94034624,19.996143,-22.634743,48.062607,6.800079,4.923315,0.8534079,-59.539314,-63.586952,32.797462,5.4993453,-36.45003,11.985623,2.645857
238,-4.2313432693481445,-7.420370578765869,78.29911041259766,1.4861136915998812,0.18585793166565237,96.01418039256254,-3.27191,0.7346673,4.6123075,7.0618215,-3.0290167,-2.5954554,-2.6704872,-18.428955,-23.303608,17.13688,-7.510372,13.280492,6.718396,-6.62699,14.431656,-1.3830409,20.177519,-22.45608,47.92199,6.5351353,4.868445,0.9487416,-58.181557,-63.686935,31.24487,5.08785,-36.206516,12.187414,3.0642085
239,-4.280825138092041,-7.470922946929932,78.30490112304688,1.4564634056622576,0.12124791721942706,95.56733721748988,-3.041429,0.8247817,5.0317426,6.864195,-3.0026755,-2.6019683,-2.8765783,-18.343554,-22.833336,17.198324,-7.365536,13.312958,6.4492145,-6.704,14.421734,-1.830031,20.367762,-22.293104,47.778778,6.271871,4.802616,1.0334963,-56.803894,-63.736267,29.646133,4.802576,-35.961098,12.37544,3.3560467
